;FLAVOR:Marlin
;TIME:5914
;Filament used: 3.61266m
;Layer height: 0.15
;MINX:53.628
;MINY:83.564
;MINZ:0.2
;MAXX:181.372
;MAXY:153.364
;MAXZ:9.95
;Generated with Cura_SteamEngine 4.1.0
M140 S60
M105
M190 S60
M104 S200
M105
M109 S200
M82 ;absolute extrusion mode
; Ender 3 Custom Start G-code
G28 ; Home all axes
G92 E0 ; Reset Extruder
G1 Z2.0 F3000 ; Move Z Axis up little to prevent scratching of Heat Bed
G1 X0.1 Y20 Z0.3 F5000.0 ; Move to start position
G1 X0.1 Y200.0 Z0.3 F1500.0 E15 ; Draw the first line
G1 X0.4 Y200.0 Z0.3 F5000.0 ; Move to side a little
G1 X0.4 Y20 Z0.3 F1500.0 E30 ; Draw the second line
G92 E0 ; Reset Extruder
G1 Z2.0 F3000 ; Move Z Axis up little to prevent scratching of Heat Bed
; End of custom start GCode
G92 E0
G92 E0
G1 F2400 E-5
;LAYER_COUNT:66
;LAYER:0
M107
M204 S500
M205 X10 Y10
G0 F3600 X58.995 Y85.786 Z0.2
;TYPE:SKIRT
G1 F2400 E0
G1 F1800 X59.172 Y85.668 E0.00708
G1 X59.605 Y85.388 E0.02423
G1 X60.31 Y84.992 E0.05112
G1 X60.712 Y84.799 E0.06595
G1 X60.938 Y84.696 E0.07421
G1 X61.462 Y84.469 E0.09321
G1 X62.264 Y84.184 E0.12151
G1 X62.66 Y84.072 E0.1352
G1 X62.863 Y84.018 E0.14219
G1 X63.42 Y83.88 E0.16127
G1 X64.249 Y83.732 E0.18928
G1 X64.661 Y83.686 E0.20307
G1 X64.873 Y83.665 E0.21016
G1 X65.386 Y83.625 E0.22727
G1 X65.761 Y83.607 E0.23976
G1 X66.645 Y83.59 E0.26917
G1 X66.756 Y83.589 E0.27286
G1 X68.812 Y83.585 E0.34124
G1 X101.54 Y83.585 E1.42978
G1 X103.718 Y83.574 E1.50222
G1 X104.432 Y83.61 E1.526
G1 X104.826 Y83.665 E1.53923
G1 X105.651 Y83.806 E1.56707
G1 X108.336 Y84.227 E1.65746
G1 X110.93 Y84.558 E1.74444
G1 X113.587 Y84.822 E1.83325
G1 X116.233 Y85.009 E1.92147
G1 X118.867 Y85.12 E2.00916
G1 X121.514 Y85.158 E2.0972
G1 X124.152 Y85.12 E2.18495
G1 X126.8 Y85.007 E2.27311
G1 X129.428 Y84.821 E2.36073
G1 X132.106 Y84.554 E2.45025
G1 X134.708 Y84.221 E2.53749
G1 X137.338 Y83.808 E2.62604
G1 X137.715 Y83.74 E2.63878
G1 X137.845 Y83.718 E2.64317
G1 X138.203 Y83.661 E2.65522
G1 X139.076 Y83.582 E2.68438
G1 X139.894 Y83.565 E2.71159
G1 X140.027 Y83.564 E2.71602
G1 X140.708 Y83.564 E2.73867
G1 X168.302 Y83.584 E3.65645
G1 X168.397 Y83.585 E3.65961
G1 X169.104 Y83.596 E3.68312
G1 X169.42 Y83.609 E3.69364
G1 X169.835 Y83.636 E3.70747
G1 X170.029 Y83.651 E3.71395
G1 X170.53 Y83.699 E3.73069
G1 X171.232 Y83.806 E3.7543
G1 X171.552 Y83.873 E3.76518
G1 X171.846 Y83.942 E3.77522
G1 X172.49 Y84.109 E3.79735
G1 X173.286 Y84.372 E3.82523
G1 X173.696 Y84.538 E3.83995
G1 X173.89 Y84.62 E3.84695
G1 X174.388 Y84.841 E3.86507
G1 X175.116 Y85.222 E3.8924
G1 X175.478 Y85.442 E3.90649
G1 X175.672 Y85.565 E3.91413
G1 X176.14 Y85.873 E3.93276
G1 X176.838 Y86.404 E3.96193
G1 X177.208 Y86.728 E3.97829
G1 X177.362 Y86.867 E3.98519
G1 X177.729 Y87.21 E4.0019
G1 X178.205 Y87.705 E4.02474
G1 X178.337 Y87.858 E4.03146
G1 X178.44 Y87.981 E4.0368
G1 X178.572 Y88.142 E4.04372
G1 X178.694 Y88.295 E4.05023
G1 X179.039 Y88.743 E4.06904
G1 X179.505 Y89.438 E4.09687
G1 X179.745 Y89.852 E4.11278
G1 X179.847 Y90.034 E4.11972
G1 X180.094 Y90.494 E4.13709
G1 X180.444 Y91.265 E4.16525
G1 X180.597 Y91.671 E4.17968
G1 X180.669 Y91.871 E4.18675
G1 X180.838 Y92.369 E4.20424
G1 X181.044 Y93.128 E4.2304
G1 X181.131 Y93.548 E4.24467
G1 X181.181 Y93.822 E4.25393
G1 X181.277 Y94.414 E4.27388
G1 X181.357 Y95.245 E4.30164
G1 X181.369 Y95.643 E4.31489
G1 X181.372 Y95.858 E4.32204
G1 X181.37 Y96.447 E4.34163
G1 X181.309 Y97.307 E4.37031
G1 X181.25 Y97.731 E4.38454
G1 X181.22 Y97.926 E4.39111
G1 X181.128 Y98.465 E4.40929
G1 X180.931 Y99.286 E4.43737
G1 X180.799 Y99.711 E4.45218
G1 X180.729 Y99.924 E4.45963
G1 X180.548 Y100.442 E4.47788
G1 X180.237 Y101.18 E4.50452
G1 X180.06 Y101.536 E4.51774
G1 X179.938 Y101.768 E4.52646
G1 X179.654 Y102.285 E4.54608
G1 X179.211 Y102.982 E4.57355
G1 X178.925 Y103.373 E4.58966
G1 X178.787 Y103.555 E4.59726
G1 X178.494 Y103.927 E4.61301
G1 X178.079 Y104.403 E4.63401
G1 X177.929 Y104.559 E4.64121
G1 X177.758 Y104.73 E4.64925
G1 X177.591 Y104.891 E4.65697
G1 X177.465 Y105.01 E4.66273
G1 X177.039 Y105.399 E4.68192
G1 X176.356 Y105.942 E4.71094
G1 X175.976 Y106.204 E4.72629
G1 X175.811 Y106.314 E4.73289
G1 X175.341 Y106.617 E4.75149
G1 X173.15 Y108.075 E4.83902
G1 X170.976 Y109.611 E4.92756
G1 X168.859 Y111.199 E5.01557
G1 X166.787 Y112.848 E5.10365
G1 X164.756 Y114.559 E5.19198
G1 X162.787 Y116.314 E5.27971
G1 X160.844 Y118.147 E5.36855
G1 X158.996 Y119.995 E5.45547
G1 X157.182 Y121.911 E5.54323
G1 X155.406 Y123.899 E5.63189
G1 X153.699 Y125.923 E5.71996
G1 X152.037 Y128.01 E5.80869
G1 X150.46 Y130.108 E5.89599
G1 X148.931 Y132.266 E5.98395
G1 X147.466 Y134.465 E6.07184
G1 X146.052 Y136.722 E6.16042
G1 X144.145 Y140.013 E6.28693
G1 X143.878 Y140.493 E6.3052
G1 X143.683 Y140.821 E6.31789
G1 X143.066 Y141.79 E6.3561
G1 X142.962 Y141.948 E6.36239
G1 X142.634 Y142.431 E6.38181
G1 X142.418 Y142.73 E6.39407
G1 X141.846 Y143.476 E6.42534
G1 X141.732 Y143.621 E6.43148
G1 X141.204 Y144.27 E6.4593
G1 X140.934 Y144.58 E6.47298
G1 X140.18 Y145.394 E6.50988
G1 X140.051 Y145.53 E6.51611
G1 X139.61 Y145.979 E6.53705
G1 X139.35 Y146.229 E6.54904
G1 X138.688 Y146.831 E6.5788
G1 X138.548 Y146.954 E6.585
G1 X137.902 Y147.508 E6.61331
G1 X137.575 Y147.771 E6.62726
G1 X136.652 Y148.463 E6.66563
G1 X136.5 Y148.573 E6.67187
G1 X136.002 Y148.924 E6.69214
G1 X135.687 Y149.133 E6.70471
G1 X134.753 Y149.712 E6.74126
G1 X134.6 Y149.804 E6.7472
G1 X134.057 Y150.12 E6.76809
G1 X133.726 Y150.3 E6.78063
G1 X132.919 Y150.708 E6.8107
G1 X132.75 Y150.79 E6.81695
G1 X131.968 Y151.157 E6.84568
G1 X131.595 Y151.318 E6.85919
G1 X130.539 Y151.734 E6.89694
G1 X130.368 Y151.798 E6.90302
G1 X129.834 Y151.991 E6.9219
G1 X129.475 Y152.109 E6.93447
G1 X128.539 Y152.386 E6.96694
G1 X128.366 Y152.434 E6.97291
G1 X127.568 Y152.646 E7.00037
G1 X127.191 Y152.735 E7.01325
G1 X126.393 Y152.896 E7.04033
G1 X126.284 Y152.916 E7.04402
G1 X125.974 Y152.973 E7.0545
G1 X125.893 Y152.988 E7.05724
G1 X125.324 Y153.085 E7.07644
G1 X124.941 Y153.138 E7.0893
G1 X123.977 Y153.243 E7.12155
G1 X123.8 Y153.26 E7.12746
G1 X122.997 Y153.325 E7.15426
G1 X122.585 Y153.345 E7.16798
G1 X121.482 Y153.363 E7.20467
G1 X121.309 Y153.364 E7.21042
G1 X120.656 Y153.357 E7.23214
G1 X120.245 Y153.339 E7.24583
G1 X119.114 Y153.254 E7.28355
G1 X118.951 Y153.24 E7.28899
G1 X118.367 Y153.181 E7.30851
G1 X117.969 Y153.128 E7.32187
G1 X116.859 Y152.945 E7.35929
G1 X116.683 Y152.913 E7.36524
G1 X116.048 Y152.79 E7.38675
G1 X115.658 Y152.702 E7.40005
G1 X114.598 Y152.427 E7.43647
G1 X114.432 Y152.382 E7.44219
G1 X113.818 Y152.205 E7.46344
G1 X113.457 Y152.089 E7.47605
G1 X112.589 Y151.782 E7.50668
G1 X112.417 Y151.718 E7.51278
G1 X111.622 Y151.411 E7.54113
G1 X111.255 Y151.256 E7.55438
G1 X110.45 Y150.886 E7.58384
G1 X110.298 Y150.814 E7.58944
G1 X109.55 Y150.446 E7.61716
G1 X109.195 Y150.257 E7.63054
G1 X108.348 Y149.772 E7.663
G1 X108.189 Y149.678 E7.66915
G1 X107.494 Y149.253 E7.69624
G1 X107.147 Y149.025 E7.71005
G1 X106.257 Y148.398 E7.74626
G1 X106.127 Y148.304 E7.7516
G1 X105.622 Y147.929 E7.77252
G1 X105.299 Y147.672 E7.78625
G1 X104.417 Y146.924 E7.82471
G1 X104.292 Y146.816 E7.83021
G1 X103.851 Y146.422 E7.84987
G1 X103.555 Y146.14 E7.86347
G1 X102.776 Y145.349 E7.9004
G1 X102.657 Y145.224 E7.90614
G1 X102.225 Y144.761 E7.9272
G1 X101.976 Y144.479 E7.93971
G1 X101.371 Y143.749 E7.97125
G1 X101.257 Y143.607 E7.9773
G1 X100.752 Y142.961 E8.00457
G1 X100.509 Y142.629 E8.01826
G1 X99.895 Y141.73 E8.05447
G1 X99.794 Y141.577 E8.06057
G1 X99.618 Y141.303 E8.0714
G1 X98.123 Y139.048 E8.16138
G1 X96.596 Y136.881 E8.24956
G1 X95.02 Y134.774 E8.33707
G1 X93.368 Y132.689 E8.42555
G1 X91.677 Y130.676 E8.51299
G1 X89.885 Y128.661 E8.60268
G1 X88.108 Y126.772 E8.68893
G1 X86.226 Y124.885 E8.77758
G1 X84.316 Y123.071 E8.86519
G1 X82.32 Y121.284 E8.95429
G1 X80.318 Y119.588 E9.04156
G1 X78.252 Y117.938 E9.1295
G1 X76.122 Y116.332 E9.21823
G1 X73.956 Y114.793 E9.3066
G1 X71.784 Y113.341 E9.3935
G1 X69.529 Y111.924 E9.48208
G1 X67.258 Y110.587 E9.56973
G1 X64.931 Y109.301 E9.65816
G1 X62.569 Y108.082 E9.74657
G1 X61.186 Y107.407 E9.79775
G1 X60.434 Y107.047 E9.82548
G1 X59.842 Y106.724 E9.84791
G1 X59.47 Y106.495 E9.86244
G1 X59.291 Y106.381 E9.8695
G1 X58.835 Y106.079 E9.88769
G1 X58.162 Y105.566 E9.91584
G1 X57.841 Y105.286 E9.93
G1 X57.685 Y105.146 E9.93697
G1 X57.275 Y104.764 E9.95561
G1 X56.729 Y104.187 E9.98203
G1 X56.448 Y103.851 E9.9966
G1 X56.285 Y103.648 E10.00526
G1 X55.961 Y103.227 E10.02293
G1 X55.505 Y102.549 E10.05011
G1 X55.281 Y102.165 E10.06489
G1 X55.168 Y101.963 E10.07259
G1 X54.9 Y101.463 E10.09146
G1 X54.552 Y100.697 E10.11944
G1 X54.402 Y100.299 E10.13359
G1 X54.328 Y100.091 E10.14093
G1 X54.158 Y99.588 E10.15859
G1 X53.948 Y98.807 E10.18549
G1 X53.854 Y98.342 E10.20127
G1 X53.808 Y98.09 E10.20979
G1 X53.721 Y97.549 E10.22801
G1 X53.643 Y96.714 E10.25591
G1 X53.631 Y96.289 E10.27005
G1 X53.628 Y96.085 E10.27683
G1 X53.63 Y95.526 E10.29543
G1 X53.69 Y94.678 E10.3237
G1 X53.747 Y94.263 E10.33763
G1 X53.775 Y94.075 E10.34396
G1 X53.869 Y93.515 E10.36284
G1 X54.081 Y92.639 E10.39282
G1 X54.225 Y92.185 E10.40866
G1 X54.283 Y92.01 E10.41479
G1 X54.452 Y91.526 E10.43184
G1 X54.776 Y90.762 E10.45945
G1 X54.964 Y90.388 E10.47337
G1 X55.07 Y90.185 E10.48098
G1 X55.342 Y89.689 E10.4998
G1 X55.785 Y88.993 E10.52724
G1 X56.031 Y88.656 E10.54112
G1 X56.168 Y88.474 E10.54869
G1 X56.524 Y88.021 E10.56786
G1 X57.072 Y87.409 E10.59518
G1 X57.347 Y87.139 E10.608
G1 X57.504 Y86.99 E10.6152
G1 X57.94 Y86.59 E10.63488
G1 X58.615 Y86.05 E10.66363
G1 X58.995 Y85.786 E10.67902
G0 F3600 X59.224 Y86.114
G1 F1800 X59.389 Y86.004 E10.68561
G1 X59.822 Y85.724 E10.70276
G1 X60.483 Y85.353 E10.72797
G1 X60.885 Y85.16 E10.74281
G1 X61.097 Y85.063 E10.75056
G1 X61.621 Y84.836 E10.76955
G1 X62.373 Y84.568 E10.79611
G1 X62.769 Y84.456 E10.80979
G1 X62.959 Y84.406 E10.81633
G1 X63.516 Y84.268 E10.83541
G1 X64.293 Y84.129 E10.86167
G1 X64.705 Y84.083 E10.87546
G1 X64.905 Y84.064 E10.88214
G1 X65.418 Y84.024 E10.89925
G1 X65.769 Y84.007 E10.91094
G1 X66.653 Y83.99 E10.94035
G1 X66.756 Y83.989 E10.94377
G1 X68.812 Y83.985 E11.01216
G1 X101.542 Y83.985 E12.10076
G1 X103.72 Y83.974 E12.1732
G1 X104.411 Y84.011 E12.19622
G1 X104.758 Y84.059 E12.20787
G1 X105.587 Y84.2 E12.23584
G1 X108.295 Y84.625 E12.32701
G1 X110.872 Y84.955 E12.41342
G1 X113.556 Y85.221 E12.50313
G1 X116.188 Y85.407 E12.59089
G1 X118.881 Y85.521 E12.68054
G1 X121.515 Y85.558 E12.76815
G1 X124.14 Y85.521 E12.85547
G1 X126.845 Y85.405 E12.94552
G1 X129.498 Y85.217 E13.03398
G1 X132.09 Y84.959 E13.12062
G1 X134.784 Y84.614 E13.21095
G1 X137.384 Y84.205 E13.29849
G1 X137.786 Y84.133 E13.31207
G1 X137.908 Y84.113 E13.31619
G1 X138.266 Y84.056 E13.32824
G1 X139.084 Y83.982 E13.35556
G1 X139.902 Y83.965 E13.38277
G1 X140.027 Y83.964 E13.38693
G1 X140.707 Y83.964 E13.40955
G1 X168.301 Y83.984 E14.32733
G1 X168.39 Y83.985 E14.33029
G1 X169.097 Y83.996 E14.35381
G1 X169.394 Y84.008 E14.36369
G1 X169.809 Y84.035 E14.37752
G1 X169.991 Y84.049 E14.3836
G1 X170.492 Y84.097 E14.40034
G1 X171.15 Y84.197 E14.42247
G1 X171.47 Y84.264 E14.43335
G1 X171.746 Y84.329 E14.44278
G1 X172.39 Y84.496 E14.46491
G1 X173.136 Y84.743 E14.49104
G1 X173.546 Y84.909 E14.50575
G1 X173.728 Y84.986 E14.51233
G1 X174.226 Y85.207 E14.53045
G1 X174.908 Y85.564 E14.55605
G1 X175.27 Y85.784 E14.57014
G1 X175.452 Y85.899 E14.5773
G1 X175.92 Y86.207 E14.59594
G1 X176.575 Y86.705 E14.6233
G1 X176.945 Y87.029 E14.63966
G1 X177.089 Y87.159 E14.64611
G1 X177.456 Y87.502 E14.66282
G1 X177.902 Y87.967 E14.68425
G1 X178.034 Y88.12 E14.69097
G1 X178.131 Y88.235 E14.69597
G1 X178.263 Y88.396 E14.7029
G1 X178.377 Y88.539 E14.70898
G1 X178.722 Y88.987 E14.72779
G1 X179.159 Y89.639 E14.75389
G1 X179.399 Y90.053 E14.76981
G1 X179.494 Y90.224 E14.77632
G1 X179.741 Y90.684 E14.79368
G1 X180.07 Y91.406 E14.82007
G1 X180.223 Y91.812 E14.8345
G1 X180.29 Y92 E14.84114
G1 X180.459 Y92.498 E14.85863
G1 X180.652 Y93.209 E14.88314
G1 X180.739 Y93.629 E14.8974
G1 X180.787 Y93.886 E14.9061
G1 X180.883 Y94.478 E14.92604
G1 X180.957 Y95.257 E14.95207
G1 X180.969 Y95.655 E14.96531
G1 X180.972 Y95.856 E14.972
G1 X180.97 Y96.445 E14.99159
G1 X180.913 Y97.252 E15.0185
G1 X180.854 Y97.676 E15.03274
G1 X180.825 Y97.859 E15.0389
G1 X180.733 Y98.398 E15.05709
G1 X180.549 Y99.168 E15.08342
G1 X180.417 Y99.593 E15.09822
G1 X180.351 Y99.792 E15.10519
G1 X180.17 Y100.31 E15.12344
G1 X179.879 Y101.002 E15.14841
G1 X179.702 Y101.358 E15.16163
G1 X179.588 Y101.576 E15.16982
G1 X179.304 Y102.093 E15.18944
G1 X178.888 Y102.746 E15.21519
G1 X178.602 Y103.137 E15.2313
G1 X178.473 Y103.308 E15.23842
G1 X178.18 Y103.68 E15.25417
G1 X177.791 Y104.126 E15.27386
G1 X177.641 Y104.282 E15.28106
G1 X177.48 Y104.443 E15.28863
G1 X177.313 Y104.604 E15.29634
G1 X177.195 Y104.715 E15.30173
G1 X176.769 Y105.104 E15.32092
G1 X176.129 Y105.613 E15.34812
G1 X175.749 Y105.875 E15.36347
G1 X175.594 Y105.978 E15.36966
G1 X175.152 Y106.263 E15.38715
G1 X172.903 Y107.76 E15.47701
G1 X170.75 Y109.28 E15.56467
G1 X168.615 Y110.881 E15.65342
G1 X166.543 Y112.53 E15.7415
G1 X164.498 Y114.253 E15.83044
G1 X162.511 Y116.026 E15.91901
G1 X160.587 Y117.84 E16.00696
G1 X158.688 Y119.739 E16.09629
G1 X156.877 Y121.652 E16.1839
G1 X155.101 Y123.64 E16.27256
G1 X153.381 Y125.679 E16.36129
G1 X151.737 Y127.743 E16.44905
G1 X150.13 Y129.881 E16.53801
G1 X148.599 Y132.042 E16.6261
G1 X147.127 Y134.253 E16.71444
G1 X145.72 Y136.498 E16.80256
G1 X143.782 Y139.841 E16.93108
G1 X143.528 Y140.299 E16.9485
G1 X143.345 Y140.607 E16.96042
G1 X142.728 Y141.576 E16.99863
G1 X142.631 Y141.724 E17.00451
G1 X142.303 Y142.207 E17.02393
G1 X142.1 Y142.487 E17.03543
G1 X141.528 Y143.233 E17.0667
G1 X141.421 Y143.369 E17.07246
G1 X140.893 Y144.018 E17.10028
G1 X140.641 Y144.308 E17.11306
G1 X139.887 Y145.122 E17.14996
G1 X139.766 Y145.249 E17.1558
G1 X139.325 Y145.698 E17.17673
G1 X139.081 Y145.933 E17.188
G1 X138.419 Y146.535 E17.21776
G1 X138.288 Y146.651 E17.22358
G1 X137.642 Y147.205 E17.25188
G1 X137.335 Y147.451 E17.26497
G1 X136.412 Y148.143 E17.30334
G1 X136.27 Y148.246 E17.30917
G1 X135.772 Y148.597 E17.32944
G1 X135.476 Y148.793 E17.34124
G1 X134.542 Y149.372 E17.37779
G1 X134.399 Y149.458 E17.38334
G1 X133.856 Y149.774 E17.40424
G1 X133.545 Y149.943 E17.41601
G1 X132.738 Y150.351 E17.44609
G1 X132.58 Y150.428 E17.45193
G1 X131.798 Y150.795 E17.48067
G1 X131.448 Y150.945 E17.49333
G1 X130.392 Y151.361 E17.53108
G1 X130.232 Y151.422 E17.53678
G1 X129.698 Y151.615 E17.55566
G1 X129.362 Y151.725 E17.56742
G1 X128.426 Y152.002 E17.59989
G1 X128.264 Y152.048 E17.60549
G1 X127.466 Y152.26 E17.63295
G1 X127.112 Y152.342 E17.64504
G1 X126.314 Y152.503 E17.67211
G1 X126.212 Y152.523 E17.67557
G1 X125.902 Y152.58 E17.68605
G1 X125.825 Y152.594 E17.68866
G1 X125.256 Y152.691 E17.70785
G1 X124.898 Y152.741 E17.71988
G1 X123.934 Y152.846 E17.75213
G1 X123.768 Y152.861 E17.75767
G1 X122.965 Y152.926 E17.78447
G1 X122.579 Y152.945 E17.79732
G1 X121.476 Y152.963 E17.83401
G1 X121.314 Y152.964 E17.8394
G1 X120.661 Y152.957 E17.86112
G1 X120.275 Y152.94 E17.87397
G1 X119.144 Y152.855 E17.9117
G1 X118.991 Y152.842 E17.9168
G1 X118.407 Y152.783 E17.93633
G1 X118.034 Y152.733 E17.94884
G1 X116.924 Y152.55 E17.98626
G1 X116.759 Y152.521 E17.99183
G1 X116.124 Y152.398 E18.01334
G1 X115.758 Y152.315 E18.02583
G1 X114.698 Y152.04 E18.06225
G1 X114.543 Y151.997 E18.0676
G1 X113.929 Y151.82 E18.08885
G1 X113.59 Y151.712 E18.10069
G1 X112.722 Y151.405 E18.13131
G1 X112.562 Y151.345 E18.13699
G1 X111.767 Y151.038 E18.16534
G1 X111.422 Y150.893 E18.17778
G1 X110.617 Y150.523 E18.20725
G1 X110.474 Y150.455 E18.21252
G1 X109.726 Y150.087 E18.24024
G1 X109.394 Y149.91 E18.25276
G1 X108.547 Y149.425 E18.28522
G1 X108.398 Y149.337 E18.29098
G1 X107.703 Y148.912 E18.31807
G1 X107.377 Y148.698 E18.33104
G1 X106.487 Y148.071 E18.36725
G1 X106.366 Y147.983 E18.37223
G1 X105.861 Y147.608 E18.39315
G1 X105.557 Y147.367 E18.40605
G1 X104.675 Y146.619 E18.44452
G1 X104.558 Y146.517 E18.44968
G1 X104.117 Y146.123 E18.46935
G1 X103.84 Y145.859 E18.48207
G1 X103.061 Y145.068 E18.519
