;FLAVOR:Marlin
;TIME:10823
;Filament used: 6.74786m
;Layer height: 0.2
;MINX:51.48
;MINY:91.353
;MINZ:0.2
;MAXX:168.519
;MAXY:156.925
;MAXZ:15
;Generated with Cura_SteamEngine 4.2.1
M140 S60
M105
M190 S60
M104 S200
M105
M109 S200
M82 ;absolute extrusion mode
M201 X500.00 Y500.00 Z100.00 E5000.00 ;Setup machine max acceleration
M203 X500.00 Y500.00 Z10.00 E50.00 ;Setup machine max feedrate
M204 P500.00 R1000.00 T500.00 ;Setup Print/Retract/Travel acceleration
M205 X8.00 Y8.00 Z0.40 E5.00 ;Setup Jerk
M220 S100 ;Reset Feedrate
M221 S100 ;Reset Flowrate

G28 ;Home

G92 E0 ;Reset Extruder
G1 Z2.0 F3000 ;Move Z Axis up
G1 X10.1 Y20 Z0.28 F5000.0 ;Move to start position
G1 X10.1 Y200.0 Z0.28 F1500.0 E15 ;Draw the first line
G1 X10.4 Y200.0 Z0.28 F5000.0 ;Move to side a little
G1 X10.4 Y20 Z0.28 F1500.0 E30 ;Draw the second line
G92 E0 ;Reset Extruder
G1 Z2.0 F3000 ;Move Z Axis up

G92 E0
G92 E0
G1 F3600 E-7
;LAYER_COUNT:75
;LAYER:0
M107
G0 F6000 X58.872 Y95.221 Z0.2
;TYPE:SKIRT
G1 F3600 E0
G1 F1200 X59.397 Y94.897 E0.02257
G1 X59.737 Y94.699 E0.03697
G1 X60.054 Y94.52 E0.05028
G1 X60.446 Y94.308 E0.06659
G1 X61.31 Y93.887 E0.10175
G1 X61.941 Y93.633 E0.12664
G1 X62.361 Y93.478 E0.14302
G1 X62.673 Y93.368 E0.15512
G1 X63.059 Y93.238 E0.17002
G1 X63.532 Y93.089 E0.18817
G1 X66.19 Y92.319 E0.28941
G1 X67.545 Y91.894 E0.34137
G1 X68.473 Y91.644 E0.37653
G1 X69.418 Y91.473 E0.41166
G1 X70.653 Y91.369 E0.45701
G1 X70.984 Y91.359 E0.46912
G1 X71.33 Y91.354 E0.48178
G1 X77.284 Y91.353 E0.69962
G1 X77.454 Y91.354 E0.70584
G1 X78.895 Y91.375 E0.75856
G1 X79.041 Y91.378 E0.76391
G1 X80.307 Y91.412 E0.81024
G1 X83.321 Y91.403 E0.92051
G1 X85.749 Y91.356 E1.00936
G1 X85.973 Y91.354 E1.01756
G1 X96.288 Y91.353 E1.39494
G1 X96.456 Y91.354 E1.40109
G1 X97.91 Y91.375 E1.45429
G1 X98.062 Y91.378 E1.45985
G1 X99.306 Y91.412 E1.50538
G1 X102.328 Y91.403 E1.61595
G1 X104.753 Y91.356 E1.70468
G1 X104.977 Y91.354 E1.71288
G1 X115.288 Y91.353 E2.09012
G1 X115.456 Y91.354 E2.09627
G1 X116.91 Y91.375 E2.14947
G1 X117.062 Y91.378 E2.15503
G1 X118.306 Y91.412 E2.20056
G1 X121.328 Y91.403 E2.31112
G1 X123.753 Y91.356 E2.39986
G1 X123.977 Y91.354 E2.40806
G1 X134.288 Y91.353 E2.7853
G1 X134.456 Y91.354 E2.79145
G1 X135.91 Y91.375 E2.84465
G1 X136.062 Y91.378 E2.85021
G1 X137.306 Y91.412 E2.89574
G1 X140.33 Y91.403 E3.00638
G1 X142.754 Y91.356 E3.09508
G1 X142.977 Y91.354 E3.10324
G1 X148.284 Y91.353 E3.2974
G1 X148.449 Y91.354 E3.30344
G1 X149.157 Y91.364 E3.32934
G1 X150.116 Y91.418 E3.36448
G1 X151.067 Y91.551 E3.39962
G1 X152.358 Y91.864 E3.44822
G1 X153.431 Y92.191 E3.48926
G1 X153.613 Y92.248 E3.49623
G1 X153.867 Y92.33 E3.506
G1 X156.463 Y93.086 E3.60492
G1 X156.809 Y93.193 E3.61817
G1 X157.156 Y93.306 E3.63152
G1 X157.557 Y93.445 E3.64705
G1 X158.015 Y93.613 E3.6649
G1 X158.902 Y93.981 E3.70003
G1 X159.476 Y94.267 E3.7235
G1 X159.83 Y94.456 E3.73818
G1 X160.12 Y94.616 E3.7503
G1 X160.498 Y94.832 E3.76622
G1 X161.312 Y95.343 E3.80139
G1 X161.824 Y95.717 E3.82458
G1 X162.144 Y95.964 E3.83937
G1 X162.404 Y96.17 E3.85151
G1 X162.735 Y96.441 E3.86716
G1 X163.452 Y97.08 E3.9023
G1 X163.965 Y97.61 E3.92929
G1 X164.293 Y97.971 E3.94713
G1 X164.503 Y98.208 E3.95872
G1 X164.748 Y98.493 E3.97247
G1 X165.343 Y99.247 E4.00761
G1 X165.704 Y99.776 E4.03104
G1 X165.929 Y100.126 E4.04626
G1 X166.11 Y100.417 E4.0588
G1 X166.332 Y100.786 E4.07455
G1 X166.793 Y101.629 E4.10971
G1 X167.056 Y102.201 E4.13274
G1 X167.2 Y102.538 E4.14615
G1 X167.337 Y102.873 E4.15939
G1 X167.512 Y103.321 E4.17699
G1 X167.824 Y104.23 E4.21215
G1 X167.994 Y104.869 E4.23634
G1 X168.091 Y105.28 E4.25179
G1 X168.165 Y105.615 E4.26434
G1 X168.25 Y106.03 E4.27984
G1 X168.404 Y106.979 E4.31501
G1 X168.464 Y107.656 E4.33988
G1 X168.491 Y108.107 E4.35641
G1 X168.506 Y108.415 E4.36769
G1 X168.519 Y108.808 E4.38208
G1 X168.51 Y109.769 E4.41724
G1 X168.459 Y110.419 E4.44109
G1 X168.417 Y110.811 E4.45552
G1 X168.375 Y111.16 E4.46838
G1 X168.281 Y111.841 E4.49353
G1 X167.974 Y114.32 E4.58492
G1 X167.736 Y116.823 E4.67691
G1 X167.571 Y119.292 E4.76744
G1 X167.473 Y121.843 E4.86084
G1 X167.448 Y124.308 E4.95103
G1 X167.493 Y126.8 E5.04222
G1 X167.61 Y129.326 E5.13473
G1 X167.796 Y131.809 E5.22583
G1 X168.052 Y134.29 E5.31708
G1 X168.374 Y136.725 E5.40695
G1 X168.445 Y137.435 E5.43305
G1 X168.484 Y137.995 E5.45359
G1 X168.506 Y138.416 E5.46901
G1 X168.519 Y138.81 E5.48344
G1 X168.51 Y139.771 E5.5186
G1 X168.459 Y140.427 E5.54267
G1 X168.417 Y140.817 E5.55702
G1 X168.375 Y141.156 E5.56952
G1 X168.313 Y141.606 E5.58614
G1 X168.142 Y142.551 E5.62127
G1 X167.975 Y143.208 E5.64607
G1 X167.847 Y143.655 E5.66309
G1 X167.743 Y144 E5.67627
G1 X167.627 Y144.362 E5.69018
G1 X167.296 Y145.263 E5.72529
G1 X167.05 Y145.815 E5.7474
G1 X166.878 Y146.175 E5.762
G1 X166.717 Y146.499 E5.77524
G1 X166.518 Y146.884 E5.79109
G1 X166.041 Y147.718 E5.82625
G1 X165.67 Y148.273 E5.85067
G1 X165.377 Y148.685 E5.86917
G1 X165.163 Y148.977 E5.88241
G1 X164.945 Y149.264 E5.8956
G1 X164.332 Y150.004 E5.93075
G1 X163.93 Y150.429 E5.95216
G1 X163.663 Y150.697 E5.966
G1 X163.388 Y150.964 E5.98002
G1 X163.059 Y151.273 E5.99653
G1 X162.332 Y151.901 E6.03168
G1 X161.787 Y152.308 E6.05657
G1 X161.405 Y152.576 E6.07364
G1 X161.139 Y152.757 E6.08541
G1 X160.8 Y152.981 E6.10028
G1 X159.977 Y153.477 E6.13543
G1 X159.378 Y153.782 E6.16003
G1 X159.036 Y153.944 E6.17387
G1 X158.736 Y154.081 E6.18594
G1 X158.342 Y154.254 E6.20168
G1 X157.578 Y154.557 E6.23175
G1 X154.998 Y155.477 E6.33196
G1 X154.608 Y155.629 E6.34728
G1 X154.48 Y155.678 E6.35229
G1 X153.171 Y156.17 E6.40345
G1 X152.259 Y156.47 E6.43858
G1 X151.324 Y156.694 E6.47376
G1 X150.375 Y156.839 E6.50888
G1 X149.318 Y156.906 E6.54763
G1 X148.425 Y156.922 E6.58031
G1 X148.22 Y156.924 E6.58781
G1 X141.64 Y156.925 E6.82854
G1 X141.634 Y156.925 E6.82876
G1 X130.295 Y156.921 E7.24361
G1 X130.289 Y156.921 E7.24383
G1 X94.213 Y156.89 E8.56371
G1 X94.205 Y156.89 E8.56401
G1 X86.684 Y156.878 E8.83917
G1 X84.418 Y156.894 E8.92208
G1 X84.36 Y156.894 E8.9242
G1 X71.595 Y156.919 E9.39122
G1 X71.424 Y156.918 E9.39748
G1 X70.799 Y156.91 E9.42035
G1 X69.84 Y156.858 E9.45549
G1 X69.836 Y156.857 E9.45564
G1 X69.828 Y156.857 E9.45593
G1 X68.876 Y156.73 E9.49107
G1 X67.938 Y156.523 E9.52621
G1 X66.913 Y156.2 E9.56553
G1 X66.474 Y156.039 E9.58264
G1 X66.317 Y155.981 E9.58876
G1 X64.811 Y155.404 E9.64777
G1 X62.523 Y154.596 E9.73654
G1 X61.773 Y154.301 E9.76603
G1 X61.335 Y154.111 E9.78349
G1 X61.021 Y153.969 E9.7961
G1 X60.674 Y153.806 E9.81013
G1 X59.822 Y153.362 E9.84528
G1 X59.337 Y153.066 E9.86607
G1 X59.009 Y152.855 E9.88034
G1 X58.683 Y152.638 E9.89466
G1 X58.319 Y152.386 E9.91086
G1 X57.553 Y151.807 E9.94599
G1 X57.044 Y151.363 E9.9707
G1 X56.676 Y151.022 E9.98906
G1 X56.426 Y150.782 E10.00174
G1 X56.174 Y150.534 E10.01467
G1 X55.517 Y149.832 E10.04985
G1 X55.159 Y149.394 E10.07055
G1 X54.921 Y149.088 E10.08473
G1 X54.674 Y148.759 E10.09978
G1 X54.409 Y148.392 E10.11634
G1 X53.88 Y147.59 E10.15149
G1 X53.534 Y146.975 E10.17731
G1 X53.295 Y146.517 E10.19621
G1 X53.146 Y146.22 E10.20837
G1 X52.993 Y145.905 E10.22118
G1 X52.609 Y145.024 E10.25634
G1 X52.399 Y144.433 E10.27929
G1 X52.277 Y144.058 E10.29371
G1 X52.179 Y143.74 E10.30589
G1 X52.053 Y143.311 E10.32225
G1 X51.821 Y142.379 E10.35739
G1 X51.704 Y141.71 E10.38223
G1 X51.642 Y141.281 E10.39809
G1 X51.597 Y140.938 E10.41075
G1 X51.55 Y140.526 E10.42592
G1 X51.481 Y139.568 E10.46106
G1 X51.48 Y138.929 E10.48444
G1 X51.49 Y138.53 E10.49904
G1 X51.503 Y138.2 E10.51112
G1 X51.527 Y137.753 E10.5275
G1 X51.621 Y136.772 E10.56356
G1 X51.689 Y136.284 E10.58158
G1 X52.011 Y133.727 E10.67587
G1 X52.251 Y131.25 E10.76692
G1 X52.421 Y128.768 E10.85794
G1 X52.523 Y126.231 E10.95084
G1 X52.553 Y123.724 E11.04256
G1 X52.512 Y121.28 E11.13199
G1 X52.397 Y118.708 E11.22619
G1 X52.219 Y116.273 E11.31551
G1 X51.962 Y113.745 E11.40848
G1 X51.622 Y111.13 E11.50496
G1 X51.602 Y110.971 E11.51082
G1 X51.553 Y110.549 E11.52636
G1 X51.482 Y109.591 E11.56151
G1 X51.48 Y108.929 E11.58573
G1 X51.49 Y108.53 E11.60033
G1 X51.503 Y108.186 E11.61292
G1 X51.527 Y107.749 E11.62894
G1 X51.62 Y106.793 E11.66408
G1 X51.73 Y106.137 E11.68841
G1 X51.823 Y105.668 E11.70591
G1 X51.902 Y105.302 E11.71961
G1 X51.987 Y104.936 E11.73335
G1 X52.243 Y104.011 E11.76847
G1 X52.445 Y103.435 E11.7908
G1 X52.596 Y103.039 E11.8063
G1 X52.726 Y102.714 E11.81911
G1 X52.888 Y102.325 E11.83453
G1 X53.294 Y101.455 E11.86965
G1 X53.634 Y100.844 E11.89524
G1 X53.861 Y100.464 E11.91143
G1 X54.007 Y100.225 E11.92168
G1 X54.212 Y99.9 E11.93573
G1 X54.758 Y99.11 E11.97087
G1 X55.138 Y98.633 E11.99318
G1 X55.417 Y98.301 E12.00905
G1 X55.703 Y97.973 E12.02497
G1 X55.995 Y97.651 E12.04087
G1 X56.67 Y96.967 E12.07603
G1 X57.151 Y96.542 E12.09951
G1 X57.489 Y96.26 E12.11562
G1 X57.77 Y96.033 E12.12884
G1 X58.092 Y95.781 E12.1438
G1 X58.872 Y95.221 E12.17893
G0 F6000 X59.129 Y95.579
G1 F1200 X59.618 Y95.277 E12.19995
G1 X59.958 Y95.079 E12.21435
G1 X60.264 Y94.907 E12.22719
G1 X60.656 Y94.695 E12.2435
G1 X61.503 Y94.283 E12.27796
G1 X62.093 Y94.046 E12.30122
G1 X62.513 Y93.891 E12.3176
G1 X62.813 Y93.785 E12.32924
G1 X63.199 Y93.655 E12.34414
G1 X63.655 Y93.512 E12.36162
G1 X66.306 Y92.744 E12.4626
G1 X67.677 Y92.314 E12.51517
G1 X68.587 Y92.07 E12.54964
G1 X69.514 Y91.904 E12.58409
G1 X70.666 Y91.809 E12.62639
G1 X70.997 Y91.799 E12.6385
G1 X71.33 Y91.794 E12.65069
G1 X77.284 Y91.793 E12.86852
G1 X77.448 Y91.794 E12.87452
G1 X78.889 Y91.815 E12.92725
G1 X79.029 Y91.818 E12.93237
G1 X80.296 Y91.852 E12.97874
G1 X83.331 Y91.843 E13.08978
G1 X85.758 Y91.796 E13.17859
G1 X85.973 Y91.794 E13.18646
G1 X96.288 Y91.793 E13.56384
G1 X96.449 Y91.794 E13.56973
G1 X97.903 Y91.815 E13.62294
G1 X98.05 Y91.818 E13.62831
G1 X99.295 Y91.852 E13.67388
G1 X102.338 Y91.843 E13.78521
G1 X104.762 Y91.796 E13.87392
G1 X104.977 Y91.794 E13.88178
G1 X115.288 Y91.793 E14.25902
G1 X115.449 Y91.794 E14.26491
G1 X116.903 Y91.815 E14.31811
G1 X117.05 Y91.818 E14.32349
G1 X118.295 Y91.852 E14.36906
G1 X121.338 Y91.843 E14.48039
G1 X123.762 Y91.796 E14.56909
G1 X123.977 Y91.794 E14.57696
G1 X134.288 Y91.793 E14.9542
G1 X134.449 Y91.794 E14.96009
G1 X135.903 Y91.815 E15.01329
G1 X136.05 Y91.818 E15.01867
G1 X137.295 Y91.852 E15.06424
G1 X140.34 Y91.843 E15.17564
G1 X142.762 Y91.796 E15.26427
G1 X142.977 Y91.794 E15.27214
G1 X148.284 Y91.793 E15.4663
G1 X148.443 Y91.794 E15.47212
G1 X149.151 Y91.804 E15.49802
G1 X150.091 Y91.857 E15.53247
G1 X151.024 Y91.99 E15.56695
G1 X152.23 Y92.285 E15.61237
G1 X153.303 Y92.612 E15.65341
G1 X153.478 Y92.667 E15.66012
G1 X153.748 Y92.754 E15.6705
G1 X156.34 Y93.509 E15.76927
G1 X156.673 Y93.612 E15.78203
G1 X157.02 Y93.725 E15.79538
G1 X157.406 Y93.858 E15.81032
G1 X157.864 Y94.026 E15.82816
G1 X158.733 Y94.388 E15.86261
G1 X159.269 Y94.655 E15.88451
G1 X159.623 Y94.844 E15.8992
G1 X159.902 Y94.999 E15.91087
G1 X160.28 Y95.215 E15.9268
G1 X161.078 Y95.716 E15.96127
G1 X161.555 Y96.065 E15.9829
G1 X161.875 Y96.312 E15.99769
G1 X162.125 Y96.51 E16.00935
G1 X162.456 Y96.781 E16.02501
G1 X163.159 Y97.409 E16.05949
G1 X163.639 Y97.906 E16.08477
G1 X163.967 Y98.267 E16.10262
G1 X164.169 Y98.495 E16.11376
G1 X164.414 Y98.78 E16.12751
G1 X164.998 Y99.52 E16.162
G1 X165.334 Y100.014 E16.18386
G1 X165.559 Y100.364 E16.19908
G1 X165.733 Y100.644 E16.21114
G1 X165.955 Y101.013 E16.2269
G1 X166.406 Y101.84 E16.26136
G1 X166.651 Y102.373 E16.28282
G1 X166.795 Y102.71 E16.29623
G1 X166.927 Y103.033 E16.309
G1 X167.102 Y103.481 E16.3266
G1 X167.407 Y104.373 E16.36109
G1 X167.566 Y104.97 E16.38369
G1 X167.663 Y105.381 E16.39914
G1 X167.734 Y105.704 E16.41124
G1 X167.819 Y106.119 E16.42674
G1 X167.969 Y107.049 E16.4612
G1 X168.025 Y107.683 E16.48449
G1 X168.052 Y108.134 E16.50102
G1 X168.066 Y108.43 E16.51186
G1 X168.079 Y108.823 E16.52624
G1 X168.07 Y109.765 E16.56071
G1 X168.022 Y110.373 E16.58302
G1 X167.98 Y110.765 E16.59745
G1 X167.939 Y111.1 E16.6098
G1 X167.856 Y111.699 E16.63192
G1 X167.534 Y114.296 E16.72766
G1 X167.298 Y116.785 E16.81913
G1 X167.13 Y119.282 E16.9107
G1 X167.033 Y121.821 E17.00366
G1 X167.008 Y124.311 E17.09476
G1 X167.053 Y126.829 E17.1869
G1 X167.17 Y129.343 E17.27898
G1 X167.357 Y131.851 E17.37099
G1 X167.617 Y134.36 E17.46327
G1 X167.937 Y136.783 E17.55269
G1 X168.006 Y137.466 E17.57781
G1 X168.045 Y138.026 E17.59835
G1 X168.066 Y138.431 E17.61318
G1 X168.079 Y138.825 E17.62761
G1 X168.07 Y139.767 E17.66207
G1 X168.021 Y140.38 E17.68457
G1 X167.979 Y140.77 E17.69892
G1 X167.939 Y141.096 E17.71094
G1 X167.877 Y141.546 E17.72756
G1 X167.709 Y142.473 E17.76203
G1 X167.552 Y143.087 E17.78521
G1 X167.424 Y143.534 E17.80222
G1 X167.324 Y143.865 E17.81487
G1 X167.208 Y144.227 E17.82878
G1 X166.882 Y145.111 E17.86325
G1 X166.653 Y145.625 E17.88384
G1 X166.481 Y145.985 E17.89844
G1 X166.326 Y146.297 E17.91118
G1 X166.127 Y146.682 E17.92704
G1 X165.659 Y147.5 E17.96152
G1 X165.312 Y148.018 E17.98433
G1 X165.019 Y148.43 E18.00283
G1 X164.812 Y148.711 E18.01559
G1 X164.594 Y148.998 E18.02878
G1 X163.993 Y149.723 E18.06323
G1 X163.619 Y150.118 E18.08314
G1 X163.352 Y150.386 E18.09698
G1 X163.087 Y150.643 E18.11048
G1 X162.758 Y150.952 E18.127
G1 X162.045 Y151.567 E18.16145
G1 X161.534 Y151.948 E18.18477
G1 X161.152 Y152.216 E18.20184
G1 X160.896 Y152.39 E18.21316
G1 X160.557 Y152.614 E18.22803
G1 X159.75 Y153.099 E18.26248
G1 X159.19 Y153.384 E18.28546
G1 X158.848 Y153.546 E18.29931
G1 X158.559 Y153.678 E18.31093
G1 X158.165 Y153.851 E18.32668
G1 X157.431 Y154.143 E18.35558
G1 X154.831 Y155.07 E18.45657
G1 X154.449 Y155.219 E18.47157
G1 X154.325 Y155.266 E18.47642
G1 X153.016 Y155.758 E18.52758
G1 X152.121 Y156.052 E18.56205
G1 X151.204 Y156.269 E18.59652
G1 X150.272 Y156.407 E18.63099
G1 X149.31 Y156.466 E18.66626
G1 X148.417 Y156.482 E18.69893
G1 X148.22 Y156.484 E18.70614
G1 X141.64 Y156.485 E18.94688
G1 X141.634 Y156.485 E18.9471
G1 X130.295 Y156.481 E19.36195
G1 X130.289 Y156.481 E19.36217
G1 X94.213 Y156.45 E20.68205
G1 X94.205 Y156.45 E20.68234
G1 X86.681 Y156.438 E20.95762
G1 X84.415 Y156.454 E21.04052
G1 X84.359 Y156.454 E21.04257
G1 X71.594 Y156.479 E21.5096
G1 X71.43 Y156.478 E21.5156
G1 X70.805 Y156.47 E21.53846
G1 X70.609 Y156.459 E21.54565
G1 X70.519 Y156.46 E21.54894
G1 X70.234 Y156.438 E21.5594
G1 X69.864 Y156.418 E21.57295
G1 X69.75 Y156.402 E21.57717
G1 X69.58 Y156.389 E21.5834
G1 X69.045 Y156.302 E21.60323
G1 X68.931 Y156.286 E21.60745
G1 X68.895 Y156.278 E21.60879
G1 X68.65 Y156.238 E21.61788
G1 X67.736 Y156.01 E21.65234
G1 X67.064 Y155.787 E21.67825
G1 X66.625 Y155.626 E21.69535
G1 X66.475 Y155.57 E21.70121
G1 X64.965 Y154.991 E21.76038
G1 X62.67 Y154.181 E21.84942
G1 X61.948 Y153.897 E21.8778
G1 X61.51 Y153.707 E21.89527
G1 X61.208 Y153.571 E21.90739
G1 X60.861 Y153.408 E21.92142
G1 X60.026 Y152.971 E21.9559
G1 X59.575 Y152.696 E21.97522
G1 X59.247 Y152.485 E21.98949
G1 X58.934 Y152.276 E22.00326
G1 X58.57 Y152.024 E22.01946
G1 X57.819 Y151.456 E22.05391
G1 X57.343 Y151.04 E22.07704
G1 X56.975 Y150.699 E22.09539
G1 X56.734 Y150.468 E22.10761
G1 X56.482 Y150.22 E22.12054
G1 X55.839 Y149.532 E22.15499
G1 X55.506 Y149.124 E22.17426
G1 X55.268 Y148.818 E22.18844
G1 X55.031 Y148.501 E22.20293
G1 X54.766 Y148.134 E22.21949
G1 X54.247 Y147.348 E22.25395
G1 X53.924 Y146.771 E22.27814
G1 X53.685 Y146.313 E22.29704
G1 X53.541 Y146.028 E22.30872
G1 X53.388 Y145.713 E22.32154
G1 X53.013 Y144.848 E22.35603
G1 X52.818 Y144.297 E22.37741
G1 X52.696 Y143.922 E22.39184
G1 X52.601 Y143.616 E22.40356
G1 X52.475 Y143.187 E22.41992
G1 X52.248 Y142.273 E22.45438
G1 X52.139 Y141.647 E22.47762
G1 X52.077 Y141.218 E22.49348
G1 X52.035 Y140.888 E22.50565
G1 X51.988 Y140.476 E22.52083
G1 X51.921 Y139.536 E22.5553
G1 X51.919 Y138.94 E22.57711
G1 X51.929 Y138.541 E22.59171
G1 X51.942 Y138.224 E22.60332
G1 X51.966 Y137.777 E22.6197
G1 X52.057 Y136.833 E22.65439
G1 X52.128 Y136.327 E22.67309
G1 X52.447 Y133.788 E22.76671
G1 X52.689 Y131.29 E22.85853
G1 X52.861 Y128.78 E22.95058
G1 X52.963 Y126.254 E23.04307
G1 X52.993 Y123.724 E23.13564
G1 X52.952 Y121.254 E23.22602
G1 X52.838 Y118.708 E23.31926
