;FLAVOR:Marlin
;TIME:22653
;Filament used: 16.399m
;Layer height: 0.2
;MINX:65.999
;MINY:65.417
;MINZ:0.2
;MAXX:134
;MAXY:177.28
;MAXZ:38.2
;Generated with Cura_SteamEngine 4.2.1
M140 S60
M105
M190 S60
M104 S200
M105
M109 S200
M82 ;absolute extrusion mode
M201 X500.00 Y500.00 Z100.00 E5000.00 ;Setup machine max acceleration
M203 X500.00 Y500.00 Z10.00 E50.00 ;Setup machine max feedrate
M204 P500.00 R1000.00 T500.00 ;Setup Print/Retract/Travel acceleration
M205 X8.00 Y8.00 Z0.40 E5.00 ;Setup Jerk
M220 S100 ;Reset Feedrate
M221 S100 ;Reset Flowrate

G28 ;Home

G92 E0 ;Reset Extruder
G1 Z2.0 F3000 ;Move Z Axis up
G1 X10.1 Y20 Z0.28 F5000.0 ;Move to start position
G1 X10.1 Y200.0 Z0.28 F1500.0 E15 ;Draw the first line
G1 X10.4 Y200.0 Z0.28 F5000.0 ;Move to side a little
G1 X10.4 Y20 Z0.28 F1500.0 E30 ;Draw the second line
G92 E0 ;Reset Extruder
G1 Z2.0 F3000 ;Move Z Axis up

G92 E0
G92 E0
G1 F3600 E-7
;LAYER_COUNT:190
;LAYER:0
M107
G0 F6000 X71.753 Y65.639 Z0.2
;TYPE:SUPPORT
G1 F3600 E0
G1 F1200 X133.378 Y65.638 E2.25462
G1 X133.379 Y73.137 E2.52898
G1 X71.753 Y73.137 E4.78364
G1 X71.753 Y65.639 E5.05796
G0 F6000 X72.193 Y66.079
G1 F1200 X132.938 Y66.078 E7.28039
G1 X132.939 Y72.697 E7.52255
G1 X72.193 Y72.697 E9.74501
G1 X72.193 Y66.079 E9.98714
G1 F3600 E2.98714
G1 F600 Z0.4
G0 F6000 X74.8 Y66.166 Z0.4
G1 F600 Z0.2
G1 F3600 E9.98714
G1 F1200 X74.8 Y72.609 E10.22287
G1 F3600 E3.22287
G1 F600 Z0.4
G0 F6000 X72.281 Y70.4 Z0.4
G1 F600 Z0.2
G1 F3600 E10.22287
G1 F1200 X132.851 Y70.4 E12.43889
G1 F3600 E5.43889
G1 F600 Z0.4
G0 F6000 X132 Y72.609 Z0.4
G1 F600 Z0.2
G1 F3600 E12.43889
G1 F1200 X132 Y66.166 E12.67461
G1 F3600 E5.67461
G1 F600 Z0.4
G0 F6000 X127.6 Y66.166 Z0.4
G1 F600 Z0.2
G1 F3600 E12.67461
G1 F1200 X127.6 Y72.609 E12.91034
G1 F3600 E5.91034
G1 F600 Z0.4
G0 F6000 X123.2 Y72.609 Z0.4
G1 F600 Z0.2
G1 F3600 E12.91034
G1 F1200 X123.2 Y66.166 E13.14606
G1 F3600 E6.14606
G1 F600 Z0.4
G0 F6000 X118.8 Y66.166 Z0.4
G1 F600 Z0.2
G1 F3600 E13.14606
G1 F1200 X118.8 Y72.609 E13.38179
G1 F3600 E6.38179
G1 F600 Z0.4
G0 F6000 X114.4 Y72.609 Z0.4
G1 F600 Z0.2
G1 F3600 E13.38179
G1 F1200 X114.4 Y66.166 E13.61751
G1 F3600 E6.61751
G1 F600 Z0.4
G0 F6000 X110 Y66.166 Z0.4
G1 F600 Z0.2
G1 F3600 E13.61751
G1 F1200 X110 Y72.609 E13.85324
G1 F3600 E6.85324
G1 F600 Z0.4
G0 F6000 X105.6 Y72.609 Z0.4
G1 F600 Z0.2
G1 F3600 E13.85324
G1 F1200 X105.6 Y66.166 E14.08896
G1 F3600 E7.08896
G1 F600 Z0.4
G0 F6000 X101.2 Y66.166 Z0.4
G1 F600 Z0.2
G1 F3600 E14.08896
G1 F1200 X101.2 Y72.609 E14.32468
G1 F3600 E7.32468
G1 F600 Z0.4
G0 F6000 X96.8 Y72.609 Z0.4
G1 F600 Z0.2
G1 F3600 E14.32468
G1 F1200 X96.8 Y66.166 E14.56041
G1 F3600 E7.56041
G1 F600 Z0.4
G0 F6000 X92.4 Y66.166 Z0.4
G1 F600 Z0.2
G1 F3600 E14.56041
G1 F1200 X92.4 Y72.609 E14.79613
G1 F3600 E7.79613
G1 F600 Z0.4
G0 F6000 X88 Y72.609 Z0.4
G1 F600 Z0.2
G1 F3600 E14.79613
G1 F1200 X88 Y66.166 E15.03186
G1 F3600 E8.03186
G1 F600 Z0.4
G0 F6000 X83.6 Y66.166 Z0.4
G1 F600 Z0.2
G1 F3600 E15.03186
G1 F1200 X83.6 Y72.609 E15.26758
G1 F3600 E8.26758
G1 F600 Z0.4
G0 F6000 X79.2 Y72.609 Z0.4
G1 F600 Z0.2
G1 F3600 E15.26758
G1 F1200 X79.2 Y66.166 E15.50331
G1 F3600 E8.50331
G1 F600 Z0.4
G0 F6000 X71.739 Y112.417 Z0.4
G1 F600 Z0.2
G1 F3600 E15.50331
G1 F1200 X133.379 Y112.417 E17.75848
G1 X133.379 Y123.096 E18.14918
G1 X71.74 Y123.097 E20.40431
G1 X71.739 Y112.417 E20.79505
G0 F6000 X72.179 Y112.857
G1 F1200 X132.939 Y112.857 E23.01803
G1 X132.939 Y122.656 E23.37654
G1 X72.18 Y122.657 E25.59947
G1 X72.179 Y112.857 E25.95802
G1 F3600 E18.95802
G1 F600 Z0.4
G0 F6000 X72.267 Y114.4 Z0.4
G1 F600 Z0.2
G1 F3600 E25.95802
G1 F1200 X132.851 Y114.4 E28.17455
G1 F3600 E21.17455
G1 F600 Z0.4
G0 F6000 X132 Y112.945 Z0.4
G1 F600 Z0.2
G1 F3600 E28.17455
G1 F1200 X132 Y122.569 E28.52666
G1 F3600 E21.52666
G1 F600 Z0.4
G0 F6000 X132.851 Y118.8 Z0.4
G1 F600 Z0.2
G1 F3600 E28.52666
G1 F1200 X72.267 Y118.8 E30.74319
G1 F3600 E23.74319
G1 F600 Z0.4
G0 F6000 X74.8 Y122.569 Z0.4
G1 F600 Z0.2
G1 F3600 E30.74319
G1 F1200 X74.8 Y112.945 E31.0953
G1 F3600 E24.0953
G1 F600 Z0.4
G0 F6000 X79.2 Y112.945 Z0.4
G1 F600 Z0.2
G1 F3600 E31.0953
G1 F1200 X79.2 Y122.569 E31.4474
G1 F3600 E24.4474
G1 F600 Z0.4
G0 F6000 X83.6 Y122.569 Z0.4
G1 F600 Z0.2
G1 F3600 E31.4474
G1 F1200 X83.6 Y112.945 E31.79951
G1 F3600 E24.79951
G1 F600 Z0.4
G0 F6000 X88 Y112.945 Z0.4
G1 F600 Z0.2
G1 F3600 E31.79951
G1 F1200 X88 Y122.569 E32.15161
G1 F3600 E25.15161
G1 F600 Z0.4
G0 F6000 X92.4 Y122.569 Z0.4
G1 F600 Z0.2
G1 F3600 E32.15161
G1 F1200 X92.4 Y112.945 E32.50372
G1 F3600 E25.50372
G1 F600 Z0.4
G0 F6000 X96.8 Y112.945 Z0.4
G1 F600 Z0.2
G1 F3600 E32.50372
G1 F1200 X96.8 Y122.569 E32.85582
G1 F3600 E25.85582
G1 F600 Z0.4
G0 F6000 X101.2 Y122.569 Z0.4
G1 F600 Z0.2
G1 F3600 E32.85582
G1 F1200 X101.2 Y112.945 E33.20793
G1 F3600 E26.20793
G1 F600 Z0.4
G0 F6000 X105.6 Y112.945 Z0.4
G1 F600 Z0.2
G1 F3600 E33.20793
G1 F1200 X105.6 Y122.569 E33.56004
G1 F3600 E26.56004
G1 F600 Z0.4
G0 F6000 X110 Y122.569 Z0.4
G1 F600 Z0.2
G1 F3600 E33.56004
G1 F1200 X110 Y112.945 E33.91214
G1 F3600 E26.91214
G1 F600 Z0.4
G0 F6000 X114.4 Y112.945 Z0.4
G1 F600 Z0.2
G1 F3600 E33.91214
G1 F1200 X114.4 Y122.569 E34.26425
G1 F3600 E27.26425
G1 F600 Z0.4
G0 F6000 X118.8 Y122.569 Z0.4
G1 F600 Z0.2
G1 F3600 E34.26425
G1 F1200 X118.8 Y112.945 E34.61635
G1 F3600 E27.61635
G1 F600 Z0.4
G0 F6000 X123.2 Y112.945 Z0.4
G1 F600 Z0.2
G1 F3600 E34.61635
G1 F1200 X123.2 Y122.569 E34.96846
G1 F3600 E27.96846
G1 F600 Z0.4
G0 F6000 X127.6 Y122.569 Z0.4
G1 F600 Z0.2
G1 F3600 E34.96846
G1 F1200 X127.6 Y112.945 E35.32056
G1 F3600 E28.32056
G1 F600 Z0.4
G0 F6000 X71.844 Y158.1 Z0.4
G1 F600 Z0.2
G1 F3600 E35.32056
G1 F1200 X71.844 Y165.906 E35.60615
G1 X71.668 Y165.907 E35.61259
G1 X70.9 Y166.679 E35.65243
G1 X70.9 Y166.787 E35.65638
G1 X68.021 Y166.78 E35.76171
G1 X67.751 Y166.762 E35.77161
G1 X67.446 Y166.687 E35.78311
G1 X67.183 Y166.579 E35.79351
G1 X66.962 Y166.444 E35.80298
G1 X66.742 Y166.258 E35.81352
G1 X66.559 Y166.046 E35.82377
G1 X66.429 Y165.837 E35.83277
G1 X66.314 Y165.554 E35.84395
G1 X66.245 Y165.273 E35.85454
G1 X66.22 Y164.975 E35.86548
G1 X66.22 Y158.996 E36.08423
G1 X66.242 Y158.737 E36.09374
G1 X66.305 Y158.464 E36.10399
G1 X66.42 Y158.185 E36.11503
G1 X66.565 Y157.944 E36.12532
G1 X66.722 Y157.763 E36.13408
G1 X66.952 Y157.563 E36.14523
G1 X67.183 Y157.422 E36.15514
G1 X67.447 Y157.313 E36.16559
G1 X67.715 Y157.246 E36.17569
G1 X68.02 Y157.222 E36.18689
G1 X70.9 Y157.221 E36.29225
G1 X70.9 Y157.327 E36.29613
G1 X71.673 Y158.1 E36.33613
G1 X71.844 Y158.1 E36.34238
G0 F6000 X71.404 Y158.453
G1 F1200 X71.404 Y165.548 E36.60196
G1 X70.61 Y166.346 E36.64315
G1 X68.035 Y166.34 E36.73736
G1 X67.817 Y166.325 E36.74535
G1 X67.584 Y166.268 E36.75413
G1 X67.379 Y166.184 E36.76223
G1 X67.223 Y166.089 E36.76892
G1 X67.054 Y165.946 E36.77702
G1 X66.914 Y165.784 E36.78485
G1 X66.824 Y165.638 E36.79112
G1 X66.732 Y165.413 E36.80002
G1 X66.68 Y165.201 E36.808
G1 X66.66 Y164.962 E36.81678
G1 X66.66 Y159.009 E37.03458
G1 X66.677 Y158.81 E37.04188
G1 X66.726 Y158.599 E37.04981
G1 X66.815 Y158.382 E37.05839
G1 X66.924 Y158.201 E37.06612
G1 X67.031 Y158.078 E37.07208
G1 X67.213 Y157.92 E37.0809
G1 X67.383 Y157.816 E37.08819
G1 X67.586 Y157.732 E37.09623
G1 X67.785 Y157.682 E37.10374
G1 X68.042 Y157.662 E37.11317
G1 X70.612 Y157.661 E37.20719
G1 X71.404 Y158.453 E37.24817
G0 F6000 X71.225 Y158.4
G1 F1200 X66.906 Y158.4 E37.40619
G1 F3600 E30.40619
G1 F600 Z0.4
G0 F6000 X70.4 Y157.749 Z0.4
G1 F600 Z0.2
G1 F3600 E37.40619
G1 F1200 X70.4 Y166.257 E37.71746
G1 F3600 E30.71746
G1 F600 Z0.4
G0 F6000 X71.315 Y162.8 Z0.4
G1 F600 Z0.2
G1 F3600 E37.71746
G1 F1200 X66.747 Y162.8 E37.88459
G1 F3600 E30.88459
G1 F600 Z0.4
G0 F6000 X127.578 Y165.9 Z0.4
G1 F600 Z0.2
G1 F3600 E37.88459
G1 F1200 X127.578 Y158.1 E38.16996
G1 X128.327 Y158.1 E38.19736
G1 X129.101 Y157.326 E38.23741
G1 X129.101 Y157.213 E38.24155
G1 X131.986 Y157.22 E38.3471
G1 X132.262 Y157.242 E38.35723
G1 X132.55 Y157.308 E38.36804
G1 X132.813 Y157.418 E38.37847
G1 X133.031 Y157.551 E38.38781
G1 X133.249 Y157.737 E38.39829
G1 X133.434 Y157.951 E38.40864
G1 X133.584 Y158.192 E38.41903
G1 X133.675 Y158.412 E38.42774
G1 X133.758 Y158.73 E38.43976
G1 X133.778 Y158.985 E38.44912
G1 X133.78 Y159.205 E38.45717
G1 X133.78 Y165.013 E38.66966
G1 X133.759 Y165.246 E38.67822
G1 X133.692 Y165.541 E38.68929
G1 X133.583 Y165.81 E38.69991
G1 X133.442 Y166.045 E38.70994
G1 X133.278 Y166.24 E38.71926
G1 X133.047 Y166.438 E38.73039
G1 X132.811 Y166.585 E38.74056
G1 X132.574 Y166.683 E38.74994
G1 X132.267 Y166.759 E38.76152
G1 X132.009 Y166.778 E38.77098
G1 X129.1 Y166.779 E38.87741
G1 X129.1 Y166.673 E38.88129
G1 X128.327 Y165.9 E38.92128
G1 X127.578 Y165.9 E38.94869
G0 F6000 X128.018 Y165.46
G1 F1200 X128.018 Y158.54 E39.20186
G1 X128.509 Y158.54 E39.21983
G1 X129.395 Y157.654 E39.26567
G1 X131.963 Y157.66 E39.35962
G1 X132.197 Y157.679 E39.36821
G1 X132.414 Y157.728 E39.37635
G1 X132.612 Y157.811 E39.3842
G1 X132.771 Y157.908 E39.39102
G1 X132.939 Y158.051 E39.39909
G1 X133.077 Y158.211 E39.40682
G1 X133.192 Y158.396 E39.41479
G1 X133.257 Y158.553 E39.42101
G1 X133.322 Y158.803 E39.43046
G1 X133.338 Y159.009 E39.43802
G1 X133.34 Y159.205 E39.44519
G1 X133.34 Y164.996 E39.65706
G1 X133.324 Y165.177 E39.66371
G1 X133.271 Y165.407 E39.67234
G1 X133.187 Y165.616 E39.68058
G1 X133.085 Y165.786 E39.68784
G1 X132.963 Y165.931 E39.69477
G1 X132.787 Y166.082 E39.70325
G1 X132.612 Y166.191 E39.7108
G1 X132.434 Y166.264 E39.71784
G1 X132.199 Y166.323 E39.7267
G1 X131.99 Y166.338 E39.73437
G1 X129.388 Y166.339 E39.82956
G1 X128.509 Y165.46 E39.87504
G1 X128.018 Y165.46 E39.89301
G1 F3600 E32.89301
G1 F600 Z0.4
G0 F6000 X128.105 Y162.8 Z0.4
G1 F600 Z0.2
G1 F3600 E39.89301
G1 F1200 X133.252 Y162.8 E40.08132
G1 F3600 E33.08132
G1 F600 Z0.4
G0 F6000 X132 Y166.25 Z0.4
G1 F600 Z0.2
G1 F3600 E40.08132
G1 F1200 X132 Y157.751 E40.39226
G0 F6000 X133.091 Y158.4
G1 F1200 X128.774 Y158.4 E40.5502
G1 F3600 E33.5502
G1 F600 Z0.4
;MESH:relay_mount__cover.STL
G0 F6000 X132.499 Y110.217 Z0.4
;TYPE:WALL-INNER
G1 F600 Z0.2
G1 F3600 E40.5502
G1 F1200 X72.619 Y110.217 E42.74098
G1 X72.619 Y75.337 E44.01711
G1 X132.499 Y75.337 E46.20789
G1 X132.499 Y110.217 E47.48401
G1 F3600 E40.48401
G1 F600 Z0.4
G0 F6000 X119.475 Y107.027 Z0.4
G1 F600 Z0.2
G1 F3600 E47.48401
G1 F1200 X120.203 Y106.996 E47.51067
G1 X120.913 Y106.842 E47.53725
G1 X121.565 Y106.581 E47.56294
G1 X122.185 Y106.204 E47.58949
G1 X122.731 Y105.727 E47.61602
G1 X123.188 Y105.168 E47.64243
G1 X123.547 Y104.535 E47.66906
G1 X123.792 Y103.852 E47.69561
G1 X123.919 Y103.139 E47.7221
G1 X123.923 Y102.415 E47.74859
G1 X123.806 Y101.699 E47.77513
G1 X123.568 Y101.011 E47.80177
G1 X123.217 Y100.377 E47.82828
G1 X122.766 Y99.81 E47.85479
G1 X122.223 Y99.326 E47.8814
G1 X121.606 Y98.943 E47.90797
G1 X120.937 Y98.668 E47.93443
G1 X120.228 Y98.512 E47.96099
G1 X119.483 Y98.476 E47.98828
G1 X118.78 Y98.565 E48.01421
G1 X118.088 Y98.772 E48.04063
G1 X117.436 Y99.096 E48.06727
G1 X116.852 Y99.525 E48.09378
G1 X116.348 Y100.046 E48.1203
G1 X115.939 Y100.643 E48.14678
G1 X115.634 Y101.305 E48.17345
G1 X115.449 Y102.005 E48.19994
G1 X115.382 Y102.727 E48.22646
G1 X115.439 Y103.45 E48.253
G1 X115.618 Y104.154 E48.27957
G1 X115.913 Y104.817 E48.30612
G1 X116.316 Y105.42 E48.33266
G1 X116.816 Y105.947 E48.35924
G1 X117.397 Y106.381 E48.38577
G1 X118.043 Y106.711 E48.41231
G1 X118.734 Y106.927 E48.4388
G1 X119.475 Y107.027 E48.46615
G1 F3600 E41.46615
G1 F600 Z0.4
G0 F6000 X125.211 Y97.149 Z0.4
G1 F600 Z0.2
G1 F3600 E48.46615
G1 F1200 X125.937 Y97.127 E48.49273
G1 X126.67 Y96.969 E48.52016
G1 X127.324 Y96.707 E48.54594
G1 X127.944 Y96.333 E48.57243
G1 X128.491 Y95.854 E48.59903
G1 X128.947 Y95.295 E48.62542
G1 X129.308 Y94.662 E48.65208
G1 X129.551 Y93.978 E48.67864
G1 X129.678 Y93.266 E48.7051
G1 X129.682 Y92.542 E48.73159
G1 X129.565 Y91.826 E48.75813
G1 X129.327 Y91.137 E48.7848
G1 X128.976 Y90.503 E48.81131
G1 X128.523 Y89.935 E48.83789
G1 X127.981 Y89.453 E48.86443
G1 X127.366 Y89.07 E48.89094
G1 X126.693 Y88.794 E48.91755
G1 X125.985 Y88.639 E48.94407
G1 X125.262 Y88.605 E48.97055
G1 X124.543 Y88.692 E48.99705
G1 X123.847 Y88.899 E49.02361
G1 X123.195 Y89.223 E49.05025
G1 X122.611 Y89.652 E49.07676
G1 X122.111 Y90.167 E49.10302
G1 X121.974 Y90.362 E49.11174
G1 X121.682 Y90.792 E49.13076
G1 X121.393 Y91.435 E49.15655
G1 X121.207 Y92.132 E49.18294
G1 X121.141 Y92.853 E49.20943
G1 X121.197 Y93.577 E49.236
G1 X121.377 Y94.281 E49.26258
G1 X121.672 Y94.946 E49.2892
G1 X122.088 Y95.565 E49.31649
G1 X122.576 Y96.074 E49.34228
G1 X123.156 Y96.509 E49.36881
G1 X123.802 Y96.837 E49.39532
G1 X124.497 Y97.055 E49.42197
G1 X125.211 Y97.149 E49.44831
G1 F3600 E42.44831
G1 F600 Z0.4
G0 F6000 X113.804 Y97.103 Z0.4
G1 F600 Z0.2
G1 F3600 E49.44831
G1 F1200 X114.521 Y97.072 E49.47457
G1 X115.218 Y96.925 E49.50063
G1 X115.893 Y96.658 E49.52719
G1 X116.513 Y96.282 E49.55372
G1 X117.06 Y95.805 E49.58027
G1 X117.517 Y95.243 E49.60677
G1 X117.877 Y94.611 E49.63338
G1 X118.121 Y93.928 E49.65992
G1 X118.248 Y93.215 E49.68641
G1 X118.252 Y92.491 E49.7129
G1 X118.135 Y91.776 E49.73941
G1 X117.897 Y91.087 E49.76608
G1 X117.546 Y90.453 E49.79259
G1 X117.095 Y89.885 E49.81913
G1 X116.551 Y89.402 E49.84574
G1 X115.935 Y89.02 E49.87226
G1 X115.265 Y88.745 E49.89876
G1 X114.556 Y88.588 E49.92533
G1 X113.812 Y88.553 E49.95258
G1 X113.109 Y88.641 E49.9785
G1 X112.417 Y88.849 E50.00493
G1 X111.766 Y89.172 E50.03152
G1 X111.181 Y89.601 E50.05806
G1 X110.681 Y90.116 E50.08433
G1 X110.544 Y90.311 E50.09304
G1 X110.252 Y90.741 E50.11206
G1 X109.963 Y91.384 E50.13785
G1 X109.777 Y92.081 E50.16425
G1 X109.711 Y92.803 E50.19077
G1 X109.767 Y93.526 E50.2173
G1 X109.947 Y94.23 E50.24389
G1 X110.242 Y94.895 E50.2705
G1 X110.658 Y95.514 E50.29779
G1 X111.146 Y96.025 E50.32364
G1 X111.726 Y96.457 E50.3501
G1 X112.372 Y96.787 E50.37664
G1 X113.063 Y97.003 E50.40313
G1 X113.804 Y97.103 E50.43048
G1 F3600 E43.43048
G1 F600 Z0.4
G0 F6000 X102.567 Y97.044 Z0.4
G1 F600 Z0.2
G1 F3600 E50.43048
G1 F1200 X103.101 Y97.021 E50.45004
G1 X103.791 Y96.875 E50.47584
G1 X104.463 Y96.607 E50.50231
G1 X105.084 Y96.23 E50.52889
G1 X105.63 Y95.753 E50.55541
G1 X106.087 Y95.194 E50.58183
G1 X106.448 Y94.561 E50.60849
G1 X106.691 Y93.877 E50.63505
G1 X106.818 Y93.164 E50.66155
G1 X106.822 Y92.441 E50.688
G1 X106.705 Y91.725 E50.71454
G1 X106.467 Y91.036 E50.74121
G1 X106.116 Y90.402 E50.76772
G1 X105.665 Y89.834 E50.79426
G1 X105.121 Y89.351 E50.82087
G1 X104.505 Y88.969 E50.84739
G1 X103.834 Y88.693 E50.87394
G1 X103.115 Y88.537 E50.90086
G1 X102.381 Y88.502 E50.92774
G1 X101.658 Y88.593 E50.9544
G1 X100.984 Y88.8 E50.9802
G1 X100.335 Y89.121 E51.00669
G1 X99.751 Y89.551 E51.03322
G1 X99.247 Y90.071 E51.05971
G1 X98.838 Y90.669 E51.08622
G1 X98.533 Y91.33 E51.11285
G1 X98.348 Y92.03 E51.13934
G1 X98.281 Y92.752 E51.16587
G1 X98.338 Y93.476 E51.19244
G1 X98.517 Y94.18 E51.21902
G1 X98.812 Y94.842 E51.24553
G1 X99.215 Y95.446 E51.2721
G1 X99.715 Y95.972 E51.29865
G1 X100.296 Y96.407 E51.32521
G1 X100.942 Y96.736 E51.35173
G1 X101.634 Y96.953 E51.37826
G1 X102.34 Y97.046 E51.40432
G1 X102.567 Y97.044 E51.41262
G1 F3600 E44.41262
G1 F600 Z0.4
G0 F6000 X108.133 Y87.179 Z0.4
G1 F600 Z0.2
G1 F3600 E51.41262
G1 F1200 X108.861 Y87.148 E51.43928
G1 X109.549 Y87.002 E51.46501
G1 X110.222 Y86.734 E51.49151
G1 X110.842 Y86.358 E51.51804
G1 X111.389 Y85.881 E51.5446
G1 X111.846 Y85.32 E51.57107
G1 X112.206 Y84.688 E51.59768
G1 X112.45 Y84.004 E51.62425
G1 X112.581 Y83.271 E51.65149
G1 X112.581 Y82.563 E51.67739
G1 X112.46 Y81.829 E51.70461
G1 X112.225 Y81.162 E51.73048
G1 X111.875 Y80.529 E51.75695
G1 X111.424 Y79.961 E51.78348
G1 X110.88 Y79.478 E51.8101
G1 X110.264 Y79.096 E51.83662
G1 X109.594 Y78.822 E51.8631
G1 X108.909 Y78.669 E51.88878
G1 X108.228 Y78.606 E51.9138
G1 X108.035 Y78.641 E51.92098
G1 X107.437 Y78.717 E51.94303
G1 X106.746 Y78.925 E51.96943
G1 X106.095 Y79.248 E51.99602
G1 X105.51 Y79.677 E52.02256
G1 X105.005 Y80.197 E52.04908
G1 X104.596 Y80.797 E52.07565
G1 X104.292 Y81.457 E52.10223
