;FLAVOR:Marlin
;TIME:7502
;Filament used: 6.16103m
;Layer height: 0.2
;MINX:65.207
;MINY:66.701
;MINZ:0.2
;MAXX:169.798
;MAXY:168.298
;MAXZ:17
;Generated with Cura_SteamEngine 4.1.0
M140 S60
M105
M190 S60
M104 S200
M105
M109 S200
M82 ;absolute extrusion mode
; Ender 3 Custom Start G-code
G28 ; Home all axes
G92 E0 ; Reset Extruder
G1 Z2.0 F3000 ; Move Z Axis up little to prevent scratching of Heat Bed
G1 X0.1 Y20 Z0.3 F5000.0 ; Move to start position
G1 X0.1 Y200.0 Z0.3 F1500.0 E15 ; Draw the first line
G1 X0.4 Y200.0 Z0.3 F5000.0 ; Move to side a little
G1 X0.4 Y20 Z0.3 F1500.0 E30 ; Draw the second line
G92 E0 ; Reset Extruder
G1 Z2.0 F3000 ; Move Z Axis up little to prevent scratching of Heat Bed
; End of custom start GCode
G92 E0
G92 E0
G1 F3600 E-7
;LAYER_COUNT:85
;LAYER:0
M107
M204 S500
M205 X10 Y10
G0 F3600 X67.886 Y68.891 Z0.2
;TYPE:SKIRT
G1 F3600 E0
G1 F1800 X68.341 Y68.501 E0.01993
G1 X68.909 Y68.066 E0.04373
G1 X69.522 Y67.698 E0.06751
G1 X69.929 Y67.502 E0.08253
G1 X70.195 Y67.385 E0.0922
G1 X70.865 Y67.134 E0.11599
G1 X71.528 Y66.965 E0.13875
G1 X72.164 Y66.839 E0.16032
G1 X73.224 Y66.72 E0.19579
G1 X73.537 Y66.711 E0.20621
G1 X73.72 Y66.708 E0.21229
G1 X128.416 Y66.703 E2.03149
G1 X162.688 Y66.701 E3.17138
G1 X162.78 Y66.702 E3.17444
G1 X163.48 Y66.712 E3.19773
G1 X164.194 Y66.762 E3.22153
G1 X164.897 Y66.891 E3.24531
G1 X165.582 Y67.098 E3.26911
G1 X166.239 Y67.381 E3.2929
G1 X166.861 Y67.735 E3.3167
G1 X167.439 Y68.155 E3.34047
G1 X167.967 Y68.638 E3.36427
G1 X168.437 Y69.177 E3.38805
G1 X168.845 Y69.765 E3.41186
G1 X169.184 Y70.395 E3.43565
G1 X169.451 Y71.058 E3.45942
G1 X169.642 Y71.747 E3.4832
G1 X169.755 Y72.454 E3.50702
G1 X169.786 Y72.919 E3.52252
G1 X169.795 Y73.219 E3.5325
G1 X169.798 Y73.411 E3.53889
G1 X169.798 Y161.173 E6.45786
G1 X169.797 Y161.254 E6.46056
G1 X169.788 Y161.969 E6.48434
G1 X169.74 Y162.682 E6.50811
G1 X169.611 Y163.386 E6.53191
G1 X169.405 Y164.071 E6.5557
G1 X169.124 Y164.728 E6.57947
G1 X168.771 Y165.351 E6.60329
G1 X168.351 Y165.93 E6.62708
G1 X167.869 Y166.458 E6.65086
G1 X167.331 Y166.93 E6.67466
G1 X166.744 Y167.338 E6.69844
G1 X166.115 Y167.678 E6.72222
G1 X165.452 Y167.946 E6.746
G1 X164.763 Y168.139 E6.7698
G1 X164.057 Y168.253 E6.79359
G1 X163.588 Y168.285 E6.80922
G1 X163.267 Y168.295 E6.8199
G1 X163.068 Y168.298 E6.82652
G1 X74.104 Y168.293 E9.78548
G1 X74.013 Y168.292 E9.78851
G1 X73.311 Y168.282 E9.81186
G1 X72.594 Y168.232 E9.83576
G1 X72.154 Y168.176 E9.85051
G1 X71.451 Y168.046 E9.87429
G1 X70.614 Y167.781 E9.90349
G1 X70.254 Y167.639 E9.91636
G1 X69.604 Y167.339 E9.94018
G1 X68.953 Y166.943 E9.96552
G1 X68.512 Y166.637 E9.98337
G1 X67.949 Y166.197 E10.00714
G1 X67.437 Y165.697 E10.03094
G1 X67.162 Y165.375 E10.04502
G1 X66.923 Y165.076 E10.05776
G1 X66.508 Y164.493 E10.08156
G1 X66.178 Y163.903 E10.10404
G1 X65.974 Y163.488 E10.11942
G1 X65.695 Y162.83 E10.14319
G1 X65.491 Y162.144 E10.167
G1 X65.415 Y161.776 E10.1795
G1 X65.314 Y161.203 E10.19885
G1 X65.22 Y160.276 E10.22984
G1 X65.211 Y159.963 E10.24025
G1 X65.208 Y159.779 E10.24637
G1 X65.207 Y75.607 E13.04594
G1 X65.208 Y75.516 E13.04897
G1 X65.218 Y74.813 E13.07236
G1 X65.27 Y74.084 E13.09666
G1 X65.327 Y73.643 E13.11145
G1 X65.458 Y72.939 E13.13527
G1 X65.711 Y72.138 E13.16321
G1 X65.851 Y71.779 E13.17603
G1 X66.148 Y71.128 E13.19983
G1 X66.496 Y70.544 E13.22244
G1 X66.733 Y70.19 E13.23661
G1 X67.163 Y69.618 E13.26041
G1 X67.886 Y68.891 E13.29451
G0 F3600 X68.146 Y69.194
G1 F1800 X68.601 Y68.804 E13.31444
G1 X69.152 Y68.385 E13.33746
G1 X69.748 Y68.032 E13.3605
G1 X70.09 Y67.868 E13.37312
G1 X70.356 Y67.751 E13.38278
G1 X71.005 Y67.509 E13.40582
G1 X71.606 Y67.357 E13.42644
G1 X72.242 Y67.231 E13.448
G1 X73.236 Y67.119 E13.48127
G1 X73.549 Y67.11 E13.49169
G1 X73.72 Y67.108 E13.49738
G1 X128.416 Y67.103 E15.31657
G1 X162.688 Y67.101 E16.45646
G1 X162.775 Y67.102 E16.45936
G1 X163.475 Y67.112 E16.48264
G1 X164.165 Y67.161 E16.50565
G1 X164.846 Y67.291 E16.52871
G1 X165.507 Y67.497 E16.55174
G1 X166.14 Y67.779 E16.57478
G1 X166.736 Y68.131 E16.59781
G1 X167.287 Y68.55 E16.62083
G1 X167.787 Y69.029 E16.64386
G1 X168.228 Y69.563 E16.66689
G1 X168.604 Y70.145 E16.68994
G1 X168.912 Y70.765 E16.71297
G1 X169.145 Y71.417 E16.73599
G1 X169.302 Y72.092 E16.75904
G1 X169.386 Y72.931 E16.78709
G1 X169.395 Y73.231 E16.79707
G1 X169.398 Y73.411 E16.80306
G1 X169.398 Y161.249 E19.72456
G1 X169.389 Y161.964 E19.74835
G1 X169.34 Y162.654 E19.77135
G1 X169.212 Y163.335 E19.7944
G1 X169.006 Y163.996 E19.81743
G1 X168.726 Y164.63 E19.84048
G1 X168.375 Y165.226 E19.86349
G1 X167.957 Y165.779 E19.88654
G1 X167.478 Y166.279 E19.90957
G1 X166.945 Y166.721 E19.9326
G1 X166.364 Y167.098 E19.95564
G1 X165.744 Y167.407 E19.97868
G1 X165.092 Y167.641 E20.00172
G1 X164.418 Y167.799 E20.02474
G1 X163.576 Y167.885 E20.05289
G1 X163.255 Y167.895 E20.06357
G1 X163.068 Y167.898 E20.0698
G1 X74.104 Y167.893 E23.02875
G1 X74.019 Y167.892 E23.03158
G1 X73.317 Y167.882 E23.05493
G1 X72.644 Y167.835 E23.07737
G1 X72.204 Y167.779 E23.09212
G1 X71.524 Y167.652 E23.11513
G1 X70.76 Y167.408 E23.1418
G1 X70.4 Y167.266 E23.15467
G1 X69.772 Y166.976 E23.17768
G1 X69.182 Y166.615 E23.20069
G1 X68.741 Y166.309 E23.21854
G1 X68.195 Y165.882 E23.24159
G1 X67.703 Y165.395 E23.26462
G1 X67.474 Y165.125 E23.27639
G1 X67.235 Y164.826 E23.28912
G1 X66.835 Y164.261 E23.31215
G1 X66.537 Y163.727 E23.33249
G1 X66.333 Y163.312 E23.34787
G1 X66.064 Y162.674 E23.3709
G1 X65.809 Y161.707 E23.40416
G1 X65.708 Y161.134 E23.42351
G1 X65.619 Y160.264 E23.4526
G1 X65.61 Y159.951 E23.46301
G1 X65.608 Y159.779 E23.46874
G1 X65.607 Y75.607 E26.26831
G1 X65.608 Y75.522 E26.27113
G1 X65.618 Y74.819 E26.29452
G1 X65.666 Y74.135 E26.31732
G1 X65.723 Y73.694 E26.33211
G1 X65.852 Y73.013 E26.35517
G1 X66.084 Y72.283 E26.38064
G1 X66.224 Y71.924 E26.39346
G1 X66.512 Y71.294 E26.4165
G1 X66.828 Y70.766 E26.43697
G1 X67.065 Y70.412 E26.45114
G1 X67.483 Y69.86 E26.47416
G1 X68.146 Y69.194 E26.50542
G0 F3600 X68.407 Y69.498
G1 F1800 X68.862 Y69.108 E26.52535
G1 X69.395 Y68.704 E26.5476
G1 X70.251 Y68.234 E26.58008
G1 X70.517 Y68.117 E26.58974
G1 X71.145 Y67.885 E26.61201
G1 X71.684 Y67.75 E26.63049
G1 X72.32 Y67.624 E26.65206
G1 X73.247 Y67.519 E26.68308
G1 X73.56 Y67.51 E26.6935
G1 X73.72 Y67.508 E26.69882
G1 X128.416 Y67.503 E28.51802
G1 X162.688 Y67.501 E29.65791
G1 X162.769 Y67.502 E29.6606
G1 X163.469 Y67.512 E29.68389
G1 X164.136 Y67.561 E29.70613
G1 X164.793 Y67.69 E29.7284
G1 X165.429 Y67.896 E29.75064
G1 X166.037 Y68.176 E29.7729
G1 X166.606 Y68.527 E29.79514
G1 X167.13 Y68.944 E29.81741
G1 X167.6 Y69.42 E29.83966
G1 X168.01 Y69.948 E29.86189
G1 X168.355 Y70.522 E29.88417
G1 X168.628 Y71.132 E29.90639
G1 X168.826 Y71.771 E29.92865
G1 X168.947 Y72.429 E29.9509
G1 X168.986 Y72.943 E29.96804
G1 X168.995 Y73.243 E29.97802
G1 X168.998 Y73.411 E29.98361
G1 X168.998 Y161.243 E32.90492
G1 X168.989 Y161.958 E32.9287
G1 X168.94 Y162.626 E32.95098
G1 X168.813 Y163.283 E32.97323
G1 X168.608 Y163.919 E32.99546
G1 X168.328 Y164.527 E33.01772
G1 X167.978 Y165.097 E33.03997
G1 X167.563 Y165.622 E33.06223
G1 X167.088 Y166.093 E33.08448
G1 X166.56 Y166.504 E33.10673
G1 X165.987 Y166.849 E33.12898
G1 X165.376 Y167.123 E33.15125
G1 X164.738 Y167.323 E33.17349
G1 X164.08 Y167.445 E33.19575
G1 X163.563 Y167.485 E33.21299
G1 X163.242 Y167.495 E33.22367
G1 X163.068 Y167.498 E33.22946
G1 X74.104 Y167.493 E36.18842
G1 X74.024 Y167.492 E36.19108
G1 X73.322 Y167.482 E36.21443
G1 X72.695 Y167.438 E36.23533
G1 X72.255 Y167.382 E36.25009
G1 X71.598 Y167.258 E36.27232
G1 X70.907 Y167.036 E36.29646
G1 X70.547 Y166.894 E36.30934
G1 X69.941 Y166.612 E36.33157
G1 X69.41 Y166.286 E36.35229
G1 X68.969 Y165.98 E36.37014
G1 X68.443 Y165.566 E36.39241
G1 X67.787 Y164.876 E36.42407
G1 X67.548 Y164.577 E36.4368
G1 X67.162 Y164.03 E36.45907
G1 X66.896 Y163.55 E36.47732
G1 X66.692 Y163.135 E36.4927
G1 X66.434 Y162.518 E36.51495
G1 X66.203 Y161.637 E36.54524
G1 X66.102 Y161.064 E36.56459
G1 X66.019 Y160.253 E36.59171
G1 X66.01 Y159.94 E36.60212
G1 X66.008 Y159.779 E36.60748
G1 X66.007 Y75.607 E39.40705
G1 X66.008 Y75.527 E39.40971
G1 X66.018 Y74.824 E39.43309
G1 X66.063 Y74.186 E39.45437
G1 X66.12 Y73.745 E39.46916
G1 X66.245 Y73.088 E39.4914
G1 X66.457 Y72.428 E39.51446
G1 X66.597 Y72.069 E39.52727
G1 X66.877 Y71.462 E39.54951
G1 X67.161 Y70.989 E39.56786
G1 X67.398 Y70.635 E39.58203
G1 X67.802 Y70.102 E39.60427
G1 X68.407 Y69.498 E39.6327
G0 F3600 X68.667 Y69.802
G1 F1800 X69.122 Y69.412 E39.65264
G1 X69.636 Y69.023 E39.67408
G1 X70.412 Y68.6 E39.70347
G1 X70.678 Y68.483 E39.71314
G1 X71.283 Y68.261 E39.73457
G1 X71.761 Y68.142 E39.75095
G1 X72.397 Y68.016 E39.77252
G1 X73.259 Y67.919 E39.80137
G1 X73.572 Y67.91 E39.81178
G1 X73.721 Y67.908 E39.81674
G1 X128.417 Y67.903 E41.63594
G1 X162.689 Y67.901 E42.77583
G1 X162.763 Y67.902 E42.77829
G1 X163.463 Y67.912 E42.80157
G1 X164.106 Y67.961 E42.82302
G1 X164.738 Y68.089 E42.84447
G1 X165.349 Y68.294 E42.86591
G1 X165.93 Y68.574 E42.88736
G1 X166.472 Y68.923 E42.9088
G1 X166.966 Y69.337 E42.93024
G1 X167.406 Y69.809 E42.9517
G1 X167.783 Y70.331 E42.97311
G1 X168.094 Y70.896 E42.99456
G1 X168.332 Y71.495 E43.016
G1 X168.494 Y72.119 E43.03744
G1 X168.587 Y72.955 E43.06542
G1 X168.596 Y73.255 E43.0754
G1 X168.598 Y73.411 E43.08059
G1 X168.598 Y161.238 E46.00173
G1 X168.589 Y161.953 E46.02551
G1 X168.541 Y162.596 E46.04696
G1 X168.413 Y163.228 E46.06841
G1 X168.209 Y163.84 E46.08986
G1 X167.93 Y164.421 E46.1113
G1 X167.582 Y164.964 E46.13275
G1 X167.169 Y165.459 E46.15419
G1 X166.698 Y165.899 E46.17563
G1 X166.177 Y166.278 E46.19706
G1 X165.612 Y166.589 E46.21851
G1 X165.013 Y166.828 E46.23996
G1 X164.389 Y166.991 E46.26141
G1 X163.551 Y167.085 E46.28946
G1 X163.23 Y167.095 E46.30014
G1 X163.068 Y167.098 E46.30553
G1 X74.104 Y167.093 E49.26448
G1 X74.03 Y167.092 E49.26694
G1 X73.328 Y167.082 E49.29029
G1 X72.745 Y167.041 E49.30973
G1 X72.305 Y166.985 E49.32449
G1 X71.672 Y166.865 E49.34591
G1 X71.054 Y166.664 E49.36753
G1 X70.694 Y166.522 E49.3804
G1 X70.11 Y166.249 E49.40184
G1 X69.638 Y165.957 E49.4203
G1 X69.197 Y165.651 E49.43815
G1 X68.691 Y165.252 E49.45959
G1 X68.099 Y164.626 E49.48824
G1 X67.86 Y164.327 E49.50098
G1 X67.49 Y163.799 E49.52242
G1 X67.255 Y163.374 E49.53857
G1 X67.051 Y162.959 E49.55395
G1 X66.803 Y162.364 E49.57539
G1 X66.597 Y161.568 E49.60274
G1 X66.496 Y160.995 E49.62209
G1 X66.419 Y160.241 E49.6473
G1 X66.41 Y159.928 E49.65771
G1 X66.408 Y159.779 E49.66267
G1 X66.407 Y75.607 E52.46224
G1 X66.408 Y75.533 E52.4647
G1 X66.418 Y74.83 E52.48809
G1 X66.46 Y74.237 E52.50786
G1 X66.517 Y73.796 E52.52265
G1 X66.639 Y73.163 E52.54409
G1 X66.829 Y72.574 E52.56468
G1 X66.969 Y72.215 E52.57749
G1 X67.24 Y71.63 E52.59894
G1 X67.493 Y71.211 E52.61522
G1 X67.73 Y70.857 E52.62938
G1 X68.121 Y70.345 E52.65081
G1 X68.667 Y69.802 E52.67642
G1 F3600 E45.67642
;MESH:Raspberry_Pi_Case_Lid.stl
G0 F3600 X73.276 Y72.454
G0 X73.44 Y73.726
G0 X118.816 Y87.029
G0 X118.816 Y87.129
;TYPE:WALL-INNER
G1 F3600 E52.67642
G1 F1800 X118.217 Y87.209 E52.69652
G1 X117.661 Y87.439 E52.71654
G1 X117.181 Y87.807 E52.73665
G1 X116.814 Y88.286 E52.75672
G1 X116.582 Y88.843 E52.77679
G1 X116.504 Y89.442 E52.79688
G1 X116.582 Y90.041 E52.81697
G1 X116.814 Y90.598 E52.83704
G1 X117.158 Y91.045 E52.8558
G1 X131.356 Y105.242 E53.52361
G1 X131.803 Y105.585 E53.54235
G1 X132.36 Y105.817 E53.56242
G1 X132.958 Y105.895 E53.58248
G1 X133.556 Y105.817 E53.60253
G1 X134.113 Y105.585 E53.6226
G1 X134.592 Y105.218 E53.64267
G1 X134.96 Y104.738 E53.66279
G1 X135.19 Y104.182 E53.6828
G1 X135.27 Y103.584 E53.70287
G1 X135.191 Y102.985 E53.72296
G1 X134.959 Y102.429 E53.743
G1 X134.616 Y101.982 E53.76174
G1 X120.419 Y87.783 E54.42957
G1 X119.971 Y87.439 E54.44836
G1 X119.415 Y87.209 E54.46837
G1 X118.816 Y87.129 E54.48847
G0 F3600 X118.816 Y87.029
G0 X117.642 Y87.405
G0 X116.78 Y88.266
G0 X116.464 Y89.442
G0 X117.606 Y103.901
G0 X133.646 Y119.928
G0 X134.228 Y120.947
G0 X134.227 Y122.163
G0 X133.619 Y123.219
G0 X132.563 Y123.827
G0 X116.314 Y121.934
G0 X116.218 Y121.959
G1 F1800 X115.984 Y121.403 E54.50853
G1 X115.643 Y120.956 E54.52723
G1 X101.445 Y106.757 E55.19509
G1 X100.998 Y106.414 E55.21383
G1 X100.441 Y106.182 E55.2339
G1 X99.842 Y106.104 E55.25399
G1 X99.243 Y106.182 E55.27408
G1 X98.686 Y106.414 E55.29415
G1 X98.207 Y106.781 E55.31422
G1 X97.839 Y107.261 E55.33433
G1 X97.609 Y107.817 E55.35435
G1 X97.529 Y108.416 E55.37445
G1 X97.609 Y109.015 E55.39455
G1 X97.84 Y109.572 E55.4146
G1 X98.184 Y110.019 E55.43336
G1 X112.382 Y124.216 E56.10117
G1 X112.83 Y124.56 E56.11996
G1 X113.386 Y124.79 E56.13997
G1 X113.984 Y124.87 E56.16003
G1 X114.582 Y124.79 E56.1801
G1 X115.138 Y124.56 E56.20011
G1 X115.618 Y124.192 E56.22023
G1 X115.985 Y123.713 E56.2403
G1 X116.217 Y123.156 E56.26037
G1 X116.295 Y122.558 E56.28043
G1 X116.218 Y121.959 E56.30051
G0 F3600 X116.314 Y121.934
G0 X131.956 Y123.907
G0 X133.13 Y123.592
G0 X133.992 Y122.73
G0 X134.271 Y121.82
G0 X134.286 Y120.932
G0 X134.19 Y120.957
G1 F1800 X133.957 Y120.401 E56.32057
G1 X133.616 Y119.954 E56.33926
G1 X102.447 Y88.783 E57.80541
G1 X101.999 Y88.442 E57.82413
G1 X101.443 Y88.21 E57.84417
G1 X100.844 Y88.132 E57.86426
G1 X100.246 Y88.21 E57.88432
G1 X99.688 Y88.441 E57.90441
G1 X99.208 Y88.808 E57.9245
G1 X98.841 Y89.288 E57.9446
G1 X98.61 Y89.846 E57.96469
G1 X98.532 Y90.444 E57.98474
G1 X98.61 Y91.043 E58.00483
G1 X98.842 Y91.6 E58.0249
G1 X99.185 Y92.046 E58.04362
G1 X130.354 Y123.217 E59.50976
G1 X130.803 Y123.558 E59.52851
G1 X131.358 Y123.789 E59.5485
G1 X131.956 Y123.867 E59.56856
G1 X132.553 Y123.789 E59.58859
G1 X133.111 Y123.558 E59.60867
G1 X133.591 Y123.191 E59.62877
G1 X133.958 Y122.711 E59.64887
G1 X134.189 Y122.153 E59.66895
G1 X134.267 Y121.556 E59.68898
G1 X134.19 Y120.957 E59.70907
G0 F3600 X134.286 Y120.932
G0 X162.699 Y161.098
G0 X162.798 Y161.098
G1 F1800 X162.798 Y161.298 E59.71572
G1 X162.598 Y161.298 E59.72003
G1 X73.44 Y161.293 E62.68543
G1 X73.093 Y161.248 E62.69707
G1 X72.806 Y161.129 E62.7074
G1 X72.56 Y160.94 E62.71772
G1 X72.371 Y160.693 E62.72807
G1 X72.251 Y160.407 E62.73838
G1 X72.207 Y160.062 E62.74995
G1 X72.207 Y74.94 E65.58112
G1 X72.252 Y74.593 E65.59276
G1 X72.372 Y74.304 E65.60317
G1 X72.559 Y74.06 E65.61339
G1 X72.805 Y73.871 E65.62371
G1 X73.093 Y73.751 E65.63409
G1 X73.439 Y73.707 E65.64569
G1 X128.417 Y73.703 E67.47426
G1 X162.599 Y73.701 E68.61116
G1 X162.799 Y73.701 E68.61781
G1 X162.799 Y73.901 E68.62212
G1 X162.798 Y161.098 E71.5223
G0 F3600 X163.198 Y161.498
;TYPE:WALL-OUTER
G1 F1800 X163.198 Y161.698 E71.52895
G1 X162.998 Y161.698 E71.53326
G1 X73.411 Y161.693 E74.51294
G1 X72.989 Y161.638 E74.52709
G1 X72.605 Y161.479 E74.54092
G1 X72.275 Y161.225 E74.55477
G1 X72.022 Y160.896 E74.56857
G1 X71.861 Y160.51 E74.58248
G1 X71.807 Y160.09 E74.59656
G1 X71.807 Y74.911 E77.42963
G1 X71.862 Y74.489 E77.44378
G1 X72.022 Y74.103 E77.45768
G1 X72.274 Y73.774 E77.47147
G1 X72.602 Y73.523 E77.4852
G1 X72.99 Y73.361 E77.49919
G1 X73.411 Y73.307 E77.5133
G1 X128.417 Y73.303 E79.34281
G1 X162.999 Y73.301 E80.49301
G1 X163.199 Y73.301 E80.49967
G1 X163.199 Y73.501 E80.50397
G1 X163.198 Y161.498 E83.43076
G0 F3600 X163.198 Y161.698
G0 X162.728 Y161.228
G0 X116.324 Y122
G0 X115.828 Y122.064
G1 F1800 X115.635 Y121.605 E83.44733
G1 X115.341 Y121.22 E83.46344
G1 X101.181 Y107.058 E84.12953
G1 X100.796 Y106.763 E84.14566
G1 X100.336 Y106.572 E84.16223
G1 X99.842 Y106.507 E84.1788
G1 X99.348 Y106.572 E84.19537
G1 X98.888 Y106.763 E84.21194
G1 X98.492 Y107.066 E84.22852
G1 X98.189 Y107.462 E84.2451
G1 X97.999 Y107.922 E84.26166
G1 X97.933 Y108.416 E84.27823
G1 X97.999 Y108.91 E84.29481
G1 X98.189 Y109.37 E84.31136
G1 X98.485 Y109.754 E84.32749
G1 X112.646 Y123.915 E84.99358
G1 X113.031 Y124.21 E85.00971
G1 X113.491 Y124.4 E85.02627
G1 X113.984 Y124.466 E85.04281
G1 X114.477 Y124.4 E85.05935
G1 X114.937 Y124.21 E85.07591
G1 X115.333 Y123.907 E85.09249
G1 X115.636 Y123.511 E85.10907
G1 X115.827 Y123.051 E85.12564
G1 X115.892 Y122.558 E85.14218
G1 X115.828 Y122.064 E85.15875
G0 F3600 X115.751 Y121.88
