;FLAVOR:Marlin
;TIME:2910
;Filament used: 2.29245m
;Layer height: 0.2
;MINX:61.1
;MINY:61.1
;MINZ:0.2
;MAXX:173.9
;MAXY:173.9
;MAXZ:2
;Generated with Cura_SteamEngine 4.1.0
M140 S60
M105
M190 S60
M104 S200
M105
M109 S200
M82 ;absolute extrusion mode
; Ender 3 Custom Start G-code
G28 ; Home all axes
G92 E0 ; Reset Extruder
G1 Z2.0 F3000 ; Move Z Axis up little to prevent scratching of Heat Bed
G1 X0.1 Y20 Z0.3 F5000.0 ; Move to start position
G1 X0.1 Y200.0 Z0.3 F1500.0 E15 ; Draw the first line
G1 X0.4 Y200.0 Z0.3 F5000.0 ; Move to side a little
G1 X0.4 Y20 Z0.3 F1500.0 E30 ; Draw the second line
G92 E0 ; Reset Extruder
G1 Z2.0 F3000 ; Move Z Axis up little to prevent scratching of Heat Bed
; End of custom start GCode
G92 E0
G92 E0
G1 F2400 E-5
;LAYER_COUNT:10
;LAYER:0
M107
M204 S500
M205 X10 Y10
G0 F3600 X63.033 Y62.935 Z0.2
;TYPE:SKIRT
G1 F2400 E0
G1 F1800 X63.571 Y62.464 E0.02378
G1 X64.159 Y62.056 E0.04759
G1 X64.788 Y61.716 E0.07137
G1 X65.452 Y61.449 E0.09517
G1 X66.141 Y61.257 E0.11896
G1 X66.847 Y61.143 E0.14275
G1 X67.33 Y61.112 E0.15884
G1 X67.651 Y61.103 E0.16952
G1 X67.83 Y61.1 E0.17548
G1 X166.793 Y61.1 E3.467
G1 X166.885 Y61.101 E3.47006
G1 X167.583 Y61.111 E3.49328
G1 X168.296 Y61.161 E3.51705
G1 X169 Y61.29 E3.54086
G1 X169.684 Y61.498 E3.56464
G1 X170.341 Y61.78 E3.58842
G1 X170.963 Y62.134 E3.61222
G1 X171.541 Y62.555 E3.636
G1 X172.069 Y63.038 E3.6598
G1 X172.539 Y63.576 E3.68356
G1 X172.947 Y64.164 E3.70737
G1 X173.286 Y64.794 E3.73116
G1 X173.553 Y65.457 E3.75494
G1 X173.744 Y66.147 E3.77875
G1 X173.857 Y66.853 E3.80253
G1 X173.888 Y67.33 E3.81843
G1 X173.897 Y67.65 E3.82907
G1 X173.9 Y67.83 E3.83506
G1 X173.9 Y166.843 E7.12825
G1 X173.891 Y167.57 E7.15243
G1 X173.842 Y168.284 E7.17623
G1 X173.714 Y168.988 E7.20003
G1 X173.508 Y169.673 E7.22382
G1 X173.227 Y170.33 E7.24759
G1 X172.874 Y170.953 E7.27141
G1 X172.454 Y171.532 E7.2952
G1 X171.972 Y172.06 E7.31898
G1 X171.435 Y172.532 E7.34275
G1 X170.847 Y172.94 E7.36656
G1 X170.218 Y173.281 E7.39036
G1 X169.555 Y173.549 E7.41414
G1 X168.866 Y173.741 E7.43793
G1 X168.16 Y173.856 E7.46172
G1 X167.67 Y173.888 E7.47805
G1 X167.349 Y173.897 E7.48873
G1 X167.17 Y173.9 E7.49469
G1 X68.207 Y173.9 E10.78621
G1 X68.124 Y173.899 E10.78897
G1 X67.426 Y173.89 E10.81219
G1 X66.713 Y173.841 E10.83596
G1 X66.009 Y173.713 E10.85976
G1 X65.324 Y173.507 E10.88355
G1 X64.667 Y173.225 E10.90733
G1 X64.045 Y172.872 E10.93112
G1 X63.466 Y172.452 E10.95491
G1 X62.937 Y171.97 E10.97871
G1 X62.466 Y171.432 E11.00249
G1 X62.058 Y170.845 E11.02627
G1 X61.718 Y170.215 E11.05008
G1 X61.45 Y169.552 E11.07386
G1 X61.258 Y168.863 E11.09765
G1 X61.144 Y168.157 E11.12144
G1 X61.111 Y167.664 E11.13787
G1 X61.102 Y167.331 E11.14895
G1 X61.1 Y167.158 E11.15471
G1 X61.1 Y68.174 E14.44693
G1 X61.101 Y68.087 E14.44982
G1 X61.11 Y67.422 E14.47194
G1 X61.159 Y66.709 E14.49571
G1 X61.288 Y66.005 E14.51952
G1 X61.495 Y65.321 E14.54329
G1 X61.777 Y64.663 E14.5671
G1 X62.13 Y64.041 E14.59088
G1 X62.55 Y63.463 E14.61465
G1 X63.033 Y62.935 E14.63845
G0 F3600 X63.424 Y63.114
G1 F1800 X63.958 Y62.673 E14.66148
G1 X64.539 Y62.296 E14.68452
G1 X65.159 Y61.988 E14.70755
G1 X65.811 Y61.754 E14.73059
G1 X66.485 Y61.597 E14.7536
G1 X67.341 Y61.511 E14.78222
G1 X67.662 Y61.502 E14.7929
G1 X67.83 Y61.5 E14.79849
G1 X166.793 Y61.5 E18.09001
G1 X166.879 Y61.501 E18.09287
G1 X167.577 Y61.511 E18.11609
G1 X168.268 Y61.56 E18.13913
G1 X168.948 Y61.69 E18.16215
G1 X169.609 Y61.896 E18.18518
G1 X170.242 Y62.178 E18.20823
G1 X170.838 Y62.53 E18.23125
G1 X171.389 Y62.949 E18.25428
G1 X171.889 Y63.429 E18.27733
G1 X172.33 Y63.963 E18.30036
G1 X172.707 Y64.544 E18.3234
G1 X173.014 Y65.165 E18.34644
G1 X173.247 Y65.817 E18.36947
G1 X173.404 Y66.491 E18.39249
G1 X173.489 Y67.341 E18.4209
G1 X173.498 Y67.661 E18.43155
G1 X173.5 Y67.83 E18.43717
G1 X173.5 Y166.838 E21.73019
G1 X173.491 Y167.565 E21.75437
G1 X173.442 Y168.256 E21.77741
G1 X173.314 Y168.937 E21.80046
G1 X173.109 Y169.598 E21.82347
G1 X172.829 Y170.231 E21.84649
G1 X172.477 Y170.828 E21.86955
G1 X172.06 Y171.381 E21.89258
G1 X171.581 Y171.881 E21.91561
G1 X171.048 Y172.323 E21.93864
G1 X170.467 Y172.701 E21.9617
G1 X169.847 Y173.009 E21.98472
G1 X169.196 Y173.244 E22.00774
G1 X168.521 Y173.402 E22.0308
G1 X167.659 Y173.489 E22.05961
G1 X167.338 Y173.498 E22.0703
G1 X167.17 Y173.5 E22.07588
G1 X68.13 Y173.5 E25.36997
G1 X67.432 Y173.491 E25.39318
G1 X66.741 Y173.442 E25.41622
G1 X66.06 Y173.313 E25.43928
G1 X65.399 Y173.108 E25.4623
G1 X64.766 Y172.827 E25.48533
G1 X64.169 Y172.476 E25.50836
G1 X63.617 Y172.058 E25.53139
G1 X63.117 Y171.579 E25.55442
G1 X62.675 Y171.045 E25.57748
G1 X62.298 Y170.465 E25.60049
G1 X61.99 Y169.844 E25.62354
G1 X61.755 Y169.193 E25.64656
G1 X61.598 Y168.518 E25.66961
G1 X61.511 Y167.653 E25.69853
G1 X61.502 Y167.32 E25.70961
G1 X61.5 Y167.158 E25.715
G1 X61.5 Y68.174 E29.00722
G1 X61.501 Y68.093 E29.00991
G1 X61.51 Y67.428 E29.03203
G1 X61.559 Y66.737 E29.05507
G1 X61.687 Y66.057 E29.07809
G1 X61.894 Y65.395 E29.10116
G1 X62.175 Y64.762 E29.12419
G1 X62.527 Y64.166 E29.14721
G1 X62.945 Y63.614 E29.17024
G1 X63.424 Y63.114 E29.19327
G0 F3600 X63.814 Y63.301
G1 F1800 X64.343 Y62.89 E29.21555
G1 X64.916 Y62.545 E29.2378
G1 X65.527 Y62.272 E29.26006
G1 X66.165 Y62.073 E29.28229
G1 X66.823 Y61.951 E29.30454
G1 X67.352 Y61.911 E29.32219
G1 X67.673 Y61.902 E29.33287
G1 X67.83 Y61.9 E29.33809
G1 X166.793 Y61.9 E32.62961
G1 X166.873 Y61.901 E32.63228
G1 X167.571 Y61.911 E32.65549
G1 X168.238 Y61.96 E32.67774
G1 X168.895 Y62.089 E32.70001
G1 X169.531 Y62.295 E32.72224
G1 X170.139 Y62.576 E32.74452
G1 X170.708 Y62.926 E32.76674
G1 X171.232 Y63.343 E32.78901
G1 X171.702 Y63.819 E32.81126
G1 X172.112 Y64.347 E32.83349
G1 X172.457 Y64.921 E32.85577
G1 X172.73 Y65.532 E32.87803
G1 X172.928 Y66.171 E32.90028
G1 X173.049 Y66.829 E32.92253
G1 X173.089 Y67.353 E32.94001
G1 X173.098 Y67.673 E32.95066
G1 X173.1 Y67.83 E32.95588
G1 X173.1 Y166.833 E36.24873
G1 X173.091 Y167.56 E36.27291
G1 X173.042 Y168.228 E36.29519
G1 X172.915 Y168.884 E36.31741
G1 X172.71 Y169.521 E36.33967
G1 X172.431 Y170.129 E36.36192
G1 X172.081 Y170.699 E36.38417
G1 X171.665 Y171.224 E36.40645
G1 X171.19 Y171.695 E36.4287
G1 X170.663 Y172.106 E36.45092
G1 X170.09 Y172.452 E36.47319
G1 X169.48 Y172.726 E36.49543
G1 X168.841 Y172.926 E36.5177
G1 X168.183 Y173.048 E36.53996
G1 X167.648 Y173.089 E36.5578
G1 X167.327 Y173.098 E36.56848
G1 X167.17 Y173.1 E36.57371
G1 X68.135 Y173.1 E39.86762
G1 X67.437 Y173.091 E39.89084
G1 X66.77 Y173.042 E39.91309
G1 X66.113 Y172.914 E39.93535
G1 X65.476 Y172.709 E39.95761
G1 X64.868 Y172.429 E39.97987
G1 X64.298 Y172.079 E40.00212
G1 X63.774 Y171.663 E40.02437
G1 X63.303 Y171.188 E40.04662
G1 X62.892 Y170.66 E40.06887
G1 X62.547 Y170.087 E40.09112
G1 X62.273 Y169.477 E40.11336
G1 X62.073 Y168.838 E40.13563
G1 X61.952 Y168.18 E40.15788
G1 X61.911 Y167.642 E40.17583
G1 X61.902 Y167.309 E40.18691
G1 X61.9 Y167.158 E40.19193
G1 X61.9 Y68.174 E43.48415
G1 X61.901 Y68.098 E43.48668
G1 X61.91 Y67.433 E43.5088
G1 X61.959 Y66.766 E43.53104
G1 X62.087 Y66.109 E43.55331
G1 X62.292 Y65.473 E43.57553
G1 X62.572 Y64.865 E43.59779
G1 X62.923 Y64.295 E43.62006
G1 X63.339 Y63.771 E43.64231
G1 X63.814 Y63.301 E43.66454
G0 F3600 X63.732 Y63.935
G1 F1800 X64.203 Y63.495 E43.68597
G1 X64.726 Y63.117 E43.70744
G1 X65.29 Y62.806 E43.72886
G1 X65.889 Y62.568 E43.7503
G1 X66.513 Y62.405 E43.77175
G1 X67.363 Y62.311 E43.80019
G1 X67.684 Y62.302 E43.81087
G1 X67.83 Y62.3 E43.81573
G1 X166.793 Y62.3 E47.10725
G1 X166.867 Y62.301 E47.10971
G1 X167.565 Y62.311 E47.13293
G1 X168.208 Y62.36 E47.15438
G1 X168.84 Y62.488 E47.17583
G1 X169.451 Y62.694 E47.19727
G1 X170.032 Y62.973 E47.21871
G1 X170.574 Y63.322 E47.24015
G1 X171.068 Y63.736 E47.26159
G1 X171.508 Y64.208 E47.28305
G1 X171.886 Y64.73 E47.30448
G1 X172.196 Y65.295 E47.32592
G1 X172.434 Y65.894 E47.34736
G1 X172.596 Y66.518 E47.3688
G1 X172.689 Y67.364 E47.39711
G1 X172.698 Y67.684 E47.40775
G1 X172.7 Y67.83 E47.41261
G1 X172.7 Y166.828 E50.7053
G1 X172.691 Y167.555 E50.72948
G1 X172.643 Y168.198 E50.75093
G1 X172.516 Y168.83 E50.77237
G1 X172.311 Y169.442 E50.79383
G1 X172.033 Y170.023 E50.81526
G1 X171.685 Y170.566 E50.83671
G1 X171.272 Y171.061 E50.85815
G1 X170.801 Y171.501 E50.87959
G1 X170.279 Y171.88 E50.90104
G1 X169.715 Y172.191 E50.92246
G1 X169.116 Y172.43 E50.94391
G1 X168.493 Y172.594 E50.96534
G1 X167.637 Y172.689 E50.99399
G1 X167.316 Y172.698 E51.00467
G1 X167.17 Y172.7 E51.00952
G1 X68.14 Y172.7 E54.30327
G1 X67.442 Y172.691 E54.32649
G1 X66.799 Y172.642 E54.34794
G1 X66.167 Y172.515 E54.36938
G1 X65.556 Y172.31 E54.39082
G1 X64.975 Y172.032 E54.41224
G1 X64.432 Y171.683 E54.43371
G1 X63.937 Y171.27 E54.45515
G1 X63.497 Y170.799 E54.47659
G1 X63.118 Y170.277 E54.49804
G1 X62.807 Y169.713 E54.51946
G1 X62.569 Y169.114 E54.5409
G1 X62.406 Y168.49 E54.56235
G1 X62.311 Y167.631 E54.5911
G1 X62.302 Y167.298 E54.60218
G1 X62.3 Y167.158 E54.60683
G1 X62.3 Y68.104 E57.90138
G1 X62.309 Y67.439 E57.9235
G1 X62.358 Y66.796 E57.94495
G1 X62.486 Y66.164 E57.9664
G1 X62.691 Y65.553 E57.98783
G1 X62.97 Y64.972 E58.00927
G1 X63.319 Y64.429 E58.03074
G1 X63.732 Y63.935 E58.05215
G1 F2400 E53.05215
;MESH:calibration.stl
G0 F3600 X66.835 Y68.114
G0 X68.114 Y68.114
G0 X98.081 Y95.499
G0 X98.086 Y95.4
;TYPE:WALL-INNER
G1 F2400 E58.05215
G1 F1800 X99.447 Y94.297 E58.11042
G1 X100.438 Y93.559 E58.15152
G1 X101.54 Y92.809 E58.19585
G1 X102.589 Y92.162 E58.23685
G1 X103.631 Y91.578 E58.27657
G1 X104.746 Y91.013 E58.31815
G1 X105.883 Y90.495 E58.35971
G1 X107.045 Y90.023 E58.40142
G1 X108.221 Y89.604 E58.44294
G1 X109.408 Y89.238 E58.48426
G1 X110.62 Y88.919 E58.52594
G1 X111.848 Y88.65 E58.56775
G1 X113.071 Y88.438 E58.60904
G1 X114.321 Y88.275 E58.65096
G1 X115.549 Y88.166 E58.69197
G1 X116.824 Y88.111 E58.73441
G1 X118.051 Y88.107 E58.77522
G1 X119.314 Y88.157 E58.81727
G1 X120.567 Y88.262 E58.85909
G1 X121.804 Y88.417 E58.90055
G1 X123.021 Y88.623 E58.9416
G1 X124.264 Y88.89 E58.98389
G1 X125.462 Y89.2 E59.02505
G1 X126.667 Y89.566 E59.06693
G1 X127.842 Y89.98 E59.10837
G1 X128.998 Y90.443 E59.14979
G1 X130.146 Y90.961 E59.19168
G1 X131.264 Y91.522 E59.23328
G1 X132.348 Y92.127 E59.27457
G1 X133.415 Y92.782 E59.31621
G1 X134.444 Y93.475 E59.35747
G1 X135.464 Y94.229 E59.39966
G1 X136.915 Y95.399 E59.46166
G1 X159.672 Y72.641 E60.5321
G1 X159.366 Y71.9 E60.55877
G1 X75.634 Y71.9 E63.3437
G1 X75.328 Y72.641 E63.37037
G1 X98.086 Y95.4 E64.44086
G0 F3600 X98.081 Y95.499
G0 X92.899 Y110.277
G0 X92.324 Y112.648
G0 X91.829 Y116.277
G0 X91.928 Y116.281
G1 F1800 X91.9 Y117.5 E64.48141
G1 X91.928 Y118.719 E64.52197
G1 X92.016 Y119.933 E64.56245
G1 X92.16 Y121.144 E64.60301
G1 X92.363 Y122.345 E64.64352
G1 X92.622 Y123.535 E64.68403
G1 X92.937 Y124.712 E64.72456
G1 X93.308 Y125.873 E64.76509
G1 X93.734 Y127.015 E64.80563
G1 X94.213 Y128.134 E64.84612
G1 X94.745 Y129.231 E64.88667
G1 X95.33 Y130.3 E64.9272
G1 X95.964 Y131.34 E64.96771
G1 X96.647 Y132.349 E65.00824
G1 X97.377 Y133.325 E65.04877
G1 X98.153 Y134.265 E65.08932
G1 X98.972 Y135.166 E65.12981
G1 X99.834 Y136.028 E65.17036
G1 X100.735 Y136.847 E65.21086
G1 X101.675 Y137.623 E65.2514
G1 X102.651 Y138.353 E65.29194
G1 X103.66 Y139.036 E65.33246
G1 X104.7 Y139.67 E65.37297
G1 X105.769 Y140.255 E65.4135
G1 X106.866 Y140.787 E65.45405
G1 X107.985 Y141.266 E65.49454
G1 X109.127 Y141.692 E65.53508
G1 X110.288 Y142.063 E65.57562
G1 X111.465 Y142.378 E65.61614
G1 X112.655 Y142.637 E65.65665
G1 X113.856 Y142.84 E65.69716
G1 X115.067 Y142.984 E65.73772
G1 X116.281 Y143.072 E65.7782
G1 X117.5 Y143.1 E65.81876
G1 X118.719 Y143.072 E65.85931
G1 X119.933 Y142.984 E65.8998
G1 X121.144 Y142.84 E65.94036
G1 X122.345 Y142.637 E65.98087
G1 X123.535 Y142.378 E66.02138
G1 X124.712 Y142.063 E66.0619
G1 X125.873 Y141.692 E66.10244
G1 X127.015 Y141.266 E66.14298
G1 X128.134 Y140.787 E66.18347
G1 X129.231 Y140.255 E66.22402
G1 X130.3 Y139.67 E66.26455
G1 X131.34 Y139.036 E66.30506
G1 X132.349 Y138.353 E66.34558
G1 X133.325 Y137.623 E66.38612
G1 X134.265 Y136.847 E66.42666
G1 X135.166 Y136.028 E66.46716
G1 X136.028 Y135.166 E66.50771
G1 X136.847 Y134.265 E66.5482
G1 X137.623 Y133.325 E66.58875
G1 X138.353 Y132.349 E66.62928
G1 X139.036 Y131.34 E66.66981
G1 X139.67 Y130.3 E66.71032
G1 X140.255 Y129.231 E66.75085
G1 X140.787 Y128.134 E66.7914
G1 X141.266 Y127.015 E66.83189
G1 X141.692 Y125.873 E66.87243
G1 X142.063 Y124.712 E66.91296
G1 X142.378 Y123.535 E66.95349
G1 X142.637 Y122.345 E66.994
G1 X142.84 Y121.144 E67.03451
G1 X142.984 Y119.933 E67.07507
G1 X143.072 Y118.719 E67.11555
G1 X143.1 Y117.5 E67.15611
G1 X143.072 Y116.281 E67.19666
G1 X142.984 Y115.067 E67.23715
G1 X142.84 Y113.856 E67.27771
G1 X142.637 Y112.655 E67.31822
G1 X142.378 Y111.465 E67.35873
G1 X142.063 Y110.288 E67.39925
G1 X141.692 Y109.127 E67.43979
G1 X141.266 Y107.985 E67.48033
G1 X140.787 Y106.866 E67.52081
G1 X140.255 Y105.769 E67.56136
G1 X139.67 Y104.7 E67.6019
G1 X139.036 Y103.66 E67.64241
G1 X138.353 Y102.651 E67.68293
G1 X137.623 Y101.675 E67.72347
G1 X136.847 Y100.735 E67.76401
G1 X136.028 Y99.834 E67.80451
G1 X135.166 Y98.972 E67.84505
G1 X134.265 Y98.153 E67.88555
G1 X133.325 Y97.377 E67.92609
G1 X132.349 Y96.647 E67.96663
G1 X131.34 Y95.964 E68.00716
G1 X130.3 Y95.33 E68.04767
G1 X129.231 Y94.745 E68.0882
G1 X128.134 Y94.213 E68.12875
G1 X127.015 Y93.734 E68.16923
G1 X125.873 Y93.308 E68.20977
G1 X124.712 Y92.937 E68.25031
G1 X123.535 Y92.622 E68.29084
G1 X122.345 Y92.363 E68.33134
G1 X121.144 Y92.16 E68.37185
G1 X119.933 Y92.016 E68.41242
G1 X118.719 Y91.928 E68.4529
G1 X117.5 Y91.9 E68.49346
G1 X116.281 Y91.928 E68.53401
G1 X115.067 Y92.016 E68.57449
G1 X113.856 Y92.16 E68.61506
G1 X112.655 Y92.363 E68.65557
G1 X111.465 Y92.622 E68.69607
G1 X110.288 Y92.937 E68.7366
G1 X109.127 Y93.308 E68.77714
G1 X107.985 Y93.734 E68.81768
G1 X106.866 Y94.213 E68.85816
G1 X105.769 Y94.745 E68.89871
G1 X104.7 Y95.33 E68.93924
G1 X103.66 Y95.964 E68.97975
G1 X102.651 Y96.647 E69.02028
G1 X101.675 Y97.377 E69.06082
G1 X100.735 Y98.153 E69.10136
G1 X99.834 Y98.972 E69.14186
G1 X98.972 Y99.834 E69.1824
G1 X98.153 Y100.735 E69.2229
G1 X97.377 Y101.675 E69.26344
G1 X96.647 Y102.651 E69.30398
G1 X95.964 Y103.66 E69.3445
G1 X95.33 Y104.7 E69.38502
G1 X94.745 Y105.769 E69.42555
G1 X94.213 Y106.866 E69.4661
G1 X93.734 Y107.985 E69.50658
G1 X93.308 Y109.127 E69.54712
G1 X92.937 Y110.288 E69.58766
G1 X92.622 Y111.465 E69.62818
G1 X92.363 Y112.655 E69.66869
G1 X92.16 Y113.856 E69.7092
G1 X92.016 Y115.067 E69.74976
G1 X91.928 Y116.281 E69.79025
G0 F3600 X91.829 Y116.277
G0 X91.889 Y118.72
G0 X92.121 Y121.149
G0 X92.382 Y122.506
G0 X95.499 Y136.919
G0 X95.4 Y136.914
G1 F1800 X94.297 Y135.553 E69.84851
G1 X93.554 Y134.555 E69.8899
G1 X92.846 Y133.514 E69.93177
G1 X92.187 Y132.451 E69.97337
G1 X91.582 Y131.377 E70.01437
G1 X91.013 Y130.254 E70.05624
G1 X90.495 Y129.117 E70.0978
G1 X90.021 Y127.949 E70.13972
G1 X89.604 Y126.779 E70.18103
G1 X89.234 Y125.578 E70.22283
G1 X88.915 Y124.366 E70.26451
G1 X88.648 Y123.143 E70.30615
G1 X88.438 Y121.929 E70.34713
G1 X88.274 Y120.671 E70.38932
G1 X88.166 Y119.451 E70.43006
G1 X88.111 Y118.176 E70.4725
G1 X88.107 Y116.951 E70.51325
G1 X88.156 Y115.693 E70.55512
G1 X88.261 Y114.438 E70.59701
G1 X88.417 Y113.196 E70.63864
G1 X88.622 Y111.982 E70.67959
G1 X88.889 Y110.741 E70.72181
G1 X89.2 Y109.538 E70.76314
G1 X89.566 Y108.333 E70.80503
G1 X89.975 Y107.17 E70.84603
G1 X90.443 Y106.002 E70.88788
G1 X90.961 Y104.854 E70.92977
G1 X91.522 Y103.736 E70.97137
G1 X92.127 Y102.652 E71.01266
G1 X92.777 Y101.592 E71.05402
G1 X93.475 Y100.556 E71.09557
G1 X94.229 Y99.536 E71.13776
G1 X95.399 Y98.085 E71.19975
G1 X72.641 Y75.328 E72.27019
G1 X71.9 Y75.634 E72.29686
G1 X71.9 Y159.366 E75.0818
G1 X72.641 Y159.672 E75.10846
G1 X95.4 Y136.914 E76.17895
G0 F3600 X95.499 Y136.919
G0 X68.17 Y166.83
G0 X68.1 Y166.9
G1 F1800 X68.1 Y68.1 E79.46505
G1 X166.9 Y68.1 E82.75115
G1 X166.9 Y166.9 E86.03726
G1 X68.1 Y166.9 E89.32336
G0 F3600 X68.17 Y166.83
G0 X98.083 Y139.562
G0 X114.533 Y145.476
