;FLAVOR:Marlin
;TIME:3652
;Filament used: 0.883822m
;Layer height: 0.12
;MINX:84.522
;MINY:97.252
;MINZ:0.12
;MAXX:122.75
;MAXY:147.478
;MAXZ:22.68
;Generated with Cura_SteamEngine 4.2.1
M140 S60
M105
M190 S60
M104 S200
M105
M109 S200
M82 ;absolute extrusion mode
M201 X500.00 Y500.00 Z100.00 E5000.00 ;Setup machine max acceleration
M203 X500.00 Y500.00 Z10.00 E50.00 ;Setup machine max feedrate
M204 P500.00 R1000.00 T500.00 ;Setup Print/Retract/Travel acceleration
M205 X8.00 Y8.00 Z0.40 E5.00 ;Setup Jerk
M220 S100 ;Reset Feedrate
M221 S100 ;Reset Flowrate

G28 ;Home

G92 E0 ;Reset Extruder
G1 Z2.0 F3000 ;Move Z Axis up
G1 X10.1 Y20 Z0.28 F5000.0 ;Move to start position
G1 X10.1 Y200.0 Z0.28 F1500.0 E15 ;Draw the first line
G1 X10.4 Y200.0 Z0.28 F5000.0 ;Move to side a little
G1 X10.4 Y20 Z0.28 F1500.0 E30 ;Draw the second line
G92 E0 ;Reset Extruder
G1 Z2.0 F3000 ;Move Z Axis up

G92 E0
G92 E0
G1 F3600 E-7
;LAYER_COUNT:189
;LAYER:0
M107
G0 F6000 X101.035 Y100.934 Z0.12
;TYPE:SKIRT
G1 F3600 E0
G1 F1200 X101.408 Y100.579 E0.0113
G1 X101.75 Y100.278 E0.0213
G1 X102.143 Y99.958 E0.03243
G1 X102.525 Y99.671 E0.04292
G1 X102.924 Y99.394 E0.05358
G1 X103.314 Y99.144 E0.06375
G1 X103.722 Y98.903 E0.07415
G1 X104.129 Y98.682 E0.08432
G1 X104.561 Y98.467 E0.09491
G1 X104.969 Y98.283 E0.10474
G1 X105.451 Y98.089 E0.11614
G1 X105.914 Y97.923 E0.12694
G1 X106.388 Y97.773 E0.13785
G1 X106.861 Y97.643 E0.14862
G1 X107.37 Y97.525 E0.16009
G1 X107.858 Y97.432 E0.171
G1 X108.34 Y97.358 E0.1817
G1 X108.778 Y97.308 E0.19138
G1 X109.28 Y97.27 E0.20243
G1 X109.771 Y97.252 E0.21321
G1 X110.264 Y97.253 E0.22404
G1 X110.754 Y97.272 E0.2348
G1 X111.262 Y97.311 E0.24599
G1 X111.706 Y97.363 E0.2558
G1 X112.192 Y97.439 E0.2666
G1 X112.676 Y97.533 E0.27742
G1 X113.153 Y97.644 E0.28817
G1 X113.541 Y97.75 E0.297
G1 X113.914 Y97.864 E0.30556
G1 X114.236 Y97.973 E0.31302
G1 X114.425 Y98.041 E0.31743
G1 X114.618 Y98.113 E0.32196
G1 X114.919 Y98.233 E0.32907
G1 X115.128 Y98.323 E0.33406
G1 X115.319 Y98.409 E0.33866
G1 X115.53 Y98.508 E0.34378
G1 X115.866 Y98.678 E0.35204
G1 X116.276 Y98.9 E0.36228
G1 X116.679 Y99.137 E0.37254
G1 X117.013 Y99.35 E0.38124
G1 X117.398 Y99.616 E0.39151
G1 X117.78 Y99.9 E0.40196
G1 X117.995 Y100.066 E0.40792
G1 X118.174 Y100.211 E0.41298
G1 X118.454 Y100.452 E0.42109
G1 X118.683 Y100.66 E0.42788
G1 X118.88 Y100.847 E0.43384
G1 X119.035 Y101 E0.43862
G1 X119.35 Y101.333 E0.44869
G1 X119.754 Y101.792 E0.46211
G1 X120.055 Y102.16 E0.47254
G1 X120.272 Y102.446 E0.48043
G1 X120.458 Y102.703 E0.48739
G1 X120.608 Y102.922 E0.49322
G1 X120.812 Y103.24 E0.50151
G1 X121.005 Y103.56 E0.50971
G1 X121.157 Y103.825 E0.51642
G1 X121.295 Y104.08 E0.52278
G1 X121.44 Y104.365 E0.5298
G1 X121.534 Y104.561 E0.53458
G1 X121.62 Y104.747 E0.53907
G1 X121.722 Y104.978 E0.54462
G1 X121.825 Y105.226 E0.55051
G1 X121.921 Y105.47 E0.55627
G1 X122.058 Y105.852 E0.56518
G1 X122.199 Y106.288 E0.57524
G1 X122.315 Y106.69 E0.58442
G1 X122.393 Y106.997 E0.59137
G1 X122.475 Y107.363 E0.59961
G1 X122.556 Y107.781 E0.60895
G1 X122.64 Y108.353 E0.62164
G1 X122.712 Y109.05 E0.63703
G1 X122.747 Y109.666 E0.65057
G1 X122.75 Y110.017 E0.65828
G1 X122.746 Y110.287 E0.6642
G1 X122.735 Y110.623 E0.67158
G1 X122.707 Y111.053 E0.68104
G1 X122.669 Y111.437 E0.68951
G1 X122.617 Y111.84 E0.69843
G1 X122.55 Y112.253 E0.70762
G1 X122.455 Y112.726 E0.71821
G1 X122.341 Y113.203 E0.72897
G1 X122.201 Y113.701 E0.74033
G1 X122.045 Y114.182 E0.75143
G1 X121.845 Y114.716 E0.76395
G1 X121.391 Y115.787 E0.78948
G1 X121.343 Y115.899 E0.79216
G1 X120.849 Y117.007 E0.81879
G1 X119.824 Y119.489 E0.87773
G1 X118.894 Y121.938 E0.93524
G1 X118.032 Y124.416 E0.99283
G1 X117.224 Y126.967 E1.05157
G1 X116.5 Y129.504 E1.10949
G1 X115.849 Y132.052 E1.16722
G1 X115.264 Y134.642 E1.22551
G1 X115.242 Y134.756 E1.22805
G1 X115.196 Y134.976 E1.23299
G1 X115.097 Y135.411 E1.24278
G1 X115.055 Y135.583 E1.24667
G1 X114.921 Y136.106 E1.25852
G1 X114.821 Y136.456 E1.26651
G1 X114.671 Y136.93 E1.27742
G1 X114.538 Y137.311 E1.28628
G1 X114.347 Y137.806 E1.29793
G1 X114.196 Y138.164 E1.30646
G1 X113.964 Y138.673 E1.31874
G1 X113.779 Y139.048 E1.32792
G1 X113.499 Y139.571 E1.34094
G1 X113.319 Y139.885 E1.34888
G1 X113.112 Y140.225 E1.35762
G1 X112.885 Y140.573 E1.36674
G1 X112.489 Y141.139 E1.38191
G1 X112.233 Y141.481 E1.39128
G1 X111.934 Y141.854 E1.40178
G1 X111.716 Y142.111 E1.40918
G1 X111.368 Y142.502 E1.42067
G1 X111.084 Y142.801 E1.42972
G1 X110.679 Y143.202 E1.44223
G1 X110.371 Y143.489 E1.45147
G1 X109.955 Y143.851 E1.46358
G1 X109.653 Y144.098 E1.47214
G1 X109.257 Y144.403 E1.48311
G1 X108.937 Y144.634 E1.49178
G1 X108.477 Y144.946 E1.50398
G1 X108.199 Y145.125 E1.51124
G1 X107.792 Y145.372 E1.52169
G1 X107.404 Y145.59 E1.53146
G1 X106.824 Y145.89 E1.54579
G1 X106.459 Y146.064 E1.55467
G1 X106.033 Y146.252 E1.56489
G1 X105.684 Y146.395 E1.57317
G1 X105.16 Y146.591 E1.58545
G1 X104.77 Y146.723 E1.59449
G1 X104.24 Y146.884 E1.60665
G1 X103.834 Y146.993 E1.61587
G1 X103.276 Y147.124 E1.62846
G1 X102.984 Y147.185 E1.63501
G1 X102.594 Y147.258 E1.64372
G1 X102.159 Y147.325 E1.65338
G1 X101.499 Y147.403 E1.66797
G1 X101.047 Y147.44 E1.67792
G1 X100.489 Y147.467 E1.69018
G1 X100.301 Y147.474 E1.69431
G1 X100.097 Y147.478 E1.69879
G1 X99.83 Y147.478 E1.70465
G1 X99.594 Y147.473 E1.70984
G1 X99.276 Y147.458 E1.71682
G1 X98.562 Y147.408 E1.73254
G1 X98.162 Y147.368 E1.74136
G1 X97.746 Y147.313 E1.75057
G1 X97.407 Y147.259 E1.75811
G1 X96.923 Y147.169 E1.76891
G1 X96.508 Y147.077 E1.77825
G1 X95.906 Y146.924 E1.79188
G1 X95.541 Y146.82 E1.80021
G1 X95.055 Y146.666 E1.8114
G1 X94.676 Y146.533 E1.82022
G1 X94.189 Y146.345 E1.83168
G1 X93.824 Y146.191 E1.84038
G1 X93.319 Y145.96 E1.85257
G1 X92.944 Y145.774 E1.86176
G1 X92.419 Y145.492 E1.87484
G1 X92.119 Y145.321 E1.88242
G1 X91.77 Y145.109 E1.89138
G1 X91.416 Y144.878 E1.90066
G1 X90.86 Y144.489 E1.91556
G1 X90.512 Y144.228 E1.9251
G1 X90.14 Y143.929 E1.93558
G1 X89.889 Y143.716 E1.94281
G1 X89.498 Y143.368 E1.9543
G1 X89.199 Y143.084 E1.96335
G1 X88.798 Y142.679 E1.97586
G1 X88.511 Y142.371 E1.9851
G1 X88.149 Y141.955 E1.99721
G1 X87.904 Y141.656 E2.00569
G1 X87.594 Y141.254 E2.01684
G1 X87.353 Y140.921 E2.02586
G1 X87.045 Y140.465 E2.03794
G1 X86.875 Y140.199 E2.04487
G1 X86.629 Y139.794 E2.05527
G1 X86.41 Y139.404 E2.06509
G1 X86.11 Y138.824 E2.07943
G1 X85.936 Y138.459 E2.0883
G1 X85.748 Y138.033 E2.09852
G1 X85.605 Y137.684 E2.1068
G1 X85.409 Y137.16 E2.11908
G1 X85.277 Y136.77 E2.12812
G1 X85.116 Y136.24 E2.14028
G1 X85.007 Y135.834 E2.14951
G1 X84.876 Y135.276 E2.16209
G1 X84.813 Y134.976 E2.16882
G1 X84.739 Y134.578 E2.17771
G1 X84.674 Y134.15 E2.18721
G1 X84.597 Y133.498 E2.20162
G1 X84.56 Y133.047 E2.21156
G1 X84.533 Y132.489 E2.22382
G1 X84.526 Y132.302 E2.22793
G1 X84.522 Y132.099 E2.23238
G1 X84.522 Y131.832 E2.23824
G1 X84.527 Y131.595 E2.24345
G1 X84.542 Y131.276 E2.25046
G1 X84.592 Y130.562 E2.26617
G1 X84.632 Y130.162 E2.275
G1 X84.687 Y129.746 E2.28421
G1 X84.741 Y129.407 E2.29174
G1 X84.831 Y128.923 E2.30255
G1 X84.923 Y128.508 E2.31188
G1 X85.076 Y127.906 E2.32551
G1 X85.18 Y127.541 E2.33385
G1 X85.334 Y127.055 E2.34504
G1 X85.467 Y126.676 E2.35385
G1 X85.655 Y126.189 E2.36531
G1 X85.809 Y125.824 E2.37401
G1 X86.04 Y125.319 E2.3862
G1 X86.223 Y124.948 E2.39528
G1 X86.504 Y124.424 E2.40833
G1 X86.681 Y124.115 E2.41615
G1 X86.894 Y123.765 E2.42514
G1 X87.124 Y123.414 E2.43436
G1 X87.521 Y122.847 E2.44955
G1 X87.659 Y122.656 E2.45472
G1 X87.92 Y122.31 E2.46424
G1 X89.505 Y120.146 E2.52312
G1 X90.991 Y117.993 E2.58055
G1 X92.447 Y115.75 E2.63925
G1 X93.812 Y113.509 E2.69685
G1 X95.134 Y111.195 E2.75535
G1 X96.368 Y108.887 E2.8128
G1 X97.571 Y106.472 E2.87203
G1 X98.132 Y105.283 E2.90089
G1 X98.476 Y104.539 E2.91888
G1 X98.609 Y104.269 E2.92549
G1 X98.755 Y103.988 E2.93244
G1 X98.958 Y103.625 E2.94157
G1 X99.221 Y103.189 E2.95275
G1 X99.514 Y102.745 E2.96442
G1 X99.774 Y102.384 E2.97419
G1 X100.05 Y102.028 E2.98408
G1 X100.339 Y101.68 E2.99401
G1 X100.676 Y101.304 E3.00509
G1 X101.035 Y100.934 E3.01641
G0 F6000 X101.351 Y101.24
G1 F1200 X101.699 Y100.909 E3.02695
G1 X102.041 Y100.608 E3.03695
G1 X102.407 Y100.31 E3.04731
G1 X102.789 Y100.023 E3.0578
G1 X103.161 Y99.765 E3.06774
G1 X103.551 Y99.515 E3.07791
G1 X103.932 Y99.289 E3.08763
G1 X104.339 Y99.068 E3.0978
G1 X104.742 Y98.868 E3.10768
G1 X105.15 Y98.684 E3.1175
G1 X105.599 Y98.503 E3.12813
G1 X106.062 Y98.337 E3.13893
G1 X106.504 Y98.197 E3.1491
G1 X106.977 Y98.067 E3.15987
G1 X107.452 Y97.957 E3.17057
G1 X107.94 Y97.864 E3.18148
G1 X108.39 Y97.795 E3.19147
G1 X108.828 Y97.745 E3.20115
G1 X109.297 Y97.71 E3.21147
G1 X109.788 Y97.692 E3.22226
G1 X110.247 Y97.693 E3.23234
G1 X110.737 Y97.712 E3.2431
G1 X111.211 Y97.748 E3.25354
G1 X111.655 Y97.8 E3.26335
G1 X112.108 Y97.871 E3.27341
G1 X112.592 Y97.965 E3.28424
G1 X113.037 Y98.069 E3.29427
G1 X113.425 Y98.175 E3.3031
G1 X113.773 Y98.281 E3.31108
G1 X114.095 Y98.39 E3.31855
G1 X114.271 Y98.453 E3.32265
G1 X114.464 Y98.525 E3.32717
G1 X114.745 Y98.637 E3.33381
G1 X114.954 Y98.727 E3.33881
G1 X115.132 Y98.808 E3.3431
G1 X115.343 Y98.907 E3.34822
G1 X115.656 Y99.065 E3.35591
G1 X116.066 Y99.287 E3.36615
G1 X116.442 Y99.508 E3.37572
G1 X116.776 Y99.721 E3.38442
G1 X117.135 Y99.969 E3.394
G1 X117.517 Y100.253 E3.40445
G1 X117.718 Y100.408 E3.41002
G1 X117.897 Y100.553 E3.41507
G1 X118.158 Y100.778 E3.42264
G1 X118.387 Y100.986 E3.42943
G1 X118.571 Y101.16 E3.43499
G1 X118.726 Y101.313 E3.43977
G1 X119.02 Y101.624 E3.44916
G1 X119.424 Y102.083 E3.46259
G1 X119.705 Y102.426 E3.47232
G1 X119.922 Y102.712 E3.4802
G1 X120.095 Y102.952 E3.4867
G1 X120.245 Y103.171 E3.49252
G1 X120.435 Y103.468 E3.50026
G1 X120.628 Y103.788 E3.50847
G1 X120.77 Y104.035 E3.51472
G1 X120.908 Y104.29 E3.52109
G1 X121.043 Y104.555 E3.52761
G1 X121.137 Y104.751 E3.53239
G1 X121.217 Y104.925 E3.53659
G1 X121.319 Y105.156 E3.54213
G1 X121.415 Y105.387 E3.54762
G1 X121.511 Y105.631 E3.55338
G1 X121.639 Y105.987 E3.56168
G1 X121.78 Y106.423 E3.57174
G1 X121.888 Y106.798 E3.58031
G1 X121.966 Y107.105 E3.58726
G1 X122.043 Y107.447 E3.59496
G1 X122.124 Y107.865 E3.6043
G1 X122.203 Y108.398 E3.61613
G1 X122.275 Y109.095 E3.63151
G1 X122.307 Y109.67 E3.64416
G1 X122.31 Y110.021 E3.65186
G1 X122.307 Y110.273 E3.65739
G1 X122.296 Y110.609 E3.66477
G1 X122.269 Y111.01 E3.6736
G1 X122.231 Y111.394 E3.68207
G1 X122.182 Y111.77 E3.69039
G1 X122.115 Y112.183 E3.69958
G1 X122.027 Y112.624 E3.70945
G1 X121.913 Y113.101 E3.72021
G1 X121.782 Y113.565 E3.7308
G1 X121.626 Y114.046 E3.7419
G1 X121.44 Y114.545 E3.75359
G1 X120.986 Y115.616 E3.77912
G1 X120.941 Y115.72 E3.78161
G1 X120.446 Y116.829 E3.80827
G1 X119.42 Y119.316 E3.86733
G1 X118.477 Y121.796 E3.92557
G1 X117.61 Y124.289 E3.98351
G1 X116.811 Y126.811 E4.04158
G1 X116.075 Y129.391 E4.10048
G1 X115.421 Y131.953 E4.15852
G1 X114.833 Y134.555 E4.21708
G1 X114.81 Y134.673 E4.21972
G1 X114.767 Y134.879 E4.22434
G1 X114.668 Y135.314 E4.23413
G1 X114.629 Y135.474 E4.23775
G1 X114.495 Y135.997 E4.2496
G1 X114.402 Y136.323 E4.25704
G1 X114.252 Y136.797 E4.26795
G1 X114.127 Y137.153 E4.27624
G1 X113.936 Y137.648 E4.28788
G1 X113.796 Y137.982 E4.29583
G1 X113.564 Y138.491 E4.30811
G1 X113.391 Y138.84 E4.31666
G1 X113.111 Y139.363 E4.32969
G1 X112.943 Y139.656 E4.3371
G1 X112.736 Y139.996 E4.34584
G1 X112.524 Y140.321 E4.35436
G1 X112.128 Y140.887 E4.36952
G1 X111.89 Y141.205 E4.37824
G1 X111.591 Y141.578 E4.38873
G1 X111.388 Y141.819 E4.39565
G1 X111.04 Y142.21 E4.40714
G1 X110.775 Y142.489 E4.41559
G1 X110.37 Y142.89 E4.4281
G1 X110.082 Y143.157 E4.43672
G1 X109.666 Y143.519 E4.44882
G1 X109.384 Y143.75 E4.45683
G1 X108.988 Y144.055 E4.4678
G1 X108.69 Y144.27 E4.47587
G1 X108.23 Y144.582 E4.48807
G1 X107.971 Y144.749 E4.49483
G1 X107.564 Y144.996 E4.50528
G1 X107.201 Y145.199 E4.51441
G1 X106.621 Y145.499 E4.52875
G1 X106.282 Y145.662 E4.537
G1 X105.856 Y145.85 E4.54723
G1 X105.53 Y145.982 E4.55495
G1 X105.006 Y146.178 E4.56723
G1 X104.642 Y146.302 E4.57567
G1 X104.112 Y146.463 E4.58783
G1 X103.733 Y146.565 E4.59644
G1 X103.175 Y146.696 E4.60903
G1 X102.903 Y146.753 E4.61513
G1 X102.513 Y146.826 E4.62384
G1 X102.107 Y146.888 E4.63285
G1 X101.447 Y146.966 E4.64744
G1 X101.026 Y147.001 E4.65671
G1 X100.468 Y147.028 E4.66898
G1 X100.293 Y147.034 E4.67282
G1 X100.089 Y147.038 E4.6773
G1 X99.84 Y147.038 E4.68277
G1 X99.604 Y147.033 E4.68795
G1 X99.307 Y147.019 E4.69448
G1 X98.593 Y146.969 E4.71019
G1 X98.219 Y146.931 E4.71844
G1 X97.803 Y146.876 E4.72765
G1 X97.488 Y146.826 E4.73465
G1 X97.004 Y146.736 E4.74546
G1 X96.616 Y146.651 E4.75418
G1 X96.014 Y146.498 E4.76781
G1 X95.674 Y146.401 E4.77557
G1 X95.188 Y146.247 E4.78677
G1 X94.834 Y146.123 E4.795
G1 X94.347 Y145.935 E4.80646
G1 X94.007 Y145.791 E4.81456
G1 X93.502 Y145.56 E4.82675
G1 X93.152 Y145.387 E4.83533
G1 X92.627 Y145.105 E4.84841
G1 X92.347 Y144.944 E4.8555
G1 X91.998 Y144.732 E4.86446
G1 X91.668 Y144.517 E4.87311
G1 X91.112 Y144.128 E4.888
G1 X90.787 Y143.885 E4.89691
G1 X90.415 Y143.586 E4.90739
G1 X90.181 Y143.388 E4.91412
G1 X89.79 Y143.04 E4.92561
G1 X89.511 Y142.775 E4.93405
G1 X89.11 Y142.37 E4.94656
G1 X88.843 Y142.082 E4.95519
G1 X88.481 Y141.666 E4.96729
G1 X88.252 Y141.387 E4.97521
G1 X87.942 Y140.985 E4.98636
G1 X87.718 Y140.674 E4.99477
G1 X87.41 Y140.218 E5.00685
G1 X87.251 Y139.971 E5.0133
G1 X87.005 Y139.566 E5.0237
G1 X86.801 Y139.201 E5.03288
G1 X86.501 Y138.621 E5.04721
G1 X86.338 Y138.282 E5.05547
G1 X86.15 Y137.856 E5.06569
G1 X86.018 Y137.53 E5.07341
G1 X85.822 Y137.006 E5.08569
G1 X85.698 Y136.642 E5.09414
G1 X85.537 Y136.112 E5.1063
G1 X85.435 Y135.733 E5.11491
G1 X85.304 Y135.175 E5.12749
G1 X85.246 Y134.896 E5.13375
G1 X85.172 Y134.498 E5.14264
G1 X85.111 Y134.098 E5.15152
G1 X85.034 Y133.446 E5.16593
G1 X84.999 Y133.026 E5.17518
G1 X84.972 Y132.468 E5.18744
G1 X84.966 Y132.293 E5.19129
G1 X84.962 Y132.09 E5.19575
G1 X84.962 Y131.841 E5.20121
G1 X84.967 Y131.604 E5.20642
G1 X84.981 Y131.307 E5.21294
G1 X85.031 Y130.593 E5.22865
G1 X85.069 Y130.219 E5.23691
G1 X85.124 Y129.803 E5.24612
G1 X85.174 Y129.488 E5.25312
G1 X85.264 Y129.004 E5.26393
G1 X85.349 Y128.616 E5.27264
G1 X85.502 Y128.014 E5.28628
G1 X85.599 Y127.674 E5.29404
G1 X85.753 Y127.188 E5.30523
G1 X85.877 Y126.834 E5.31347
G1 X86.065 Y126.347 E5.32493
G1 X86.209 Y126.007 E5.33303
G1 X86.44 Y125.502 E5.34522
G1 X86.611 Y125.156 E5.35369
G1 X86.892 Y124.632 E5.36675
G1 X87.057 Y124.344 E5.37403
G1 X87.27 Y123.994 E5.38303
G1 X87.484 Y123.666 E5.39162
G1 X87.881 Y123.099 E5.40682
G1 X88.011 Y122.921 E5.41166
G1 X88.25 Y122.604 E5.42037
G1 X89.862 Y120.404 E5.48024
G1 X91.361 Y118.231 E5.53819
G1 X92.82 Y115.983 E5.59702
G1 X94.184 Y113.746 E5.65454
G1 X95.527 Y111.394 E5.71399
G1 X96.763 Y109.079 E5.7716
G1 X97.961 Y106.677 E5.83052
G1 X98.531 Y105.468 E5.85986
G1 X98.875 Y104.724 E5.87785
G1 X98.999 Y104.472 E5.88402
G1 X99.145 Y104.191 E5.89097
G1 X99.335 Y103.852 E5.8995
G1 X99.598 Y103.416 E5.91068
G1 X99.871 Y103.002 E5.92156
G1 X100.131 Y102.641 E5.93133
G1 X100.388 Y102.309 E5.94055
G1 X100.677 Y101.961 E5.95048
G1 X100.992 Y101.61 E5.96083
G1 X101.351 Y101.24 E5.97215
G0 F6000 X101.667 Y101.547
G1 F1200 X101.99 Y101.239 E5.98194
G1 X102.332 Y100.938 E5.99195
G1 X102.671 Y100.662 E6.00154
G1 X103.053 Y100.375 E6.01203
G1 X103.398 Y100.135 E6.02126
G1 X103.788 Y99.885 E6.03142
G1 X104.142 Y99.676 E6.04045
G1 X104.549 Y99.455 E6.05062
G1 X104.923 Y99.269 E6.05978
G1 X105.331 Y99.085 E6.06961
G1 X105.748 Y98.917 E6.07948
G1 X106.211 Y98.751 E6.09028
G1 X106.621 Y98.621 E6.09972
G1 X107.094 Y98.491 E6.11049
G1 X107.534 Y98.389 E6.1204
G1 X108.022 Y98.296 E6.13131
G1 X108.44 Y98.233 E6.14058
G1 X108.878 Y98.183 E6.15026
G1 X109.313 Y98.15 E6.15984
G1 X109.804 Y98.132 E6.17062
G1 X110.23 Y98.132 E6.17998
G1 X110.72 Y98.151 E6.19074
G1 X111.159 Y98.185 E6.20041
G1 X111.603 Y98.237 E6.21022
G1 X112.024 Y98.303 E6.21957
G1 X112.508 Y98.397 E6.2304
G1 X112.921 Y98.493 E6.2397
G1 X113.309 Y98.599 E6.24853
G1 X113.632 Y98.698 E6.25595
G1 X113.954 Y98.807 E6.26341
