;FLAVOR:Marlin
;TIME:1110
;Filament used: 0.302385m
;Layer height: 0.2
;MINX:98.268
;MINY:98.267
;MINZ:0.2
;MAXX:121.732
;MAXY:121.731
;MAXZ:20
;Generated with Cura_SteamEngine 4.2.1
M140 S55
M105
M190 S55
M104 S200
M105
M109 S200
M82 ;absolute extrusion mode
M201 X500.00 Y500.00 Z100.00 E5000.00 ;Setup machine max acceleration
M203 X500.00 Y500.00 Z10.00 E50.00 ;Setup machine max feedrate
M204 P500.00 R1000.00 T500.00 ;Setup Print/Retract/Travel acceleration
M205 X8.00 Y8.00 Z0.40 E5.00 ;Setup Jerk
M220 S100 ;Reset Feedrate
M221 S100 ;Reset Flowrate

G28 ;Home

G92 E0 ;Reset Extruder
G1 Z2.0 F3000 ;Move Z Axis up
G1 X10.1 Y20 Z0.28 F5000.0 ;Move to start position
G1 X10.1 Y200.0 Z0.28 F1500.0 E15 ;Draw the first line
G1 X10.4 Y200.0 Z0.28 F5000.0 ;Move to side a little
G1 X10.4 Y20 Z0.28 F1500.0 E30 ;Draw the second line
G92 E0 ;Reset Extruder
G1 Z2.0 F3000 ;Move Z Axis up

G92 E0
G92 E0
G1 F3600 E-7
;LAYER_COUNT:100
;LAYER:0
M107
G0 F6000 X101.64 Y101.761 Z0.2
;TYPE:SKIRT
G1 F3600 E0
G1 F1200 X101.871 Y101.533 E0.01187
G1 X102.378 Y101.073 E0.03692
G1 X102.6 Y100.888 E0.04749
G1 X103.257 Y100.394 E0.07757
G1 X103.577 Y100.178 E0.09169
G1 X104.233 Y99.779 E0.11978
G1 X104.541 Y99.611 E0.13262
G1 X105.176 Y99.299 E0.1585
G1 X105.448 Y99.18 E0.16937
G1 X106.18 Y98.901 E0.19803
G1 X106.501 Y98.796 E0.21038
G1 X107.138 Y98.616 E0.2346
G1 X107.418 Y98.549 E0.24513
G1 X108.173 Y98.406 E0.27325
G1 X108.541 Y98.354 E0.28685
G1 X109.379 Y98.28 E0.31762
G1 X109.73 Y98.267 E0.33048
G1 X110.487 Y98.274 E0.35817
G1 X110.826 Y98.293 E0.37059
G1 X111.56 Y98.367 E0.39758
G1 X111.878 Y98.414 E0.40935
G1 X112.652 Y98.567 E0.43821
G1 X113.014 Y98.657 E0.45186
G1 X113.743 Y98.875 E0.4797
G1 X114.034 Y98.977 E0.49098
G1 X114.641 Y99.218 E0.51487
G1 X114.88 Y99.324 E0.52444
G1 X115.48 Y99.62 E0.54892
G1 X115.764 Y99.775 E0.56075
G1 X116.4 Y100.161 E0.58797
G1 X116.701 Y100.363 E0.60123
G1 X117.333 Y100.833 E0.63005
G1 X117.58 Y101.036 E0.64175
G1 X118.2 Y101.601 E0.67244
G1 X118.467 Y101.871 E0.68633
G1 X119.002 Y102.469 E0.71569
G1 X119.216 Y102.733 E0.72812
G1 X119.614 Y103.266 E0.75246
G1 X119.778 Y103.506 E0.76309
G1 X120.152 Y104.109 E0.78905
G1 X120.31 Y104.39 E0.80085
G1 X120.661 Y105.092 E0.82956
G1 X120.812 Y105.434 E0.84324
G1 X121.088 Y106.148 E0.87124
G1 X121.18 Y106.424 E0.88189
G1 X121.383 Y107.14 E0.90912
G1 X121.47 Y107.511 E0.92306
G1 X121.621 Y108.347 E0.95414
G1 X121.663 Y108.679 E0.96638
G1 X121.719 Y109.346 E0.99087
G1 X121.732 Y109.644 E1.00178
G1 X121.732 Y110.371 E1.02838
G1 X121.717 Y110.699 E1.0404
G1 X121.655 Y111.392 E1.06585
G1 X121.617 Y111.68 E1.07648
G1 X121.487 Y112.407 E1.1035
G1 X121.406 Y112.766 E1.11696
G1 X121.208 Y113.487 E1.14432
G1 X121.109 Y113.792 E1.15605
G1 X120.789 Y114.623 E1.18863
G1 X120.625 Y114.987 E1.20324
G1 X120.292 Y115.643 E1.23015
G1 X120.147 Y115.9 E1.24095
G1 X119.713 Y116.587 E1.27068
G1 X119.482 Y116.915 E1.28536
G1 X119.062 Y117.461 E1.31056
G1 X118.9 Y117.654 E1.31978
G1 X118.473 Y118.124 E1.34301
G1 X118.255 Y118.346 E1.35439
G1 X117.672 Y118.884 E1.38342
G1 X117.414 Y119.1 E1.39573
G1 X116.743 Y119.606 E1.42647
G1 X116.423 Y119.822 E1.4406
G1 X115.767 Y120.221 E1.46869
G1 X115.459 Y120.389 E1.48153
G1 X114.824 Y120.701 E1.50741
G1 X114.552 Y120.82 E1.51827
G1 X113.737 Y121.125 E1.55011
G1 X113.366 Y121.242 E1.56434
G1 X112.777 Y121.404 E1.58669
G1 X112.517 Y121.465 E1.59646
G1 X111.79 Y121.601 E1.62352
G1 X111.491 Y121.643 E1.63457
G1 X110.713 Y121.714 E1.66315
G1 X110.323 Y121.731 E1.67743
G1 X109.602 Y121.731 E1.70381
G1 X109.314 Y121.718 E1.71436
G1 X108.524 Y121.643 E1.74339
G1 X108.155 Y121.59 E1.75703
G1 X107.348 Y121.433 E1.78711
G1 X106.986 Y121.343 E1.80076
G1 X106.257 Y121.125 E1.8286
G1 X105.966 Y121.023 E1.83988
G1 X105.325 Y120.767 E1.86513
G1 X105.051 Y120.644 E1.87612
G1 X104.364 Y120.295 E1.90431
G1 X104.056 Y120.12 E1.91727
G1 X103.491 Y119.768 E1.94163
G1 X103.249 Y119.603 E1.95234
G1 X102.664 Y119.164 E1.9791
G1 X102.416 Y118.96 E1.99085
G1 X101.799 Y118.398 E2.02138
G1 X101.532 Y118.128 E2.03528
G1 X101.04 Y117.583 E2.06214
G1 X100.852 Y117.355 E2.07295
G1 X100.435 Y116.803 E2.09826
G1 X100.245 Y116.528 E2.11049
G1 X99.835 Y115.869 E2.13889
G1 X99.677 Y115.586 E2.15075
G1 X99.337 Y114.904 E2.17863
G1 X99.187 Y114.564 E2.19222
G1 X98.909 Y113.844 E2.22046
G1 X98.817 Y113.567 E2.23114
G1 X98.618 Y112.864 E2.25787
G1 X98.531 Y112.494 E2.27177
G1 X98.379 Y111.647 E2.30326
G1 X98.337 Y111.313 E2.31557
G1 X98.281 Y110.654 E2.33977
G1 X98.268 Y110.358 E2.35061
G1 X98.268 Y109.629 E2.37728
G1 X98.283 Y109.301 E2.3893
G1 X98.353 Y108.546 E2.41704
G1 X98.399 Y108.217 E2.42919
G1 X98.524 Y107.536 E2.45452
G1 X98.596 Y107.22 E2.46638
G1 X98.791 Y106.515 E2.49314
G1 X98.89 Y106.21 E2.50487
G1 X99.211 Y105.378 E2.5375
G1 X99.376 Y105.012 E2.55219
G1 X99.701 Y104.369 E2.57855
G1 X99.846 Y104.111 E2.58937
G1 X100.245 Y103.472 E2.61694
G1 X100.435 Y103.197 E2.62917
G1 X100.89 Y102.599 E2.65666
G1 X101.116 Y102.329 E2.66954
G1 X101.64 Y101.761 E2.69781
G0 F6000 X101.949 Y102.074
G1 F1200 X102.18 Y101.846 E2.70969
G1 X102.66 Y101.411 E2.73339
G1 X102.882 Y101.226 E2.74396
G1 X103.503 Y100.759 E2.77239
G1 X103.823 Y100.543 E2.78651
G1 X104.444 Y100.165 E2.81311
G1 X104.752 Y99.997 E2.82595
G1 X105.353 Y99.703 E2.85042
G1 X105.625 Y99.584 E2.86129
G1 X106.317 Y99.32 E2.88838
G1 X106.638 Y99.215 E2.90074
G1 X107.24 Y99.044 E2.92364
G1 X107.52 Y98.977 E2.93417
G1 X108.235 Y98.842 E2.96079
G1 X108.603 Y98.79 E2.97439
G1 X109.395 Y98.719 E3.00348
G1 X109.746 Y98.706 E3.01633
G1 X110.462 Y98.713 E3.04253
G1 X110.801 Y98.732 E3.05495
G1 X111.496 Y98.803 E3.08051
G1 X111.814 Y98.85 E3.09227
G1 X112.546 Y98.994 E3.11957
G1 X112.908 Y99.084 E3.13321
G1 X113.597 Y99.29 E3.15952
G1 X113.888 Y99.392 E3.17081
G1 X114.463 Y99.62 E3.19344
G1 X114.702 Y99.726 E3.203
G1 X115.269 Y100.006 E3.22614
G1 X115.553 Y100.161 E3.23797
G1 X116.155 Y100.526 E3.26373
G1 X116.456 Y100.728 E3.27699
G1 X117.054 Y101.173 E3.30427
G1 X117.301 Y101.376 E3.31596
G1 X117.887 Y101.911 E3.34499
G1 X118.154 Y102.181 E3.35889
G1 X118.661 Y102.746 E3.38666
G1 X118.875 Y103.01 E3.39909
G1 X119.25 Y103.515 E3.42211
G1 X119.414 Y103.755 E3.43274
G1 X119.769 Y104.325 E3.45731
G1 X119.927 Y104.606 E3.4691
G1 X120.259 Y105.27 E3.49626
G1 X120.41 Y105.612 E3.50994
G1 X120.671 Y106.287 E3.53642
G1 X120.763 Y106.563 E3.54706
G1 X120.955 Y107.24 E3.57281
G1 X121.042 Y107.611 E3.58675
G1 X121.184 Y108.403 E3.61619
G1 X121.226 Y108.735 E3.62843
G1 X121.28 Y109.365 E3.65157
G1 X121.293 Y109.663 E3.66248
G1 X121.292 Y110.351 E3.68765
G1 X121.277 Y110.679 E3.69966
G1 X121.219 Y111.334 E3.72372
G1 X121.181 Y111.622 E3.73435
G1 X121.058 Y112.31 E3.75992
G1 X120.977 Y112.669 E3.77338
G1 X120.79 Y113.351 E3.79926
G1 X120.691 Y113.656 E3.81099
G1 X120.387 Y114.442 E3.84182
G1 X120.223 Y114.806 E3.85643
G1 X119.909 Y115.427 E3.88189
G1 X119.764 Y115.684 E3.89268
G1 X119.353 Y116.334 E3.92082
G1 X119.122 Y116.662 E3.9355
G1 X118.725 Y117.178 E3.95932
G1 X118.563 Y117.371 E3.96853
G1 X118.159 Y117.816 E3.99052
G1 X117.941 Y118.038 E4.00191
G1 X117.39 Y118.547 E4.02935
G1 X117.132 Y118.763 E4.04166
G1 X116.497 Y119.241 E4.07074
G1 X116.177 Y119.457 E4.08487
G1 X115.556 Y119.835 E4.11146
G1 X115.248 Y120.003 E4.1243
G1 X114.647 Y120.297 E4.14878
G1 X114.375 Y120.416 E4.15964
G1 X113.605 Y120.705 E4.18973
G1 X113.234 Y120.822 E4.20396
G1 X112.677 Y120.975 E4.2251
G1 X112.417 Y121.036 E4.23487
G1 X111.729 Y121.165 E4.26048
G1 X111.43 Y121.207 E4.27152
G1 X110.694 Y121.275 E4.29857
G1 X110.304 Y121.292 E4.31285
G1 X109.622 Y121.291 E4.3378
G1 X109.334 Y121.278 E4.34835
G1 X108.586 Y121.208 E4.37583
G1 X108.217 Y121.155 E4.38947
G1 X107.454 Y121.006 E4.41791
G1 X107.092 Y120.916 E4.43156
G1 X106.403 Y120.71 E4.45787
G1 X106.112 Y120.608 E4.46915
G1 X105.506 Y120.366 E4.49303
G1 X105.232 Y120.243 E4.50402
G1 X104.581 Y119.913 E4.53072
G1 X104.273 Y119.738 E4.54368
G1 X103.739 Y119.405 E4.5667
G1 X103.497 Y119.24 E4.57742
G1 X102.943 Y118.825 E4.60274
G1 X102.695 Y118.621 E4.61449
G1 X102.112 Y118.088 E4.64339
G1 X101.845 Y117.818 E4.65729
G1 X101.379 Y117.303 E4.6827
G1 X101.191 Y117.075 E4.69351
G1 X100.797 Y116.553 E4.71744
G1 X100.607 Y116.278 E4.72966
G1 X100.219 Y115.655 E4.75652
G1 X100.061 Y115.372 E4.76838
G1 X99.739 Y114.726 E4.79478
G1 X99.589 Y114.386 E4.80838
G1 X99.327 Y113.705 E4.83507
G1 X99.235 Y113.428 E4.84575
G1 X99.046 Y112.763 E4.87105
G1 X98.959 Y112.393 E4.88495
G1 X98.815 Y111.592 E4.91473
G1 X98.773 Y111.258 E4.92704
G1 X98.72 Y110.635 E4.94992
G1 X98.707 Y110.339 E4.96076
G1 X98.708 Y109.649 E4.986
G1 X98.723 Y109.321 E4.99802
G1 X98.789 Y108.607 E5.02425
G1 X98.835 Y108.278 E5.0364
G1 X98.953 Y107.633 E5.06039
G1 X99.025 Y107.317 E5.07225
G1 X99.209 Y106.651 E5.09753
G1 X99.308 Y106.346 E5.10926
G1 X99.612 Y105.558 E5.14016
G1 X99.777 Y105.192 E5.15485
G1 X100.084 Y104.584 E5.17977
G1 X100.229 Y104.326 E5.1906
G1 X100.607 Y103.722 E5.21667
G1 X100.797 Y103.447 E5.2289
G1 X101.227 Y102.882 E5.25487
G1 X101.453 Y102.612 E5.26776
G1 X101.949 Y102.074 E5.29453
G0 F6000 X102.258 Y102.387
G1 F1200 X102.489 Y102.159 E5.3064
G1 X102.941 Y101.749 E5.32873
G1 X103.163 Y101.564 E5.3393
G1 X103.749 Y101.124 E5.36611
G1 X104.069 Y100.908 E5.38024
G1 X104.655 Y100.551 E5.40534
G1 X104.963 Y100.383 E5.41818
G1 X105.529 Y100.106 E5.44123
G1 X105.801 Y99.987 E5.45209
G1 X106.454 Y99.738 E5.47766
G1 X106.775 Y99.633 E5.49002
G1 X107.342 Y99.472 E5.51158
G1 X107.622 Y99.405 E5.52212
G1 X108.296 Y99.277 E5.54722
G1 X108.664 Y99.225 E5.56081
G1 X109.411 Y99.159 E5.58825
G1 X109.762 Y99.146 E5.6011
G1 X110.437 Y99.152 E5.6258
G1 X110.776 Y99.171 E5.63822
G1 X111.431 Y99.238 E5.66231
G1 X111.749 Y99.285 E5.67407
G1 X112.44 Y99.421 E5.69984
G1 X112.802 Y99.511 E5.71348
G1 X113.451 Y99.706 E5.73828
G1 X113.742 Y99.808 E5.74956
G1 X114.284 Y100.022 E5.77088
G1 X114.523 Y100.128 E5.78044
G1 X115.058 Y100.392 E5.80227
G1 X115.342 Y100.547 E5.81411
G1 X115.91 Y100.892 E5.83842
G1 X116.211 Y101.094 E5.85168
G1 X116.775 Y101.513 E5.87739
G1 X117.022 Y101.716 E5.88909
G1 X117.574 Y102.22 E5.91643
G1 X117.841 Y102.49 E5.93033
G1 X118.319 Y103.023 E5.95652
G1 X118.533 Y103.287 E5.96895
G1 X118.887 Y103.763 E5.99066
G1 X119.051 Y104.003 E6.00129
G1 X119.385 Y104.541 E6.02446
G1 X119.543 Y104.822 E6.03625
G1 X119.856 Y105.448 E6.06186
G1 X120.007 Y105.79 E6.07554
G1 X120.253 Y106.426 E6.10049
G1 X120.345 Y106.702 E6.11113
G1 X120.526 Y107.34 E6.13539
G1 X120.613 Y107.711 E6.14934
G1 X120.748 Y108.458 E6.17711
G1 X120.79 Y108.79 E6.18935
G1 X120.84 Y109.385 E6.2112
G1 X120.853 Y109.683 E6.22211
G1 X120.852 Y110.331 E6.24582
G1 X120.837 Y110.659 E6.25783
G1 X120.783 Y111.277 E6.28053
G1 X120.745 Y111.565 E6.29116
G1 X120.629 Y112.213 E6.31524
G1 X120.548 Y112.572 E6.3287
G1 X120.371 Y113.215 E6.3531
G1 X120.272 Y113.52 E6.36484
G1 X119.986 Y114.261 E6.3939
G1 X119.822 Y114.625 E6.4085
G1 X119.526 Y115.21 E6.43249
G1 X119.381 Y115.467 E6.44329
G1 X118.994 Y116.08 E6.46981
G1 X118.763 Y116.408 E6.48449
G1 X118.388 Y116.896 E6.507
G1 X118.226 Y117.089 E6.51622
G1 X117.845 Y117.508 E6.53694
G1 X117.627 Y117.73 E6.54832
G1 X117.107 Y118.21 E6.57422
G1 X116.849 Y118.426 E6.58653
G1 X116.251 Y118.876 E6.61391
G1 X115.931 Y119.092 E6.62803
G1 X115.345 Y119.449 E6.65314
G1 X115.037 Y119.617 E6.66597
G1 X114.471 Y119.894 E6.68903
G1 X114.199 Y120.013 E6.69989
G1 X113.473 Y120.286 E6.72827
G1 X113.102 Y120.403 E6.7425
G1 X112.576 Y120.547 E6.76245
G1 X112.316 Y120.608 E6.77222
G1 X111.668 Y120.729 E6.79634
G1 X111.369 Y120.771 E6.80739
G1 X110.675 Y120.835 E6.83289
G1 X110.285 Y120.852 E6.84717
G1 X109.642 Y120.852 E6.87069
G1 X109.354 Y120.839 E6.88124
G1 X108.649 Y120.772 E6.90715
G1 X108.28 Y120.719 E6.92079
G1 X107.56 Y120.579 E6.94762
G1 X107.198 Y120.489 E6.96127
G1 X106.549 Y120.294 E6.98606
G1 X106.258 Y120.192 E6.99735
G1 X105.686 Y119.964 E7.01987
G1 X105.412 Y119.841 E7.03086
G1 X104.798 Y119.53 E7.05604
G1 X104.49 Y119.355 E7.069
G1 X103.987 Y119.041 E7.0907
G1 X103.745 Y118.876 E7.10141
G1 X103.223 Y118.485 E7.12528
G1 X102.975 Y118.281 E7.13702
G1 X102.425 Y117.779 E7.16427
G1 X102.158 Y117.509 E7.17816
G1 X101.719 Y117.023 E7.20212
G1 X101.531 Y116.795 E7.21293
G1 X101.159 Y116.303 E7.2355
G1 X100.969 Y116.028 E7.24773
G1 X100.603 Y115.44 E7.27307
G1 X100.445 Y115.157 E7.28493
G1 X100.142 Y114.548 E7.30981
G1 X99.992 Y114.208 E7.32341
G1 X99.744 Y113.566 E7.34859
G1 X99.652 Y113.289 E7.35927
G1 X99.475 Y112.663 E7.38307
G1 X99.388 Y112.293 E7.39697
G1 X99.252 Y111.537 E7.42508
G1 X99.21 Y111.203 E7.43739
G1 X99.16 Y110.616 E7.45895
G1 X99.147 Y110.32 E7.46979
G1 X99.148 Y109.669 E7.49361
G1 X99.163 Y109.341 E7.50562
G1 X99.225 Y108.668 E7.53034
G1 X99.271 Y108.339 E7.5425
G1 X99.382 Y107.731 E7.56511
G1 X99.454 Y107.415 E7.57697
G1 X99.628 Y106.787 E7.60081
G1 X99.727 Y106.482 E7.61254
G1 X100.013 Y105.739 E7.64167
G1 X100.178 Y105.373 E7.65636
G1 X100.468 Y104.8 E7.67985
G1 X100.613 Y104.542 E7.69068
G1 X100.969 Y103.972 E7.71527
G1 X101.159 Y103.697 E7.7275
G1 X101.565 Y103.164 E7.75201
G1 X101.791 Y102.894 E7.76489
G1 X102.258 Y102.387 E7.79011
G0 F6000 X102.567 Y102.7
G1 F1200 X102.798 Y102.472 E7.80199
G1 X103.223 Y102.087 E7.82297
G1 X103.445 Y101.902 E7.83354
G1 X103.995 Y101.488 E7.85873
G1 X104.315 Y101.272 E7.87285
G1 X104.865 Y100.938 E7.89639
G1 X105.173 Y100.77 E7.90923
G1 X105.705 Y100.509 E7.93091
G1 X105.977 Y100.39 E7.94177
G1 X106.591 Y100.156 E7.96581
G1 X106.912 Y100.051 E7.97817
G1 X107.445 Y99.9 E7.99844
G1 X107.725 Y99.833 E8.00897
G1 X108.358 Y99.713 E8.03254
G1 X108.726 Y99.661 E8.04614
G1 X109.428 Y99.599 E8.07192
G1 X109.779 Y99.586 E8.08477
G1 X110.413 Y99.592 E8.10797
G1 X110.752 Y99.611 E8.12039
G1 X111.367 Y99.673 E8.14301
G1 X111.685 Y99.72 E8.15477
G1 X112.333 Y99.848 E8.17893
G1 X112.695 Y99.938 E8.19258
G1 X113.306 Y100.121 E8.21591
G1 X113.597 Y100.223 E8.2272
G1 X114.106 Y100.425 E8.24723
G1 X114.345 Y100.531 E8.2568
G1 X114.847 Y100.779 E8.27728
G1 X115.131 Y100.934 E8.28912
G1 X115.664 Y101.257 E8.31192
G1 X115.965 Y101.459 E8.32518
G1 X116.495 Y101.853 E8.34935
G1 X116.742 Y102.056 E8.36104
G1 X117.261 Y102.53 E8.38676
G1 X117.528 Y102.8 E8.40065
G1 X117.977 Y103.3 E8.42524
G1 X118.191 Y103.564 E8.43767
G1 X118.524 Y104.011 E8.45806
G1 X118.688 Y104.251 E8.4687
G1 X119.002 Y104.756 E8.49046
G1 X119.16 Y105.037 E8.50225
G1 X119.454 Y105.625 E8.5263
G1 X119.605 Y105.967 E8.53998
G1 X119.836 Y106.565 E8.56343
G1 X119.928 Y106.841 E8.57408
G1 X120.098 Y107.441 E8.59689
G1 X120.185 Y107.812 E8.61083
G1 X120.311 Y108.513 E8.63689
G1 X120.353 Y108.845 E8.64914
G1 X120.401 Y109.404 E8.66966
G1 X120.414 Y109.702 E8.68058
G1 X120.413 Y110.311 E8.70286
G1 X120.398 Y110.639 E8.71487
G1 X120.346 Y111.219 E8.73618
G1 X120.308 Y111.507 E8.7468
G1 X120.2 Y112.116 E8.76943
G1 X120.119 Y112.475 E8.7829
G1 X119.953 Y113.08 E8.80585
G1 X119.854 Y113.385 E8.81758
G1 X119.585 Y114.081 E8.84488
G1 X119.421 Y114.445 E8.85949
G1 X119.143 Y114.994 E8.882
G1 X118.998 Y115.251 E8.8928
G1 X118.634 Y115.827 E8.91773
G1 X118.403 Y116.155 E8.9324
G1 X118.051 Y116.613 E8.95354
G1 X117.889 Y116.806 E8.96276
G1 X117.531 Y117.199 E8.98221
G1 X117.313 Y117.421 E8.99359
G1 X116.825 Y117.872 E9.0179
G1 X116.567 Y118.088 E9.03021
G1 X116.005 Y118.512 E9.05597
G1 X115.685 Y118.728 E9.07009
G1 X115.135 Y119.062 E9.09364
G1 X114.827 Y119.23 E9.10647
G1 X114.295 Y119.491 E9.12815
G1 X114.023 Y119.61 E9.13901
G1 X113.34 Y119.866 E9.1657
G1 X112.969 Y119.983 E9.17993
G1 X112.476 Y120.119 E9.19864
G1 X112.216 Y120.18 E9.20841
G1 X111.607 Y120.294 E9.23108
G1 X111.308 Y120.336 E9.24213
G1 X110.656 Y120.396 E9.26608
G1 X110.266 Y120.413 E9.28036
G1 X109.661 Y120.412 E9.3025
G1 X109.373 Y120.399 E9.31305
G1 X108.711 Y120.337 E9.33737
G1 X108.342 Y120.284 E9.35101
G1 X107.667 Y120.152 E9.37618
G1 X107.305 Y120.062 E9.38982
G1 X106.694 Y119.879 E9.41316
G1 X106.403 Y119.777 E9.42444
G1 X105.866 Y119.563 E9.44559
G1 X105.592 Y119.44 E9.45658
G1 X105.016 Y119.148 E9.4802
G1 X104.708 Y118.973 E9.49316
G1 X104.235 Y118.678 E9.51356
