;FLAVOR:Marlin
;TIME:7921
;Filament used: 5.80471m
;Layer height: 0.2
;MINX:46.823
;MINY:87.986
;MINZ:0.2
;MAXX:167.179
;MAXY:164.016
;MAXZ:10
;Generated with Cura_SteamEngine 4.2.1
M140 S60
M105
M190 S60
M104 S200
M105
M109 S200
M82 ;absolute extrusion mode
M201 X500.00 Y500.00 Z100.00 E5000.00 ;Setup machine max acceleration
M203 X500.00 Y500.00 Z10.00 E50.00 ;Setup machine max feedrate
M204 P500.00 R1000.00 T500.00 ;Setup Print/Retract/Travel acceleration
M205 X8.00 Y8.00 Z0.40 E5.00 ;Setup Jerk
M220 S100 ;Reset Feedrate
M221 S100 ;Reset Flowrate

G28 ;Home

G92 E0 ;Reset Extruder
G1 Z2.0 F3000 ;Move Z Axis up
G1 X10.1 Y20 Z0.28 F5000.0 ;Move to start position
G1 X10.1 Y200.0 Z0.28 F1500.0 E15 ;Draw the first line
G1 X10.4 Y200.0 Z0.28 F5000.0 ;Move to side a little
G1 X10.4 Y20 Z0.28 F1500.0 E30 ;Draw the second line
G92 E0 ;Reset Extruder
G1 Z2.0 F3000 ;Move Z Axis up

G92 E0
G92 E0
G1 F3600 E-7
;LAYER_COUNT:50
;LAYER:0
M107
G0 F6000 X58.814 Y99.928 Z0.2
;TYPE:SKIRT
G1 F3600 E0
G1 F1200 X59.815 Y99.367 E0.04198
G1 X60.35 Y99.101 E0.06384
G1 X60.551 Y99.003 E0.07202
G1 X61.132 Y98.728 E0.09554
G1 X62.017 Y98.354 E0.13069
G1 X62.929 Y98.054 E0.16582
G1 X63.749 Y97.855 E0.19669
G1 X64.056 Y97.792 E0.20815
G1 X64.57 Y97.698 E0.22727
G1 X65.649 Y97.527 E0.26724
G1 X65.825 Y97.501 E0.27375
G1 X66.533 Y97.4 E0.29992
G1 X67.713 Y97.293 E0.34326
G1 X68.302 Y97.27 E0.36483
G1 X68.505 Y97.264 E0.37226
G1 X69.909 Y97.234 E0.42364
G1 X70.077 Y97.231 E0.42979
G1 X70.806 Y97.226 E0.45646
G1 X71.131 Y97.229 E0.46835
G1 X71.459 Y97.236 E0.48035
G1 X71.806 Y97.248 E0.49305
G1 X72.447 Y97.281 E0.51654
G1 X75.022 Y97.378 E0.61081
G1 X77.544 Y97.402 E0.70309
G1 X80.035 Y97.354 E0.79424
G1 X82.539 Y97.235 E0.88596
G1 X85.014 Y97.048 E0.97677
G1 X87.526 Y96.787 E1.06916
G1 X89.977 Y96.461 E1.15963
G1 X92.457 Y96.059 E1.25154
G1 X94.949 Y95.584 E1.34436
G1 X97.369 Y95.05 E1.43503
G1 X99.744 Y94.456 E1.5246
G1 X102.22 Y93.762 E1.61867
G1 X104.599 Y93.021 E1.70984
G1 X106.938 Y92.219 E1.8003
G1 X109.312 Y91.33 E1.89305
G1 X111.626 Y90.387 E1.98447
G1 X113.458 Y89.587 E2.05761
G1 X113.865 Y89.419 E2.07372
G1 X114.314 Y89.243 E2.09136
G1 X114.709 Y89.096 E2.10678
G1 X115.14 Y88.945 E2.12349
G1 X116.061 Y88.665 E2.15871
G1 X116.632 Y88.517 E2.18029
G1 X116.953 Y88.439 E2.19237
G1 X117.272 Y88.366 E2.20435
G1 X118.253 Y88.185 E2.24084
G1 X118.497 Y88.151 E2.24986
G1 X119.034 Y88.089 E2.26963
G1 X119.654 Y88.032 E2.29241
G1 X120.949 Y87.986 E2.33982
G1 X121.19 Y87.991 E2.34864
G1 X121.781 Y88.019 E2.37029
G1 X122.336 Y88.059 E2.39065
G1 X123.29 Y88.168 E2.42578
G1 X124.272 Y88.365 E2.46242
G1 X124.677 Y88.465 E2.47768
G1 X125.042 Y88.562 E2.4915
G1 X125.34 Y88.646 E2.50283
G1 X126.253 Y88.945 E2.53798
G1 X126.979 Y89.245 E2.56672
G1 X129.298 Y90.298 E2.6599
G1 X131.594 Y91.267 E2.75107
G1 X133.973 Y92.196 E2.84451
G1 X136.295 Y93.022 E2.93468
G1 X138.664 Y93.793 E3.02583
G1 X141.094 Y94.508 E3.1185
G1 X143.486 Y95.139 E3.20901
G1 X145.92 Y95.71 E3.30048
G1 X148.423 Y96.222 E3.39395
G1 X150.829 Y96.641 E3.4833
G1 X153.359 Y97.011 E3.57685
G1 X153.907 Y97.076 E3.59704
G1 X154.077 Y97.097 E3.6033
G1 X154.708 Y97.182 E3.6266
G1 X155.74 Y97.37 E3.66498
G1 X156.081 Y97.448 E3.67777
G1 X157.008 Y97.701 E3.71293
G1 X157.91 Y98.03 E3.74806
G1 X158.782 Y98.433 E3.7832
G1 X159.653 Y98.929 E3.81987
G1 X160.044 Y99.175 E3.83677
G1 X160.835 Y99.72 E3.87192
G1 X161.578 Y100.329 E3.90707
G1 X162.471 Y101.217 E3.95314
G1 X162.818 Y101.602 E3.9721
G1 X163.431 Y102.342 E4.00726
G1 X164.016 Y103.187 E4.04486
G1 X164.214 Y103.502 E4.05847
G1 X164.551 Y104.074 E4.08276
G1 X164.724 Y104.388 E4.09588
G1 X165.308 Y105.612 E4.1455
G1 X165.512 Y106.114 E4.16532
G1 X165.63 Y106.417 E4.17722
G1 X165.762 Y106.77 E4.19101
G1 X166.042 Y107.617 E4.22364
G1 X166.178 Y108.089 E4.24161
G1 X166.28 Y108.467 E4.25594
G1 X166.427 Y109.051 E4.27797
G1 X166.564 Y109.668 E4.3011
G1 X166.697 Y110.353 E4.32662
G1 X166.758 Y110.694 E4.3393
G1 X166.805 Y110.982 E4.34998
G1 X166.866 Y111.401 E4.36547
G1 X167.031 Y112.713 E4.41385
G1 X167.072 Y113.093 E4.42783
G1 X167.13 Y113.722 E4.45094
G1 X167.179 Y114.682 E4.48611
G1 X167.147 Y115.642 E4.52125
G1 X166.968 Y116.978 E4.57057
G1 X166.918 Y117.236 E4.58018
G1 X166.845 Y117.584 E4.59319
G1 X166.654 Y118.429 E4.62488
G1 X166.612 Y118.61 E4.63168
G1 X166.456 Y119.252 E4.65585
G1 X166.191 Y120.174 E4.69095
G1 X165.815 Y121.302 E4.73445
G1 X165.045 Y123.684 E4.82604
G1 X164.351 Y126.058 E4.91653
G1 X163.715 Y128.488 E5.00843
G1 X163.15 Y130.92 E5.09978
G1 X162.651 Y133.396 E5.19219
G1 X162.23 Y135.835 E5.28274
G1 X161.875 Y138.295 E5.37368
G1 X161.586 Y140.812 E5.46637
G1 X161.372 Y143.28 E5.557
G1 X161.225 Y145.814 E5.64987
G1 X161.193 Y146.784 E5.68537
G1 X161.183 Y147.003 E5.6934
G1 X161.165 Y147.349 E5.70607
G1 X161.001 Y148.779 E5.75873
G1 X160.949 Y149.07 E5.76955
G1 X160.845 Y149.584 E5.78873
G1 X160.654 Y150.429 E5.82043
G1 X160.613 Y150.606 E5.82708
G1 X160.457 Y151.249 E5.85128
G1 X160.192 Y152.172 E5.88642
G1 X159.85 Y153.07 E5.92157
G1 X159.436 Y153.937 E5.95672
G1 X158.951 Y154.766 E5.99186
G1 X158.398 Y155.552 E6.02702
G1 X157.782 Y156.289 E6.06217
G1 X157.451 Y156.639 E6.07979
G1 X156.784 Y157.314 E6.11451
G1 X156.612 Y157.484 E6.12336
G1 X156.374 Y157.715 E6.13549
G1 X156.283 Y157.803 E6.14012
G1 X155.788 Y158.273 E6.1651
G1 X155.064 Y158.904 E6.20023
G1 X154.291 Y159.474 E6.23537
G1 X153.473 Y159.977 E6.2705
G1 X152.772 Y160.338 E6.29935
G1 X151.917 Y160.742 E6.33395
G1 X151.737 Y160.825 E6.3412
G1 X150.92 Y161.194 E6.374
G1 X150.76 Y161.265 E6.3804
G1 X150.121 Y161.542 E6.40589
G1 X149.224 Y161.887 E6.44105
G1 X148.593 Y162.08 E6.46519
G1 X148.335 Y162.151 E6.47498
G1 X147.975 Y162.244 E6.48858
G1 X145.837 Y162.759 E6.56904
G1 X145.701 Y162.791 E6.57415
G1 X145.052 Y162.939 E6.59851
G1 X144.135 Y163.11 E6.63263
G1 X143.574 Y163.191 E6.65337
G1 X143.394 Y163.215 E6.66001
G1 X140.979 Y163.525 E6.7491
G1 X140.809 Y163.546 E6.75536
G1 X140.394 Y163.593 E6.77064
G1 X140.013 Y163.629 E6.78464
G1 X138.772 Y163.728 E6.83019
G1 X138.549 Y163.744 E6.83837
G1 X136.047 Y163.895 E6.93008
G1 X135.874 Y163.904 E6.93641
G1 X134.925 Y163.947 E6.97117
G1 X134.591 Y163.957 E6.9834
G1 X131.155 Y164.013 E7.10912
G1 X130.975 Y164.015 E7.11571
G1 X129.441 Y164.016 E7.17183
G1 X129.268 Y164.015 E7.17816
G1 X125.767 Y163.965 E7.30626
G1 X125.66 Y163.963 E7.31018
G1 X124.77 Y163.942 E7.34275
G1 X124.643 Y163.938 E7.3474
G1 X120.022 Y163.778 E7.51656
G1 X119.895 Y163.773 E7.52121
G1 X115.339 Y163.565 E7.68807
G1 X115.289 Y163.563 E7.6899
G1 X110.544 Y163.326 E7.86372
G1 X106.358 Y163.127 E8.01704
G1 X106.277 Y163.123 E8.02001
G1 X102.864 Y162.937 E8.14506
G1 X102.757 Y162.931 E8.14899
G1 X101.77 Y162.868 E8.18517
G1 X101.653 Y162.86 E8.18946
G1 X97.667 Y162.565 E8.33569
G1 X97.565 Y162.556 E8.33944
G1 X96.842 Y162.496 E8.36598
G1 X96.743 Y162.488 E8.36961
G1 X91.594 Y162.016 E8.55879
G1 X91.421 Y161.999 E8.56515
G1 X86.872 Y161.513 E8.73252
G1 X86.773 Y161.502 E8.73617
G1 X85.856 Y161.396 E8.76994
G1 X85.764 Y161.385 E8.77333
G1 X81.318 Y160.835 E8.93723
G1 X81.213 Y160.821 E8.94111
G1 X80.296 Y160.699 E8.97495
G1 X80.184 Y160.684 E8.97909
G1 X76.038 Y160.091 E9.13232
G1 X75.901 Y160.07 E9.13739
G1 X74.684 Y159.881 E9.18245
G1 X74.547 Y159.859 E9.18752
G1 X70.998 Y159.264 E9.31918
G1 X70.809 Y159.231 E9.3262
G1 X69.288 Y158.95 E9.38279
G1 X69.106 Y158.915 E9.38957
G1 X66.088 Y158.307 E9.50221
G1 X65.932 Y158.274 E9.50804
G1 X65.061 Y158.086 E9.54064
G1 X64.799 Y158.026 E9.55047
G1 X64.566 Y157.97 E9.55924
G1 X64.437 Y157.939 E9.56409
G1 X61.757 Y157.262 E9.66523
G1 X61.598 Y157.22 E9.67124
G1 X60.952 Y157.047 E9.69571
G1 X60.424 Y156.892 E9.71584
G1 X59.889 Y156.721 E9.73639
G1 X59.678 Y156.652 E9.74451
G1 X57.918 Y156.052 E9.81254
G1 X57.768 Y155.999 E9.81836
G1 X57.145 Y155.777 E9.84256
G1 X56.255 Y155.418 E9.87767
G1 X55.736 Y155.167 E9.89876
G1 X55.167 Y154.874 E9.92218
G1 X54.96 Y154.765 E9.93074
G1 X54.176 Y154.341 E9.96335
G1 X54.026 Y154.258 E9.96962
G1 X53.453 Y153.937 E9.99365
G1 X52.635 Y153.433 E10.0288
G1 X51.862 Y152.863 E10.06394
G1 X51.139 Y152.23 E10.0991
G1 X50.471 Y151.54 E10.13423
G1 X49.709 Y150.585 E10.17893
G1 X49.354 Y150.089 E10.20125
G1 X49.108 Y149.731 E10.21714
G1 X48.733 Y149.163 E10.24204
G1 X48.237 Y148.34 E10.2772
G1 X47.812 Y147.479 E10.31233
G1 X47.46 Y146.585 E10.34748
G1 X47.183 Y145.665 E10.38263
G1 X46.984 Y144.725 E10.41778
G1 X46.864 Y143.772 E10.45293
G1 X46.823 Y142.813 E10.48804
G1 X46.862 Y141.853 E10.5232
G1 X46.981 Y140.899 E10.55837
G1 X47.179 Y139.959 E10.59352
G1 X47.461 Y139.021 E10.62935
G1 X48.328 Y136.523 E10.72609
G1 X49.084 Y134.138 E10.81763
G1 X49.763 Y131.757 E10.90821
G1 X50.389 Y129.304 E11.00083
G1 X50.947 Y126.834 E11.09348
G1 X51.416 Y124.433 E11.18298
G1 X51.827 Y121.965 E11.27452
G1 X52.172 Y119.46 E11.36703
G1 X52.442 Y116.987 E11.45805
G1 X52.642 Y114.493 E11.54959
G1 X52.774 Y111.957 E11.6425
G1 X52.781 Y111.659 E11.6534
G1 X52.785 Y111.512 E11.65878
G1 X52.828 Y110.376 E11.70037
G1 X52.905 Y109.419 E11.7355
G1 X53.06 Y108.471 E11.77064
G1 X53.294 Y107.539 E11.8058
G1 X53.581 Y106.691 E11.83856
G1 X53.755 Y106.236 E11.85638
G1 X53.909 Y105.855 E11.87141
G1 X54.137 Y105.317 E11.89279
G1 X54.548 Y104.449 E11.92793
G1 X55.03 Y103.618 E11.96307
G1 X55.58 Y102.83 E11.99823
G1 X56.193 Y102.091 E12.03336
G1 X56.865 Y101.405 E12.06849
G1 X57.593 Y100.777 E12.10367
G1 X58.623 Y100.048 E12.14984
G1 X58.814 Y99.928 E12.15809
G0 F6000 X59.048 Y100.301
G1 F1200 X60.011 Y99.761 E12.19848
G1 X60.546 Y99.495 E12.22034
G1 X60.739 Y99.401 E12.2282
G1 X61.32 Y99.126 E12.25171
G1 X62.188 Y98.76 E12.28618
G1 X63.084 Y98.468 E12.32066
G1 X63.838 Y98.286 E12.34904
G1 X64.145 Y98.223 E12.3605
G1 X64.639 Y98.133 E12.37887
G1 X65.718 Y97.962 E12.41884
G1 X65.887 Y97.936 E12.4251
G1 X66.595 Y97.835 E12.45126
G1 X67.73 Y97.732 E12.49296
G1 X68.319 Y97.709 E12.51452
G1 X68.515 Y97.704 E12.5217
G1 X69.919 Y97.674 E12.57308
G1 X70.08 Y97.671 E12.57897
G1 X70.809 Y97.666 E12.60564
G1 X71.122 Y97.669 E12.61709
G1 X71.45 Y97.676 E12.62909
G1 X71.783 Y97.688 E12.64129
G1 X72.405 Y97.72 E12.66407
G1 X75.002 Y97.818 E12.75915
G1 X77.548 Y97.842 E12.85231
G1 X80.029 Y97.794 E12.94309
G1 X82.593 Y97.673 E13.037
G1 X85.06 Y97.486 E13.12752
G1 X87.558 Y97.226 E13.21941
G1 X90.068 Y96.892 E13.31205
G1 X92.543 Y96.492 E13.40377
G1 X94.987 Y96.025 E13.49481
G1 X97.465 Y95.479 E13.58764
G1 X99.896 Y94.87 E13.67933
G1 X102.33 Y94.188 E13.77181
G1 X104.734 Y93.44 E13.86393
G1 X107.085 Y92.634 E13.95485
G1 X109.493 Y91.732 E14.04893
G1 X111.785 Y90.798 E14.13948
G1 X113.635 Y89.99 E14.21334
G1 X114.025 Y89.829 E14.22878
G1 X114.474 Y89.653 E14.24642
G1 X114.855 Y89.511 E14.2613
G1 X115.286 Y89.36 E14.27801
G1 X116.171 Y89.091 E14.31185
G1 X116.742 Y88.943 E14.33343
G1 X117.051 Y88.868 E14.34506
G1 X117.37 Y88.795 E14.35703
G1 X118.314 Y88.621 E14.39215
G1 X118.558 Y88.587 E14.40117
G1 X119.074 Y88.528 E14.42017
G1 X119.694 Y88.471 E14.44295
G1 X120.94 Y88.426 E14.48856
G1 X121.181 Y88.431 E14.49738
G1 X121.749 Y88.458 E14.51819
G1 X122.304 Y88.498 E14.53854
G1 X123.24 Y88.605 E14.57301
G1 X124.167 Y88.793 E14.60762
G1 X124.572 Y88.893 E14.62288
G1 X124.923 Y88.985 E14.63616
G1 X125.221 Y89.069 E14.64748
G1 X126.116 Y89.363 E14.68195
G1 X126.798 Y89.646 E14.70896
G1 X129.11 Y90.696 E14.80187
G1 X131.445 Y91.682 E14.8946
G1 X133.824 Y92.61 E14.98802
G1 X136.162 Y93.442 E15.07882
G1 X138.52 Y94.209 E15.16954
G1 X140.954 Y94.926 E15.26237
G1 X143.415 Y95.575 E15.35549
G1 X145.846 Y96.144 E15.44683
G1 X148.287 Y96.644 E15.53799
G1 X150.804 Y97.082 E15.63146
G1 X153.284 Y97.445 E15.72317
G1 X153.854 Y97.513 E15.74417
G1 X154.018 Y97.533 E15.75021
G1 X154.649 Y97.618 E15.77351
G1 X155.642 Y97.798 E15.81043
G1 X155.983 Y97.876 E15.82323
G1 X156.892 Y98.125 E15.85771
G1 X157.776 Y98.45 E15.89217
G1 X158.63 Y98.849 E15.92665
G1 X159.419 Y99.302 E15.95994
G1 X159.81 Y99.548 E15.97684
G1 X160.585 Y100.083 E16.01129
G1 X161.313 Y100.682 E16.04579
G1 X162.144 Y101.512 E16.08876
G1 X162.491 Y101.897 E16.10772
G1 X163.092 Y102.623 E16.1422
G1 X163.644 Y103.421 E16.1777
G1 X163.842 Y103.736 E16.19131
G1 X164.166 Y104.287 E16.2147
G1 X164.339 Y104.601 E16.22782
G1 X164.9 Y105.778 E16.27552
G1 X165.104 Y106.28 E16.29534
G1 X165.218 Y106.571 E16.30678
G1 X165.35 Y106.924 E16.32057
G1 X165.619 Y107.739 E16.35197
G1 X165.755 Y108.211 E16.36994
G1 X165.853 Y108.575 E16.38373
G1 X166 Y109.159 E16.40576
G1 X166.133 Y109.752 E16.428
G1 X166.266 Y110.437 E16.45353
G1 X166.324 Y110.765 E16.46571
G1 X166.371 Y111.053 E16.47639
G1 X166.429 Y111.456 E16.49128
G1 X166.594 Y112.768 E16.53966
G1 X166.634 Y113.134 E16.55313
G1 X166.692 Y113.763 E16.57624
G1 X166.739 Y114.704 E16.61072
G1 X166.705 Y115.645 E16.64517
G1 X166.536 Y116.894 E16.69128
G1 X166.486 Y117.152 E16.70089
G1 X166.416 Y117.487 E16.71341
G1 X166.225 Y118.332 E16.74511
G1 X166.184 Y118.506 E16.75165
G1 X166.028 Y119.148 E16.77582
G1 X165.773 Y120.035 E16.80959
G1 X165.396 Y121.166 E16.8532
G1 X164.633 Y123.527 E16.94398
G1 X163.921 Y125.964 E17.03687
G1 X163.296 Y128.35 E17.12711
G1 X162.71 Y130.872 E17.22184
G1 X162.227 Y133.272 E17.31141
G1 X161.795 Y135.769 E17.40412
G1 X161.433 Y138.283 E17.49705
G1 X161.152 Y140.725 E17.58698
G1 X160.93 Y143.286 E17.68103
G1 X160.786 Y145.774 E17.77221
G1 X160.753 Y146.77 E17.80867
G1 X160.744 Y146.98 E17.81636
G1 X160.726 Y147.326 E17.82903
G1 X160.568 Y148.702 E17.8797
G1 X160.516 Y148.993 E17.89052
G1 X160.416 Y149.487 E17.90896
G1 X160.225 Y150.332 E17.94066
G1 X160.185 Y150.502 E17.94704
G1 X160.029 Y151.145 E17.97125
G1 X159.768 Y152.05 E18.00571
G1 X159.432 Y152.93 E18.04017
G1 X159.022 Y153.779 E18.07467
G1 X158.541 Y154.589 E18.10913
G1 X157.994 Y155.356 E18.1436
G1 X157.138 Y156.33 E18.19104
G1 X156.471 Y157.005 E18.22576
G1 X156.306 Y157.168 E18.23425
G1 X156.068 Y157.399 E18.24638
G1 X155.98 Y157.484 E18.25086
G1 X155.485 Y157.954 E18.27583
G1 X154.775 Y158.573 E18.31029
G1 X154.015 Y159.129 E18.34474
G1 X153.21 Y159.62 E18.37924
G1 X152.584 Y159.94 E18.40496
G1 X151.729 Y160.344 E18.43956
G1 X151.556 Y160.424 E18.44654
G1 X150.739 Y160.793 E18.47933
G1 X150.585 Y160.861 E18.48549
G1 X149.946 Y161.138 E18.51097
G1 X149.066 Y161.476 E18.54546
G1 X148.476 Y161.656 E18.56803
G1 X148.218 Y161.727 E18.57782
G1 X147.872 Y161.816 E18.59089
G1 X145.734 Y162.331 E18.67135
G1 X145.603 Y162.362 E18.67627
G1 X144.954 Y162.51 E18.70063
G1 X144.072 Y162.674 E18.73345
G1 X143.511 Y162.755 E18.75419
G1 X143.338 Y162.779 E18.76058
G1 X140.923 Y163.089 E18.84966
G1 X140.759 Y163.108 E18.8557
G1 X140.344 Y163.155 E18.87098
G1 X139.978 Y163.191 E18.88443
G1 X138.737 Y163.29 E18.92998
G1 X138.523 Y163.305 E18.93783
G1 X136.021 Y163.456 E19.02954
G1 X135.854 Y163.465 E19.03566
G1 X134.905 Y163.508 E19.07041
G1 X134.584 Y163.518 E19.08216
G1 X131.148 Y163.574 E19.20789
G1 X130.974 Y163.575 E19.21425
G1 X129.44 Y163.576 E19.27038
G1 X129.274 Y163.575 E19.27645
G1 X125.773 Y163.525 E19.40455
G1 X125.67 Y163.523 E19.40832
G1 X124.78 Y163.502 E19.44089
G1 X124.658 Y163.498 E19.44536
G1 X120.037 Y163.338 E19.61452
G1 X119.915 Y163.333 E19.61899
G1 X115.359 Y163.125 E19.78585
G1 X115.311 Y163.123 E19.78761
G1 X110.594 Y162.887 E19.9604
G1 X110.594 Y162.888 E19.96044
G1 X106.379 Y162.688 E20.11482
G1 X106.301 Y162.684 E20.11768
G1 X102.888 Y162.498 E20.24273
G1 X102.785 Y162.491 E20.24651
G1 X101.798 Y162.428 E20.28269
G1 X101.686 Y162.421 E20.2868
G1 X97.7 Y162.126 E20.43303
G1 X97.601 Y162.118 E20.43666
G1 X96.878 Y162.058 E20.46321
G1 X96.783 Y162.05 E20.4667
G1 X91.634 Y161.578 E20.65587
G1 X91.468 Y161.561 E20.66197
G1 X86.919 Y161.075 E20.82935
G1 X86.823 Y161.065 E20.83288
G1 X85.906 Y160.959 E20.86665
G1 X85.818 Y160.948 E20.8699
G1 X81.372 Y160.398 E21.0338
G1 X81.271 Y160.385 E21.03753
G1 X80.354 Y160.263 E21.07137
G1 X80.246 Y160.248 E21.07536
G1 X76.1 Y159.655 E21.22859
G1 X75.969 Y159.636 E21.23343
G1 X74.752 Y159.447 E21.27849
G1 X74.62 Y159.425 E21.28339
G1 X71.071 Y158.83 E21.41504
G1 X70.889 Y158.798 E21.42181
