;FLAVOR:Marlin
;TIME:14644
;Filament used: 6.32396m
;Layer height: 0.1
;MINX:84.9
;MINY:97.4
;MINZ:0.2
;MAXX:148.1
;MAXY:185.6
;MAXZ:20.5
;Generated with Cura_SteamEngine 4.1.0
M140 S60
M105
M190 S60
M104 S200
M105
M109 S200
M82 ;absolute extrusion mode
; Ender 3 Custom Start G-code
G28 ; Home all axes
G92 E0 ; Reset Extruder
G1 Z2.0 F3000 ; Move Z Axis up little to prevent scratching of Heat Bed
G1 X0.1 Y20 Z0.3 F5000.0 ; Move to start position
G1 X0.1 Y200.0 Z0.3 F1500.0 E15 ; Draw the first line
G1 X0.4 Y200.0 Z0.3 F5000.0 ; Move to side a little
G1 X0.4 Y20 Z0.3 F1500.0 E30 ; Draw the second line
G92 E0 ; Reset Extruder
G1 Z2.0 F3000 ; Move Z Axis up little to prevent scratching of Heat Bed
; End of custom start GCode
G92 E0
G92 E0
G1 F2400 E-5
;LAYER_COUNT:204
;LAYER:0
M107
M204 S500
M205 X10 Y10
G0 F3600 X89.896 Y100.515 Z0.2
;TYPE:SKIRT
G1 F2400 E0
G1 F1800 X90.478 Y99.992 E0.02602
G1 X91.01 Y99.569 E0.04863
G1 X91.17 Y99.445 E0.05536
G1 X91.464 Y99.226 E0.06756
G1 X92.06 Y98.832 E0.09132
G1 X92.72 Y98.496 E0.11595
G1 X93.291 Y98.246 E0.13668
G1 X93.489 Y98.163 E0.14383
G1 X93.858 Y98.016 E0.15704
G1 X94.537 Y97.789 E0.18085
G1 X95.271 Y97.634 E0.2058
G1 X95.999 Y97.524 E0.23029
G1 X96.219 Y97.494 E0.23767
G1 X96.556 Y97.455 E0.24896
G1 X97.079 Y97.417 E0.2664
G1 X97.409 Y97.406 E0.27738
G1 X97.619 Y97.402 E0.28437
G1 X102.413 Y97.4 E0.44381
G1 X115.324 Y97.4 E0.87324
G1 X115.415 Y97.401 E0.87626
G1 X115.835 Y97.407 E0.89023
G1 X118.57 Y97.407 E0.9812
G1 X119.195 Y97.4 E1.00199
G1 X136.993 Y97.4 E1.59395
G1 X137.085 Y97.401 E1.59701
G1 X137.783 Y97.411 E1.62023
G1 X138.297 Y97.439 E1.63735
G1 X138.581 Y97.466 E1.64684
G1 X138.885 Y97.502 E1.65702
G1 X139.616 Y97.607 E1.68158
G1 X140.317 Y97.748 E1.70537
G1 X141.044 Y97.984 E1.73079
G1 X141.658 Y98.225 E1.75273
G1 X141.845 Y98.302 E1.75945
G1 X142.192 Y98.451 E1.77201
G1 X142.833 Y98.77 E1.79583
G1 X143.472 Y99.186 E1.82119
G1 X144.009 Y99.583 E1.8434
G1 X144.156 Y99.695 E1.84955
G1 X144.449 Y99.925 E1.86194
G1 X144.986 Y100.397 E1.88572
G1 X145.505 Y100.974 E1.91153
G1 X145.93 Y101.508 E1.93423
G1 X146.052 Y101.667 E1.94089
G1 X146.272 Y101.962 E1.95313
G1 X146.667 Y102.558 E1.97691
G1 X147.007 Y103.226 E2.00184
G1 X147.256 Y103.796 E2.02253
G1 X147.334 Y103.984 E2.0293
G1 X147.483 Y104.357 E2.04266
G1 X147.711 Y105.035 E2.06645
G1 X147.867 Y105.766 E2.09131
G1 X147.976 Y106.481 E2.11537
G1 X148.008 Y106.72 E2.12339
G1 X148.046 Y107.053 E2.13454
G1 X148.081 Y107.511 E2.14981
G1 X148.093 Y107.797 E2.15933
G1 X148.099 Y108.065 E2.16825
G1 X148.1 Y126.493 E2.78117
G1 X148.099 Y126.585 E2.78423
G1 X148.089 Y127.282 E2.80741
G1 X148.063 Y127.782 E2.82407
G1 X148.037 Y128.062 E2.83342
G1 X148 Y128.373 E2.84384
G1 X147.892 Y129.131 E2.8693
G1 X147.83 Y129.494 E2.88155
G1 X147.714 Y130.069 E2.90106
G1 X147.226 Y132.659 E2.98872
G1 X146.803 Y135.317 E3.07824
G1 X146.466 Y137.909 E3.16517
G1 X146.198 Y140.546 E3.25333
G1 X146.006 Y143.166 E3.34071
G1 X145.886 Y145.853 E3.43017
G1 X145.844 Y148.461 E3.51692
G1 X145.876 Y151.141 E3.60606
G1 X146.008 Y154.231 E3.70893
G1 X146.076 Y155.376 E3.74708
G1 X146.084 Y155.566 E3.75341
G1 X146.093 Y155.871 E3.76355
G1 X146.096 Y156.059 E3.76981
G1 X146.1 Y174.292 E4.37624
G1 X146.099 Y174.383 E4.37927
G1 X146.089 Y175.095 E4.40295
G1 X146.063 Y175.597 E4.41967
G1 X146.012 Y176.146 E4.43801
G1 X145.989 Y176.35 E4.44484
G1 X145.907 Y177.004 E4.46676
G1 X145.779 Y177.708 E4.49056
G1 X145.541 Y178.477 E4.51733
G1 X145.381 Y178.899 E4.53234
G1 X145.284 Y179.14 E4.54098
G1 X145.058 Y179.67 E4.56015
G1 X144.741 Y180.312 E4.58396
G1 X144.323 Y180.957 E4.60952
G1 X143.936 Y181.482 E4.63122
G1 X143.827 Y181.625 E4.6372
G1 X143.584 Y181.936 E4.65032
G1 X143.113 Y182.475 E4.67413
G1 X142.534 Y182.997 E4.70006
G1 X142.038 Y183.393 E4.72117
G1 X141.875 Y183.52 E4.72804
G1 X141.551 Y183.762 E4.74149
G1 X140.955 Y184.157 E4.76528
G1 X140.299 Y184.492 E4.78977
G1 X139.69 Y184.76 E4.8119
G1 X139.492 Y184.843 E4.81904
G1 X139.155 Y184.978 E4.83112
G1 X138.477 Y185.206 E4.85491
G1 X137.745 Y185.363 E4.87981
G1 X137.073 Y185.466 E4.90242
G1 X136.862 Y185.495 E4.90951
G1 X136.46 Y185.543 E4.92297
G1 X135.949 Y185.583 E4.94002
G1 X135.743 Y185.591 E4.94688
G1 X135.548 Y185.596 E4.95336
G1 X135.305 Y185.598 E4.96145
G1 X135.255 Y185.598 E4.96311
G1 X130.455 Y185.6 E5.12276
G1 X117.697 Y185.6 E5.54709
G1 X117.604 Y185.599 E5.55018
G1 X117.189 Y185.593 E5.56399
G1 X114.454 Y185.593 E5.65496
G1 X113.816 Y185.6 E5.67618
G1 X96.007 Y185.6 E6.26851
G1 X95.915 Y185.599 E6.27157
G1 X95.217 Y185.589 E6.29478
G1 X94.703 Y185.561 E6.31191
G1 X94.419 Y185.534 E6.32139
G1 X94.109 Y185.497 E6.33178
G1 X93.383 Y185.392 E6.35618
G1 X92.682 Y185.25 E6.37997
G1 X91.966 Y185.018 E6.405
G1 X91.335 Y184.771 E6.42754
G1 X91.141 Y184.691 E6.43452
G1 X90.799 Y184.544 E6.4469
G1 X90.158 Y184.225 E6.47071
G1 X89.519 Y183.808 E6.49609
G1 X88.992 Y183.418 E6.51789
G1 X88.833 Y183.297 E6.52454
G1 X88.529 Y183.057 E6.53742
G1 X87.994 Y182.583 E6.5612
G1 X87.486 Y182.017 E6.58649
G1 X87.086 Y181.514 E6.60787
G1 X86.961 Y181.353 E6.61465
G1 X86.725 Y181.036 E6.62779
G1 X86.331 Y180.439 E6.65158
G1 X85.988 Y179.762 E6.67682
G1 X85.725 Y179.156 E6.6988
G1 X85.653 Y178.982 E6.70506
G1 X85.514 Y178.634 E6.71752
G1 X85.286 Y177.956 E6.74131
G1 X85.128 Y177.211 E6.76664
G1 X85.026 Y176.532 E6.78948
G1 X84.998 Y176.323 E6.79649
G1 X84.956 Y175.963 E6.80855
G1 X84.918 Y175.474 E6.82486
G1 X84.906 Y175.171 E6.83495
G1 X84.901 Y174.918 E6.84336
G1 X84.9 Y156.702 E7.44923
G1 X84.901 Y156.61 E7.45229
G1 X84.911 Y155.913 E7.47548
G1 X84.937 Y155.413 E7.49213
G1 X84.992 Y154.821 E7.5119
G1 X85.015 Y154.618 E7.5187
G1 X85.096 Y153.971 E7.54039
G1 X85.151 Y153.612 E7.55247
G1 X85.204 Y153.323 E7.56224
G1 X85.219 Y153.242 E7.56498
G1 X85.641 Y151.096 E7.63772
G1 X86.075 Y148.518 E7.72467
G1 X86.44 Y145.881 E7.81322
G1 X86.728 Y143.276 E7.90039
G1 X86.945 Y140.613 E7.98925
G1 X87.085 Y137.975 E8.07711
G1 X87.151 Y135.33 E8.16512
G1 X87.142 Y132.697 E8.25269
G1 X86.987 Y128.697 E8.38583
G1 X86.921 Y127.579 E8.42308
G1 X86.914 Y127.416 E8.42851
G1 X86.905 Y127.15 E8.43736
G1 X86.901 Y126.934 E8.44454
G1 X86.9 Y108.507 E9.05743
G1 X86.901 Y108.415 E9.06049
G1 X86.911 Y107.717 E9.08371
G1 X86.938 Y107.215 E9.10043
G1 X86.964 Y106.936 E9.10975
G1 X86.999 Y106.637 E9.11976
G1 X87.101 Y105.913 E9.14408
G1 X87.24 Y105.212 E9.16785
G1 X87.479 Y104.471 E9.19374
G1 X87.731 Y103.828 E9.21671
G1 X87.807 Y103.644 E9.22333
G1 X87.947 Y103.317 E9.23517
G1 X88.264 Y102.676 E9.25895
G1 X88.688 Y102.026 E9.28476
G1 X89.094 Y101.478 E9.30745
G1 X89.199 Y101.339 E9.31324
G1 X89.424 Y101.052 E9.32537
G1 X89.896 Y100.515 E9.34915
G0 F3600 X90.197 Y100.78
G1 F1800 X90.727 Y100.305 E9.37282
G1 X91.259 Y99.882 E9.39543
G1 X91.409 Y99.766 E9.40173
G1 X91.703 Y99.547 E9.41393
G1 X92.281 Y99.166 E9.43695
G1 X92.881 Y98.863 E9.45931
G1 X93.452 Y98.613 E9.48004
G1 X93.637 Y98.535 E9.48672
G1 X94.006 Y98.388 E9.49993
G1 X94.664 Y98.169 E9.52299
G1 X95.331 Y98.029 E9.54566
G1 X96.059 Y97.919 E9.57015
G1 X96.265 Y97.892 E9.57706
G1 X96.602 Y97.853 E9.58834
G1 X97.092 Y97.816 E9.60469
G1 X97.422 Y97.805 E9.61567
G1 X97.619 Y97.802 E9.62222
G1 X102.413 Y97.8 E9.78167
G1 X115.324 Y97.8 E10.21109
G1 X115.41 Y97.801 E10.21395
G1 X115.83 Y97.807 E10.22792
G1 X118.575 Y97.807 E10.31922
G1 X119.2 Y97.8 E10.34001
G1 X136.993 Y97.8 E10.93181
G1 X137.079 Y97.801 E10.93467
G1 X137.777 Y97.811 E10.95789
G1 X138.259 Y97.837 E10.97394
G1 X138.543 Y97.864 E10.98343
G1 X138.828 Y97.898 E10.99298
G1 X139.559 Y98.003 E11.01754
G1 X140.238 Y98.141 E11.04059
G1 X140.898 Y98.357 E11.06368
G1 X141.512 Y98.598 E11.08562
G1 X141.687 Y98.67 E11.09192
G1 X142.034 Y98.819 E11.10448
G1 X142.654 Y99.128 E11.12752
G1 X143.234 Y99.507 E11.15056
G1 X143.771 Y99.904 E11.17277
G1 X143.909 Y100.009 E11.17854
G1 X144.202 Y100.239 E11.19093
G1 X144.721 Y100.698 E11.21397
G1 X145.192 Y101.223 E11.23743
G1 X145.617 Y101.757 E11.26013
G1 X145.732 Y101.906 E11.26639
G1 X145.952 Y102.201 E11.27863
G1 X146.333 Y102.779 E11.30166
G1 X146.64 Y103.386 E11.32428
G1 X146.889 Y103.956 E11.34497
G1 X146.963 Y104.132 E11.35132
G1 X147.112 Y104.505 E11.36468
G1 X147.331 Y105.162 E11.38771
G1 X147.471 Y105.827 E11.41031
G1 X147.58 Y106.542 E11.43437
G1 X147.61 Y106.766 E11.44189
G1 X147.648 Y107.099 E11.45303
G1 X147.682 Y107.527 E11.46731
G1 X147.694 Y107.813 E11.47684
G1 X147.699 Y108.065 E11.48522
G1 X147.7 Y126.493 E12.09814
G1 X147.699 Y126.579 E12.101
G1 X147.689 Y127.276 E12.12418
G1 X147.664 Y127.745 E12.1398
G1 X147.638 Y128.025 E12.14916
G1 X147.604 Y128.316 E12.1589
G1 X147.496 Y129.074 E12.18437
G1 X147.438 Y129.415 E12.19587
G1 X147.322 Y129.99 E12.21538
G1 X146.832 Y132.588 E12.30331
G1 X146.41 Y135.245 E12.39279
G1 X146.066 Y137.887 E12.48141
G1 X145.799 Y140.509 E12.56907
G1 X145.605 Y143.168 E12.65774
G1 X145.487 Y145.829 E12.74633
G1 X145.444 Y148.459 E12.83382
G1 X145.476 Y151.162 E12.92373
G1 X145.611 Y154.3 E13.02819
G1 X145.676 Y155.399 E13.06481
G1 X145.684 Y155.578 E13.07077
G1 X145.693 Y155.883 E13.08092
G1 X145.696 Y156.059 E13.08677
G1 X145.7 Y174.292 E13.69321
G1 X145.699 Y174.377 E13.69603
G1 X145.689 Y175.089 E13.71972
G1 X145.664 Y175.56 E13.73541
G1 X145.613 Y176.109 E13.75374
G1 X145.592 Y176.3 E13.76013
G1 X145.51 Y176.954 E13.78206
G1 X145.385 Y177.635 E13.80509
G1 X145.167 Y178.335 E13.82947
G1 X145.007 Y178.757 E13.84448
G1 X144.916 Y178.983 E13.85258
G1 X144.69 Y179.513 E13.87175
G1 X144.382 Y180.134 E13.8948
G1 X144.001 Y180.72 E13.91805
G1 X143.614 Y181.245 E13.93974
G1 X143.512 Y181.379 E13.94535
G1 X143.269 Y181.69 E13.95847
G1 X142.812 Y182.21 E13.9815
G1 X142.285 Y182.685 E14.00509
G1 X141.789 Y183.081 E14.0262
G1 X141.635 Y183.199 E14.03266
G1 X141.311 Y183.441 E14.04611
G1 X140.734 Y183.823 E14.06912
G1 X140.138 Y184.126 E14.09136
G1 X139.529 Y184.394 E14.11349
G1 X139.343 Y184.472 E14.1202
G1 X139.006 Y184.607 E14.13227
G1 X138.35 Y184.827 E14.15529
G1 X137.684 Y184.968 E14.17793
G1 X137.012 Y185.071 E14.20054
G1 X136.814 Y185.098 E14.20719
G1 X136.412 Y185.146 E14.22065
G1 X135.934 Y185.183 E14.2366
G1 X135.728 Y185.191 E14.24346
G1 X135.544 Y185.196 E14.24958
G1 X135.301 Y185.198 E14.25766
G1 X135.254 Y185.198 E14.25922
G1 X130.454 Y185.2 E14.41887
G1 X117.697 Y185.2 E14.84317
G1 X117.61 Y185.199 E14.84607
G1 X117.195 Y185.193 E14.85987
G1 X114.45 Y185.193 E14.95117
G1 X113.812 Y185.2 E14.97239
G1 X96.007 Y185.2 E15.56459
G1 X95.921 Y185.199 E15.56745
G1 X95.223 Y185.189 E15.59067
G1 X94.741 Y185.163 E15.60672
G1 X94.457 Y185.136 E15.61621
G1 X94.166 Y185.101 E15.62596
G1 X93.44 Y184.996 E15.65036
G1 X92.762 Y184.858 E15.67337
G1 X92.112 Y184.645 E15.69612
G1 X91.481 Y184.398 E15.71866
G1 X91.299 Y184.323 E15.7252
G1 X90.957 Y184.176 E15.73758
G1 X90.337 Y183.867 E15.76063
G1 X89.757 Y183.487 E15.78369
G1 X89.23 Y183.097 E15.80549
G1 X89.081 Y182.983 E15.81173
G1 X88.777 Y182.743 E15.82462
G1 X88.259 Y182.284 E15.84764
G1 X87.799 Y181.768 E15.87063
G1 X87.399 Y181.265 E15.892
G1 X87.282 Y181.114 E15.89836
G1 X87.046 Y180.797 E15.9115
G1 X86.665 Y180.219 E15.93452
G1 X86.355 Y179.603 E15.95746
G1 X86.092 Y178.997 E15.97943
G1 X86.024 Y178.834 E15.98531
G1 X85.885 Y178.486 E15.99777
G1 X85.666 Y177.829 E16.02081
G1 X85.524 Y177.151 E16.04384
G1 X85.422 Y176.472 E16.06668
G1 X85.395 Y176.276 E16.07326
G1 X85.353 Y175.916 E16.08532
G1 X85.318 Y175.458 E16.10059
G1 X85.306 Y175.155 E16.11068
G1 X85.301 Y174.918 E16.11856
G1 X85.3 Y156.702 E16.72443
G1 X85.301 Y156.616 E16.72729
G1 X85.311 Y155.919 E16.75048
G1 X85.336 Y155.45 E16.7661
G1 X85.391 Y154.858 E16.78587
G1 X85.411 Y154.668 E16.79223
G1 X85.492 Y154.021 E16.81391
G1 X85.544 Y153.684 E16.82526
G1 X85.597 Y153.395 E16.83503
G1 X85.612 Y153.319 E16.8376
G1 X86.028 Y151.203 E16.90933
G1 X86.471 Y148.567 E16.99823
G1 X86.835 Y145.944 E17.08631
G1 X87.129 Y143.284 E17.17532
G1 X87.342 Y140.665 E17.26272
G1 X87.486 Y137.955 E17.35298
G1 X87.551 Y135.319 E17.44068
G1 X87.542 Y132.679 E17.52849
G1 X87.386 Y128.658 E17.66233
G1 X87.321 Y127.555 E17.69908
G1 X87.313 Y127.403 E17.70414
G1 X87.304 Y127.137 E17.71299
G1 X87.301 Y126.934 E17.71974
G1 X87.3 Y108.507 E18.33263
G1 X87.301 Y108.421 E18.33549
G1 X87.311 Y107.723 E18.35871
G1 X87.336 Y107.252 E18.37439
G1 X87.362 Y106.973 E18.38371
G1 X87.395 Y106.693 E18.39309
G1 X87.497 Y105.969 E18.41741
G1 X87.633 Y105.29 E18.44044
G1 X87.852 Y104.617 E18.46398
G1 X88.104 Y103.974 E18.48695
G1 X88.174 Y103.802 E18.49313
G1 X88.314 Y103.475 E18.50496
G1 X88.623 Y102.855 E18.528
G1 X89.009 Y102.264 E18.55148
G1 X89.415 Y101.716 E18.57416
G1 X89.514 Y101.586 E18.5796
G1 X89.739 Y101.299 E18.59172
G1 X90.197 Y100.78 E18.61475
G0 F3600 X90.497 Y101.045
G1 F1800 X90.976 Y100.618 E18.63609
G1 X91.508 Y100.195 E18.6587
G1 X91.648 Y100.087 E18.66458
G1 X91.942 Y99.868 E18.67677
G1 X92.501 Y99.501 E18.69901
G1 X93.041 Y99.229 E18.71912
G1 X93.612 Y98.979 E18.73985
G1 X93.786 Y98.907 E18.74612
G1 X94.155 Y98.76 E18.75933
G1 X94.79 Y98.55 E18.78157
G1 X95.39 Y98.425 E18.80196
G1 X96.118 Y98.315 E18.82645
G1 X96.311 Y98.289 E18.83292
G1 X96.648 Y98.25 E18.84421
G1 X97.105 Y98.216 E18.85945
G1 X97.435 Y98.205 E18.87043
G1 X97.62 Y98.202 E18.87658
G1 X102.414 Y98.2 E19.03603
G1 X115.324 Y98.2 E19.46542
G1 X115.404 Y98.201 E19.46808
G1 X115.824 Y98.207 E19.48205
G1 X118.579 Y98.207 E19.57369
G1 X119.204 Y98.2 E19.59447
G1 X136.993 Y98.2 E20.18614
G1 X137.073 Y98.201 E20.1888
G1 X137.771 Y98.211 E20.21202
G1 X138.221 Y98.235 E20.22701
G1 X138.505 Y98.262 E20.23649
G1 X138.771 Y98.294 E20.24541
G1 X139.502 Y98.399 E20.26997
G1 X140.158 Y98.533 E20.29224
G1 X140.752 Y98.729 E20.31304
G1 X141.366 Y98.97 E20.33498
G1 X141.53 Y99.037 E20.34087
G1 X141.877 Y99.186 E20.35343
G1 X142.474 Y99.487 E20.37567
G1 X142.996 Y99.829 E20.39643
G1 X143.533 Y100.226 E20.41864
G1 X143.662 Y100.324 E20.42403
G1 X143.955 Y100.554 E20.43641
G1 X144.455 Y100.998 E20.45866
G1 X144.879 Y101.472 E20.47981
G1 X145.304 Y102.006 E20.50251
G1 X145.411 Y102.145 E20.50834
G1 X145.631 Y102.44 E20.52058
G1 X145.998 Y102.999 E20.54282
G1 X146.274 Y103.546 E20.5632
G1 X146.523 Y104.116 E20.58389
G1 X146.591 Y104.281 E20.58982
G1 X146.74 Y104.654 E20.60318
G1 X146.951 Y105.289 E20.62544
G1 X147.076 Y105.887 E20.64576
G1 X147.185 Y106.602 E20.66981
G1 X147.213 Y106.811 E20.67683
G1 X147.251 Y107.144 E20.68798
G1 X147.282 Y107.544 E20.70132
G1 X147.294 Y107.83 E20.71084
G1 X147.299 Y108.065 E20.71866
G1 X147.3 Y126.493 E21.33158
G1 X147.299 Y126.573 E21.33424
G1 X147.289 Y127.27 E21.35742
G1 X147.266 Y127.708 E21.37201
G1 X147.24 Y127.988 E21.38136
G1 X147.208 Y128.26 E21.39047
G1 X147.1 Y129.018 E21.41594
G1 X147.045 Y129.335 E21.42664
G1 X146.943 Y129.84 E21.44377
G1 X146.437 Y132.522 E21.53455
G1 X146.012 Y135.197 E21.62464
G1 X145.669 Y137.832 E21.71302
G1 X145.401 Y140.476 E21.80141
G1 X145.205 Y143.155 E21.89075
G1 X145.087 Y145.806 E21.97901
G1 X145.044 Y148.457 E22.06719
G1 X145.076 Y151.152 E22.15684
G1 X145.213 Y154.342 E22.26303
G1 X145.277 Y155.423 E22.29905
G1 X145.285 Y155.59 E22.30461
G1 X145.294 Y155.895 E22.31476
G1 X145.296 Y156.059 E22.32022
G1 X145.3 Y174.292 E22.92665
G1 X145.299 Y174.372 E22.92931
G1 X145.289 Y175.084 E22.95299
G1 X145.266 Y175.523 E22.96761
G1 X145.215 Y176.072 E22.98595
G1 X145.195 Y176.251 E22.99194
G1 X145.113 Y176.905 E23.01387
G1 X144.991 Y177.562 E23.03609
G1 X144.793 Y178.193 E23.05809
G1 X144.633 Y178.615 E23.0731
G1 X144.548 Y178.827 E23.08069
G1 X144.322 Y179.357 E23.09986
G1 X144.024 Y179.955 E23.12208
G1 X143.679 Y180.483 E23.14306
G1 X143.292 Y181.008 E23.16475
G1 X143.197 Y181.133 E23.16997
G1 X142.954 Y181.444 E23.1831
G1 X142.511 Y181.946 E23.20537
G1 X142.035 Y182.372 E23.22662
G1 X141.539 Y182.768 E23.24773
G1 X141.396 Y182.879 E23.25375
G1 X141.072 Y183.121 E23.2672
G1 X140.513 Y183.488 E23.28944
G1 X139.977 Y183.76 E23.30943
G1 X139.368 Y184.028 E23.33156
G1 X139.194 Y184.1 E23.33782
G1 X138.857 Y184.235 E23.3499
G1 X138.223 Y184.447 E23.37213
G1 X137.623 Y184.572 E23.39252
G1 X136.951 Y184.675 E23.41513
