;FLAVOR:Marlin
;TIME:17426
;Filament used: 12.7546m
;Layer height: 0.2
;MINX:23.039
;MINY:59.251
;MINZ:0.2
;MAXX:196.934
;MAXY:160.737
;MAXZ:20.2
;Generated with Cura_SteamEngine 4.2.1
M140 S60
M105
M190 S60
M104 S200
M105
M109 S200
M82 ;absolute extrusion mode
M201 X500.00 Y500.00 Z100.00 E5000.00 ;Setup machine max acceleration
M203 X500.00 Y500.00 Z10.00 E50.00 ;Setup machine max feedrate
M204 P500.00 R1000.00 T500.00 ;Setup Print/Retract/Travel acceleration
M205 X8.00 Y8.00 Z0.40 E5.00 ;Setup Jerk
M220 S100 ;Reset Feedrate
M221 S100 ;Reset Flowrate

G28 ;Home

G92 E0 ;Reset Extruder
G1 Z2.0 F3000 ;Move Z Axis up
G1 X10.1 Y20 Z0.28 F5000.0 ;Move to start position
G1 X10.1 Y200.0 Z0.28 F1500.0 E15 ;Draw the first line
G1 X10.4 Y200.0 Z0.28 F5000.0 ;Move to side a little
G1 X10.4 Y20 Z0.28 F1500.0 E30 ;Draw the second line
G92 E0 ;Reset Extruder
G1 Z2.0 F3000 ;Move Z Axis up

G92 E0
G92 E0
G1 F3600 E-7
;LAYER_COUNT:100
;LAYER:0
M107
G0 F6000 X45.268 Y68.193 Z0.2
;TYPE:SKIRT
G1 F3600 E0
G1 F1200 X45.411 Y68.099 E0.00626
G1 X46.742 Y67.24 E0.06422
G1 X46.862 Y67.164 E0.06941
G1 X47.475 Y66.779 E0.0959
G1 X47.787 Y66.589 E0.10926
G1 X48.011 Y66.458 E0.11876
G1 X48.308 Y66.291 E0.13122
G1 X50.041 Y65.345 E0.20346
G1 X50.193 Y65.263 E0.20978
G1 X50.738 Y64.976 E0.23231
G1 X51.04 Y64.823 E0.2447
G1 X51.33 Y64.681 E0.25651
G1 X51.632 Y64.538 E0.26874
G1 X53.283 Y63.788 E0.33508
G1 X53.453 Y63.713 E0.34188
G1 X54.161 Y63.405 E0.37013
G1 X54.436 Y63.289 E0.38105
G1 X54.656 Y63.2 E0.38973
G1 X55 Y63.068 E0.40321
G1 X56.835 Y62.393 E0.47474
G1 X56.995 Y62.335 E0.48097
G1 X57.63 Y62.112 E0.50559
G1 X58.064 Y61.969 E0.52231
G1 X58.526 Y61.827 E0.53999
G1 X58.753 Y61.76 E0.54865
G1 X60.395 Y61.292 E0.61112
G1 X60.565 Y61.245 E0.61757
G1 X61.224 Y61.068 E0.64254
G1 X61.524 Y60.992 E0.65386
G1 X61.824 Y60.92 E0.66515
G1 X62.173 Y60.842 E0.67823
G1 X63.99 Y60.465 E0.74613
G1 X64.144 Y60.434 E0.75187
G1 X64.858 Y60.296 E0.77848
G1 X65.209 Y60.233 E0.79153
G1 X65.432 Y60.197 E0.79979
G1 X65.697 Y60.158 E0.80959
G1 X65.944 Y60.124 E0.81871
G1 X66.036 Y60.112 E0.82211
G1 X67.689 Y59.898 E0.88309
G1 X67.852 Y59.878 E0.8891
G1 X68.591 Y59.793 E0.91631
G1 X68.916 Y59.76 E0.92826
G1 X69.182 Y59.737 E0.93803
G1 X69.543 Y59.711 E0.95127
G1 X72.291 Y59.56 E1.05196
G1 X73.041 Y59.544 E1.07941
G1 X74.066 Y59.554 E1.11691
G1 X75.105 Y59.559 E1.15493
G1 X77.672 Y59.558 E1.24884
G1 X77.682 Y59.558 E1.24921
G1 X92.241 Y59.566 E1.78187
G1 X139.974 Y59.563 E3.52823
G1 X142.592 Y59.525 E3.62402
G1 X145.032 Y59.421 E3.71338
G1 X145.766 Y59.365 E3.74031
G1 X145.977 Y59.351 E3.74804
G1 X147.391 Y59.27 E3.79986
G1 X148.051 Y59.251 E3.82402
G1 X148.471 Y59.251 E3.83939
G1 X149.28 Y59.279 E3.869
G1 X149.579 Y59.3 E3.87997
G1 X150.072 Y59.346 E3.89808
G1 X150.75 Y59.423 E3.92305
G1 X151.756 Y59.582 E3.96031
G1 X152.197 Y59.672 E3.97678
G1 X152.313 Y59.696 E3.98111
G1 X154.709 Y60.211 E4.07077
G1 X155.69 Y60.405 E4.10736
G1 X155.785 Y60.424 E4.1109
G1 X157.376 Y60.753 E4.17034
G1 X157.532 Y60.787 E4.17619
G1 X158.237 Y60.943 E4.2026
G1 X158.587 Y61.026 E4.21576
G1 X158.882 Y61.101 E4.2269
G1 X159.193 Y61.184 E4.23868
G1 X160.988 Y61.694 E4.30695
G1 X161.162 Y61.745 E4.31358
G1 X161.826 Y61.945 E4.33895
G1 X162.125 Y62.04 E4.35043
G1 X162.421 Y62.138 E4.36184
G1 X162.755 Y62.254 E4.37477
G1 X164.531 Y62.903 E4.44395
G1 X164.681 Y62.959 E4.44981
G1 X165.3 Y63.195 E4.47405
G1 X165.724 Y63.366 E4.49078
G1 X166.199 Y63.569 E4.50967
G1 X166.425 Y63.669 E4.51872
G1 X167.922 Y64.347 E4.57884
G1 X168.065 Y64.413 E4.5846
G1 X168.736 Y64.728 E4.61172
G1 X169.008 Y64.86 E4.62278
G1 X169.281 Y64.997 E4.63396
G1 X169.62 Y65.174 E4.64795
G1 X171.243 Y66.057 E4.71555
G1 X171.374 Y66.129 E4.72102
G1 X171.989 Y66.474 E4.74682
G1 X172.319 Y66.667 E4.7608
G1 X172.58 Y66.825 E4.77197
G1 X172.85 Y66.994 E4.78362
G1 X174.461 Y68.031 E4.85372
G1 X174.608 Y68.127 E4.86014
G1 X175.137 Y68.479 E4.88339
G1 X175.424 Y68.676 E4.89612
G1 X175.648 Y68.835 E4.90617
G1 X175.843 Y68.977 E4.915
G1 X176.056 Y69.135 E4.9247
G1 X176.143 Y69.2 E4.92867
G1 X177.482 Y70.213 E4.9901
G1 X177.604 Y70.306 E4.99571
G1 X178.148 Y70.729 E5.02093
G1 X178.418 Y70.946 E5.0336
G1 X178.678 Y71.161 E5.04594
G1 X178.93 Y71.375 E5.05804
G1 X180.289 Y72.566 E5.12415
G1 X180.418 Y72.681 E5.13047
G1 X180.945 Y73.157 E5.15646
G1 X181.185 Y73.38 E5.16844
G1 X181.39 Y73.576 E5.17882
G1 X181.646 Y73.829 E5.19199
G1 X182.999 Y75.206 E5.26261
G1 X183.115 Y75.326 E5.26872
G1 X183.578 Y75.811 E5.29325
G1 X183.796 Y76.045 E5.30495
G1 X183.982 Y76.251 E5.31511
G1 X184.22 Y76.523 E5.32833
G1 X185.467 Y77.994 E5.39888
G1 X185.572 Y78.119 E5.40486
G1 X185.997 Y78.635 E5.42931
G1 X186.196 Y78.884 E5.44098
G1 X186.354 Y79.087 E5.45039
G1 X186.53 Y79.32 E5.46107
G1 X186.705 Y79.557 E5.47185
G1 X186.759 Y79.63 E5.47517
G1 X187.709 Y80.938 E5.53432
G1 X187.797 Y81.061 E5.53985
G1 X188.216 Y81.654 E5.56642
G1 X188.414 Y81.944 E5.57926
G1 X188.551 Y82.151 E5.58834
G1 X188.733 Y82.434 E5.60065
G1 X189.754 Y84.079 E5.67149
G1 X189.851 Y84.238 E5.6783
G1 X190.197 Y84.816 E5.70295
G1 X190.336 Y85.055 E5.71306
G1 X190.468 Y85.288 E5.72286
G1 X190.623 Y85.571 E5.73467
G1 X190.72 Y85.754 E5.74224
G1 X190.758 Y85.827 E5.74526
G1 X191.551 Y87.349 E5.80804
G1 X191.622 Y87.487 E5.81372
G1 X191.933 Y88.104 E5.839
G1 X192.087 Y88.422 E5.85193
G1 X192.204 Y88.673 E5.86206
G1 X192.341 Y88.977 E5.87426
G1 X193.088 Y90.708 E5.94324
G1 X193.15 Y90.854 E5.94904
G1 X193.417 Y91.497 E5.97451
G1 X193.548 Y91.829 E5.98757
G1 X193.655 Y92.111 E5.9986
G1 X193.77 Y92.426 E6.01087
G1 X194.391 Y94.218 E6.08026
G1 X194.446 Y94.383 E6.08662
G1 X194.663 Y95.041 E6.11197
G1 X194.762 Y95.354 E6.12398
G1 X194.842 Y95.622 E6.13422
G1 X194.938 Y95.962 E6.14714
G1 X195.423 Y97.789 E6.2163
G1 X195.472 Y97.982 E6.22358
G1 X195.639 Y98.658 E6.24906
G1 X195.699 Y98.915 E6.25872
G1 X195.767 Y99.22 E6.27015
G1 X195.845 Y99.596 E6.2842
G1 X196.19 Y101.429 E6.35244
G1 X196.221 Y101.599 E6.35876
G1 X196.339 Y102.282 E6.38412
G1 X196.408 Y102.737 E6.40096
G1 X196.474 Y103.237 E6.41941
G1 X196.502 Y103.467 E6.42788
G1 X196.682 Y105.08 E6.48726
G1 X196.699 Y105.25 E6.49351
G1 X196.771 Y105.995 E6.5209
G1 X196.798 Y106.317 E6.53272
G1 X196.819 Y106.624 E6.54398
G1 X196.838 Y106.97 E6.55666
G1 X196.909 Y108.824 E6.62454
G1 X196.914 Y108.997 E6.63087
G1 X196.931 Y109.726 E6.65755
G1 X196.934 Y110.036 E6.66889
G1 X196.933 Y110.317 E6.67917
G1 X196.925 Y110.698 E6.69311
G1 X196.856 Y112.583 E6.76212
G1 X196.849 Y112.74 E6.76787
G1 X196.813 Y113.456 E6.7941
G1 X196.792 Y113.788 E6.80627
G1 X196.773 Y114.028 E6.81508
G1 X196.749 Y114.291 E6.82474
G1 X196.726 Y114.516 E6.83302
G1 X196.715 Y114.622 E6.83692
G1 X196.529 Y116.288 E6.89825
G1 X196.511 Y116.441 E6.90389
G1 X196.421 Y117.16 E6.9304
G1 X196.375 Y117.485 E6.9424
G1 X196.332 Y117.764 E6.95273
G1 X196.273 Y118.112 E6.96565
G1 X195.932 Y119.949 E7.034
G1 X195.899 Y120.119 E7.04034
G1 X195.758 Y120.82 E7.0665
G1 X195.683 Y121.168 E7.07952
G1 X195.623 Y121.425 E7.08918
G1 X195.544 Y121.743 E7.10117
G1 X195.047 Y123.628 E7.17249
G1 X195.001 Y123.797 E7.1789
G1 X194.821 Y124.44 E7.20333
G1 X194.729 Y124.751 E7.21519
G1 X194.652 Y124.999 E7.22469
G1 X194.579 Y125.226 E7.23342
G1 X194.496 Y125.475 E7.24302
G1 X194.455 Y125.595 E7.24766
G1 X193.908 Y127.178 E7.30894
G1 X193.852 Y127.336 E7.31507
G1 X193.62 Y127.977 E7.34001
G1 X193.514 Y128.26 E7.35107
G1 X193.409 Y128.528 E7.3616
G1 X193.265 Y128.878 E7.37544
G1 X192.508 Y130.638 E7.44554
G1 X192.438 Y130.797 E7.45189
G1 X192.17 Y131.395 E7.47587
G1 X192.045 Y131.665 E7.48675
G1 X191.905 Y131.957 E7.4986
G1 X191.736 Y132.294 E7.51239
G1 X190.864 Y133.97 E7.58152
G1 X190.784 Y134.121 E7.58777
G1 X190.475 Y134.694 E7.61159
G1 X190.312 Y134.987 E7.62385
G1 X190.159 Y135.252 E7.63505
G1 X189.983 Y135.546 E7.64758
G1 X188.972 Y137.183 E7.71798
G1 X188.88 Y137.33 E7.72432
G1 X188.532 Y137.875 E7.74798
G1 X188.341 Y138.164 E7.76065
G1 X188.159 Y138.431 E7.77248
G1 X187.964 Y138.709 E7.7849
G1 X186.858 Y140.233 E7.85379
G1 X186.752 Y140.376 E7.8603
G1 X186.339 Y140.927 E7.8855
G1 X186.14 Y141.185 E7.89742
G1 X185.966 Y141.404 E7.90765
G1 X185.812 Y141.594 E7.9166
G1 X185.656 Y141.782 E7.92554
G1 X185.583 Y141.869 E7.92969
G1 X184.585 Y143.048 E7.98621
G1 X184.477 Y143.173 E7.99225
G1 X183.908 Y143.826 E8.02394
G1 X183.721 Y144.036 E8.03423
G1 X183.57 Y144.201 E8.04241
G1 X183.301 Y144.485 E8.05672
G1 X181.962 Y145.852 E8.12673
G1 X181.837 Y145.978 E8.13322
G1 X181.332 Y146.478 E8.15922
G1 X181.14 Y146.664 E8.169
G1 X180.976 Y146.819 E8.17726
G1 X180.668 Y147.099 E8.19249
G1 X179.238 Y148.356 E8.26215
G1 X179.092 Y148.482 E8.2692
G1 X178.559 Y148.935 E8.29479
G1 X178.35 Y149.109 E8.30474
G1 X178.092 Y149.318 E8.31689
G1 X177.794 Y149.552 E8.33075
G1 X176.275 Y150.702 E8.40046
G1 X176.129 Y150.81 E8.4071
G1 X175.598 Y151.199 E8.43118
G1 X175.316 Y151.399 E8.44383
G1 X175.124 Y151.531 E8.45236
G1 X174.918 Y151.669 E8.46143
G1 X174.691 Y151.818 E8.47136
G1 X174.619 Y151.866 E8.47453
G1 X173.219 Y152.77 E8.5355
G1 X173.087 Y152.854 E8.54122
G1 X172.479 Y153.235 E8.56748
G1 X172.184 Y153.413 E8.58008
G1 X171.945 Y153.553 E8.59022
G1 X171.632 Y153.73 E8.60337
G1 X169.943 Y154.65 E8.67374
G1 X169.811 Y154.721 E8.67922
G1 X169.22 Y155.033 E8.70367
G1 X168.894 Y155.199 E8.71706
G1 X168.642 Y155.322 E8.72732
G1 X168.349 Y155.46 E8.73916
G1 X166.672 Y156.221 E8.80654
G1 X166.447 Y156.32 E8.81553
G1 X165.532 Y156.712 E8.85195
G1 X164.964 Y156.937 E8.87431
G1 X163.133 Y157.609 E8.94566
G1 X162.989 Y157.661 E8.95127
G1 X162.364 Y157.881 E8.97551
G1 X162.023 Y157.995 E8.98866
G1 X161.752 Y158.081 E8.99906
G1 X161.434 Y158.177 E9.01122
G1 X159.588 Y158.705 E9.08146
G1 X159.408 Y158.755 E9.0883
G1 X158.749 Y158.932 E9.11326
G1 X158.445 Y159.009 E9.12474
G1 X158.157 Y159.078 E9.13557
G1 X157.81 Y159.156 E9.14858
G1 X155.948 Y159.542 E9.21816
G1 X155.776 Y159.576 E9.22457
G1 X155.05 Y159.715 E9.25161
G1 X151.661 Y160.418 E9.37824
G1 X150.743 Y160.571 E9.41229
G1 X150.478 Y160.604 E9.42206
G1 X149.998 Y160.653 E9.43972
G1 X149.548 Y160.69 E9.45624
G1 X148.837 Y160.727 E9.48228
G1 X148.346 Y160.737 E9.50025
G1 X147.368 Y160.715 E9.53604
G1 X146.398 Y160.652 E9.5716
G1 X143.85 Y160.514 E9.66496
G1 X140.189 Y160.44 E9.79893
G1 X129.731 Y160.434 E10.18155
G1 X92.284 Y160.433 E11.55159
G1 X75.071 Y160.44 E12.18135
G1 X74.369 Y160.451 E12.20704
G1 X74.226 Y160.452 E12.21227
G1 X73.005 Y160.456 E12.25694
G1 X72.439 Y160.444 E12.27765
G1 X71.762 Y160.413 E12.30245
G1 X71.648 Y160.407 E12.30662
G1 X69.978 Y160.314 E12.36782
G1 X69.813 Y160.304 E12.37386
G1 X69.057 Y160.251 E12.40159
G1 X68.724 Y160.223 E12.41382
G1 X68.442 Y160.195 E12.42419
G1 X68.101 Y160.156 E12.43674
G1 X66.215 Y159.912 E12.50632
G1 X66.052 Y159.889 E12.51234
G1 X65.406 Y159.796 E12.53622
G1 X65.058 Y159.741 E12.54911
G1 X64.824 Y159.7 E12.5578
G1 X64.589 Y159.656 E12.56655
G1 X64.345 Y159.608 E12.57565
G1 X64.237 Y159.586 E12.57968
G1 X62.611 Y159.25 E12.64043
G1 X62.457 Y159.217 E12.64619
G1 X61.728 Y159.056 E12.6735
G1 X61.378 Y158.973 E12.68666
G1 X61.118 Y158.907 E12.69648
G1 X60.802 Y158.822 E12.70845
G1 X59.043 Y158.322 E12.77535
G1 X58.886 Y158.277 E12.78133
G1 X58.125 Y158.049 E12.81039
G1 X57.788 Y157.942 E12.82333
G1 X57.539 Y157.859 E12.83293
G1 X57.223 Y157.749 E12.84517
G1 X55.438 Y157.096 E12.91471
G1 X55.288 Y157.039 E12.92058
G1 X54.654 Y156.797 E12.94541
G1 X54.226 Y156.624 E12.9623
G1 X53.766 Y156.427 E12.98061
G1 X53.548 Y156.331 E12.98932
G1 X52.051 Y155.653 E13.04945
G1 X51.908 Y155.587 E13.05521
G1 X51.237 Y155.272 E13.08233
G1 X50.965 Y155.14 E13.09339
G1 X50.692 Y155.003 E13.10457
G1 X50.351 Y154.825 E13.11864
G1 X48.679 Y153.915 E13.18829
G1 X48.542 Y153.839 E13.19402
G1 X47.978 Y153.522 E13.21769
G1 X47.579 Y153.287 E13.23463
G1 X47.131 Y153.011 E13.25388
G1 X46.926 Y152.882 E13.26274
G1 X45.564 Y152.003 E13.32205
G1 X45.44 Y151.921 E13.32749
G1 X44.851 Y151.53 E13.35335
G1 X44.546 Y151.321 E13.36688
G1 X44.29 Y151.139 E13.37837
G1 X44.023 Y150.944 E13.39047
G1 X42.484 Y149.782 E13.46102
G1 X42.366 Y149.691 E13.46647
G1 X41.827 Y149.273 E13.49143
G1 X41.531 Y149.036 E13.5053
G1 X41.308 Y148.851 E13.5159
G1 X41.07 Y148.648 E13.52735
G1 X39.703 Y147.45 E13.59385
G1 X39.577 Y147.337 E13.60004
G1 X39.012 Y146.827 E13.62789
G1 X38.777 Y146.61 E13.63959
G1 X38.602 Y146.443 E13.64844
G1 X38.409 Y146.254 E13.65832
G1 X38.255 Y146.1 E13.66629
G1 X38.175 Y146.019 E13.67046
G1 X36.975 Y144.795 E13.73317
G1 X36.861 Y144.677 E13.73917
G1 X36.354 Y144.145 E13.76606
G1 X36.13 Y143.904 E13.7781
G1 X35.968 Y143.724 E13.78696
G1 X35.742 Y143.465 E13.79953
G1 X34.498 Y141.997 E13.86993
G1 X34.396 Y141.875 E13.87575
G1 X33.965 Y141.352 E13.90054
G1 X33.757 Y141.092 E13.91273
G1 X33.59 Y140.877 E13.92269
G1 X33.372 Y140.587 E13.93596
G1 X32.259 Y139.057 E14.00518
G1 X32.154 Y138.91 E14.01179
G1 X31.757 Y138.346 E14.03702
G1 X31.576 Y138.08 E14.0488
G1 X31.399 Y137.813 E14.06052
G1 X31.208 Y137.515 E14.07347
G1 X30.211 Y135.906 E14.14272
G1 X30.114 Y135.748 E14.1495
G1 X29.771 Y135.174 E14.17397
G1 X29.629 Y134.928 E14.18436
G1 X29.485 Y134.673 E14.19507
G1 X29.303 Y134.338 E14.20902
G1 X28.422 Y132.65 E14.27868
G1 X28.347 Y132.505 E14.28466
G1 X28.038 Y131.892 E14.30977
G1 X27.881 Y131.569 E14.32291
G1 X27.766 Y131.322 E14.33288
G1 X27.631 Y131.019 E14.34501
G1 X26.877 Y129.27 E14.4147
G1 X26.815 Y129.125 E14.42047
G1 X26.549 Y128.484 E14.44586
G1 X26.424 Y128.169 E14.45826
G1 X26.312 Y127.875 E14.46977
G1 X26.189 Y127.537 E14.48293
G1 X25.581 Y125.778 E14.55102
G1 X25.524 Y125.608 E14.55758
G1 X25.304 Y124.938 E14.58338
G1 X25.217 Y124.662 E14.59396
G1 X25.137 Y124.396 E14.60413
G1 X25.034 Y124.033 E14.61793
G1 X24.553 Y122.221 E14.68652
G1 X24.509 Y122.048 E14.69305
G1 X24.33 Y121.329 E14.72016
G1 X24.264 Y121.05 E14.73065
G1 X24.213 Y120.821 E14.73923
G1 X24.153 Y120.535 E14.74993
G1 X24.11 Y120.316 E14.75809
G1 X24.09 Y120.213 E14.76193
G1 X23.779 Y118.549 E14.82386
G1 X23.751 Y118.388 E14.82984
G1 X23.633 Y117.703 E14.85527
G1 X23.58 Y117.37 E14.86761
G1 X23.541 Y117.096 E14.87774
G1 X23.498 Y116.759 E14.89016
G1 X23.289 Y114.9 E14.95861
G1 X23.271 Y114.728 E14.96493
G1 X23.197 Y113.967 E14.99291
G1 X23.162 Y113.51 E15.00968
G1 X23.136 Y113.056 E15.02631
G1 X23.125 Y112.826 E15.03474
G1 X23.063 Y111.163 E15.09562
G1 X23.058 Y110.984 E15.10217
G1 X23.042 Y110.25 E15.12903
G1 X23.039 Y109.962 E15.13957
G1 X23.04 Y109.649 E15.15102
G1 X23.048 Y109.261 E15.16522
G1 X23.116 Y107.418 E15.2327
G1 X23.123 Y107.25 E15.23885
G1 X23.161 Y106.511 E15.26592
G1 X23.182 Y106.196 E15.27747
G1 X23.2 Y105.968 E15.28584
G1 X23.224 Y105.701 E15.29565
G1 X23.246 Y105.486 E15.30355
G1 X23.258 Y105.376 E15.3076
G1 X23.445 Y103.707 E15.36905
G1 X23.463 Y103.555 E15.37465
G1 X23.554 Y102.83 E15.40138
G1 X23.598 Y102.512 E15.41312
G1 X23.64 Y102.239 E15.42323
G1 X23.7 Y101.888 E15.43626
G1 X24.041 Y100.051 E15.50462
G1 X24.076 Y99.87 E15.51136
G1 X24.222 Y99.148 E15.53831
G1 X24.292 Y98.826 E15.55037
G1 X24.347 Y98.589 E15.55927
G1 X24.429 Y98.256 E15.57181
G1 X24.925 Y96.375 E15.64299
G1 X24.967 Y96.221 E15.64883
G1 X25.15 Y95.564 E15.67378
G1 X25.248 Y95.23 E15.68651
G1 X25.328 Y94.973 E15.69636
G1 X25.437 Y94.641 E15.70914
G1 X26.056 Y92.846 E15.77861
G1 X26.112 Y92.689 E15.78471
G1 X26.351 Y92.027 E15.81046
G1 X26.471 Y91.71 E15.82286
G1 X26.574 Y91.449 E15.83313
G1 X26.708 Y91.124 E15.84599
G1 X27.461 Y89.374 E15.91569
G1 X27.527 Y89.223 E15.92172
G1 X27.803 Y88.606 E15.94645
G1 X27.935 Y88.322 E15.95791
G1 X28.069 Y88.043 E15.96923
G1 X28.236 Y87.708 E15.98292
G1 X29.112 Y86.026 E16.05231
G1 X29.184 Y85.89 E16.05794
G1 X29.51 Y85.284 E16.08311
G1 X29.682 Y84.977 E16.09599
G1 X29.834 Y84.714 E16.1071
G1 X30.01 Y84.418 E16.1197
G1 X30.984 Y82.843 E16.18745
G1 X31.07 Y82.706 E16.19337
G1 X31.456 Y82.101 E16.21963
G1 X31.716 Y81.712 E16.23675
G1 X31.98 Y81.333 E16.25364
G1 X32.116 Y81.142 E16.26222
G1 X33.121 Y79.76 E16.32474
G1 X33.216 Y79.631 E16.3306
G1 X33.639 Y79.066 E16.35642
G1 X33.816 Y78.836 E16.36704
G1 X33.969 Y78.642 E16.37608
