;FLAVOR:Marlin
;TIME:5335
;Filament used: 2.32649m
;Layer height: 0.2
;MINX:63.207
;MINY:93.219
;MINZ:0.2
;MAXX:156.793
;MAXY:126.274
;MAXZ:18.4
;Generated with Cura_SteamEngine 4.2.1
M140 S60
M105
M190 S60
M104 S200
M105
M109 S200
M82 ;absolute extrusion mode
M201 X500.00 Y500.00 Z100.00 E5000.00 ;Setup machine max acceleration
M203 X500.00 Y500.00 Z10.00 E50.00 ;Setup machine max feedrate
M204 P500.00 R1000.00 T500.00 ;Setup Print/Retract/Travel acceleration
M205 X8.00 Y8.00 Z0.40 E5.00 ;Setup Jerk
M220 S100 ;Reset Feedrate
M221 S100 ;Reset Flowrate

G28 ;Home

G92 E0 ;Reset Extruder
G1 Z2.0 F3000 ;Move Z Axis up
G1 X10.1 Y20 Z0.28 F5000.0 ;Move to start position
G1 X10.1 Y200.0 Z0.28 F1500.0 E15 ;Draw the first line
G1 X10.4 Y200.0 Z0.28 F5000.0 ;Move to side a little
G1 X10.4 Y20 Z0.28 F1500.0 E30 ;Draw the second line
G92 E0 ;Reset Extruder
G1 Z2.0 F3000 ;Move Z Axis up

G92 E0
G92 E0
G1 F3600 E-7
;LAYER_COUNT:92
;LAYER:0
M107
G0 F6000 X68.963 Y95.469 Z0.2
;TYPE:SKIRT
G1 F3600 E0
G1 F1200 X69.782 Y94.968 E0.03513
G1 X70.278 Y94.709 E0.0556
G1 X70.742 Y94.48 E0.07453
G1 X71.62 Y94.091 E0.10966
G1 X72.528 Y93.776 E0.14483
G1 X73.458 Y93.538 E0.17995
G1 X74.091 Y93.423 E0.20348
G1 X74.396 Y93.376 E0.21478
G1 X75.439 Y93.263 E0.25316
G1 X75.729 Y93.245 E0.26379
G1 X76.326 Y93.224 E0.28564
G1 X76.62 Y93.221 E0.2964
G1 X76.738 Y93.22 E0.30072
G1 X143.046 Y93.219 E2.72667
G1 X143.211 Y93.22 E2.73271
G1 X143.909 Y93.23 E2.75825
G1 X145.21 Y93.322 E2.80597
G1 X145.577 Y93.369 E2.8195
G1 X146.524 Y93.531 E2.85465
G1 X147.454 Y93.771 E2.88979
G1 X148.306 Y94.065 E2.92277
G1 X148.652 Y94.2 E2.93636
G1 X149.531 Y94.586 E2.97148
G1 X150.376 Y95.044 E3.00664
G1 X151.285 Y95.648 E3.04657
G1 X151.627 Y95.899 E3.06209
G1 X152.377 Y96.499 E3.09723
G1 X153.075 Y97.159 E3.13238
G1 X153.81 Y97.993 E3.17305
G1 X153.974 Y98.198 E3.18266
G1 X154.543 Y98.972 E3.2178
G1 X155.045 Y99.792 E3.25298
G1 X155.346 Y100.371 E3.27685
G1 X155.572 Y100.837 E3.2958
G1 X155.955 Y101.718 E3.33095
G1 X156.263 Y102.628 E3.3661
G1 X156.495 Y103.56 E3.40124
G1 X156.595 Y104.118 E3.42198
G1 X156.627 Y104.326 E3.42968
G1 X156.723 Y105.145 E3.45984
G1 X156.751 Y105.489 E3.47247
G1 X156.788 Y106.269 E3.50104
G1 X156.792 Y106.565 E3.51187
G1 X156.793 Y106.721 E3.51758
G1 X156.793 Y112.527 E3.73
G1 X156.792 Y112.693 E3.73607
G1 X156.782 Y113.39 E3.76158
G1 X156.694 Y114.655 E3.80797
G1 X156.649 Y115.015 E3.82124
G1 X156.49 Y115.963 E3.85641
G1 X156.253 Y116.894 E3.89156
G1 X155.961 Y117.746 E3.92451
G1 X155.833 Y118.077 E3.93749
G1 X155.45 Y118.958 E3.97264
G1 X154.994 Y119.804 E4.0078
G1 X154.48 Y120.595 E4.04231
G1 X154.223 Y120.957 E4.05856
G1 X153.635 Y121.717 E4.09371
G1 X152.985 Y122.425 E4.12888
G1 X151.992 Y123.312 E4.17759
G1 X151.734 Y123.517 E4.18965
G1 X150.958 Y124.083 E4.22479
G1 X150.137 Y124.582 E4.25994
G1 X149.319 Y124.993 E4.29343
G1 X148.902 Y125.182 E4.31018
G1 X148.011 Y125.542 E4.34534
G1 X147.094 Y125.826 E4.38046
G1 X146.156 Y126.033 E4.4156
G1 X145.677 Y126.108 E4.43334
G1 X145.298 Y126.159 E4.44733
G1 X143.984 Y126.26 E4.49555
G1 X143.42 Y126.271 E4.51619
G1 X143.211 Y126.273 E4.52383
G1 X142.494 Y126.274 E4.55007
G1 X76.954 Y126.274 E6.94792
G1 X76.789 Y126.273 E6.95396
G1 X76.091 Y126.263 E6.9795
G1 X74.795 Y126.171 E7.02703
G1 X74.411 Y126.122 E7.0412
G1 X73.464 Y125.961 E7.07634
G1 X72.534 Y125.722 E7.11147
G1 X71.661 Y125.419 E7.14528
G1 X71.439 Y125.332 E7.154
G1 X70.56 Y124.945 E7.18914
G1 X69.717 Y124.486 E7.22426
G1 X69.234 Y124.18 E7.24518
G1 X68.778 Y123.875 E7.26525
G1 X68.003 Y123.308 E7.30038
G1 X67.277 Y122.679 E7.33553
G1 X66.606 Y121.991 E7.37069
G1 X66.163 Y121.468 E7.39576
G1 X66.019 Y121.287 E7.40423
G1 X65.453 Y120.511 E7.43937
G1 X64.746 Y119.299 E7.4907
G1 X64.516 Y118.843 E7.50939
G1 X64.12 Y117.968 E7.54453
G1 X63.798 Y117.063 E7.57967
G1 X63.552 Y116.135 E7.61479
G1 X63.41 Y115.373 E7.64315
G1 X63.349 Y114.97 E7.65807
G1 X63.228 Y113.708 E7.70445
G1 X63.217 Y113.435 E7.71444
G1 X63.208 Y112.972 E7.73139
G1 X63.207 Y106.968 E7.95105
G1 X63.208 Y106.801 E7.95716
G1 X63.218 Y106.102 E7.98274
G1 X63.307 Y104.828 E8.02946
G1 X63.352 Y104.47 E8.04266
G1 X63.511 Y103.522 E8.07783
G1 X63.749 Y102.592 E8.11295
G1 X64.04 Y101.743 E8.14579
G1 X64.172 Y101.402 E8.15917
G1 X64.556 Y100.521 E8.19433
G1 X65.012 Y99.676 E8.22946
G1 X65.581 Y98.809 E8.2674
G1 X65.839 Y98.452 E8.28351
G1 X66.433 Y97.697 E8.31866
G1 X67.089 Y96.995 E8.35381
G1 X67.994 Y96.191 E8.3981
G1 X68.187 Y96.037 E8.40713
G1 X68.963 Y95.469 E8.44232
G0 F6000 X69.223 Y95.825
G1 F1200 X70.028 Y95.335 E8.4768
G1 X70.472 Y95.103 E8.49513
G1 X70.936 Y94.874 E8.51406
G1 X71.798 Y94.494 E8.54852
G1 X72.689 Y94.187 E8.583
G1 X73.603 Y93.958 E8.61747
G1 X74.158 Y93.857 E8.63811
G1 X74.463 Y93.81 E8.6494
G1 X75.466 Y93.702 E8.68631
G1 X75.756 Y93.684 E8.69694
G1 X76.331 Y93.664 E8.71799
G1 X76.625 Y93.661 E8.72875
G1 X76.738 Y93.66 E8.73288
G1 X143.046 Y93.659 E11.15884
G1 X143.205 Y93.66 E11.16465
G1 X143.903 Y93.67 E11.19019
G1 X145.154 Y93.759 E11.23608
G1 X145.521 Y93.806 E11.24962
G1 X146.45 Y93.965 E11.2841
G1 X147.361 Y94.203 E11.31855
G1 X148.146 Y94.475 E11.34894
G1 X148.492 Y94.61 E11.36253
G1 X149.354 Y94.99 E11.397
G1 X150.181 Y95.441 E11.43146
G1 X151.025 Y96.002 E11.46854
G1 X151.367 Y96.253 E11.48406
G1 X152.102 Y96.843 E11.51854
G1 X152.784 Y97.492 E11.55299
G1 X153.467 Y98.268 E11.59081
G1 X153.631 Y98.473 E11.60041
G1 X154.187 Y99.233 E11.63486
G1 X154.678 Y100.037 E11.66933
G1 X154.95 Y100.563 E11.691
G1 X155.176 Y101.029 E11.70994
G1 X155.551 Y101.894 E11.74444
G1 X155.851 Y102.787 E11.7789
G1 X156.075 Y103.702 E11.81337
G1 X156.16 Y104.185 E11.83131
G1 X156.192 Y104.393 E11.83901
G1 X156.284 Y105.18 E11.868
G1 X156.312 Y105.524 E11.88063
G1 X156.348 Y106.275 E11.90813
G1 X156.352 Y106.571 E11.91896
G1 X156.353 Y106.721 E11.92445
G1 X156.353 Y112.527 E12.13687
G1 X156.352 Y112.686 E12.14269
G1 X156.342 Y113.383 E12.16819
G1 X156.257 Y114.601 E12.21286
G1 X156.212 Y114.961 E12.22614
G1 X156.056 Y115.89 E12.2606
G1 X155.821 Y116.802 E12.29506
G1 X155.551 Y117.588 E12.32546
G1 X155.423 Y117.919 E12.33845
G1 X155.046 Y118.782 E12.3729
G1 X154.597 Y119.61 E12.40736
G1 X154.121 Y120.341 E12.43928
G1 X153.864 Y120.703 E12.45552
G1 X153.286 Y121.447 E12.48999
G1 X152.648 Y122.14 E12.52445
G1 X151.718 Y122.968 E12.57001
G1 X151.46 Y123.173 E12.58206
G1 X150.698 Y123.727 E12.61653
G1 X149.892 Y124.215 E12.651
G1 X149.137 Y124.592 E12.68188
G1 X148.72 Y124.781 E12.69863
G1 X147.846 Y125.133 E12.7331
G1 X146.946 Y125.41 E12.76755
G1 X145.618 Y125.672 E12.81708
G1 X145.239 Y125.723 E12.83107
G1 X143.975 Y125.82 E12.87745
G1 X143.411 Y125.831 E12.89809
G1 X143.21 Y125.833 E12.90544
G1 X142.493 Y125.834 E12.93167
G1 X76.954 Y125.834 E15.32949
G1 X76.795 Y125.833 E15.33531
G1 X76.097 Y125.823 E15.36085
G1 X74.851 Y125.735 E15.40655
G1 X74.467 Y125.686 E15.42071
G1 X73.538 Y125.527 E15.4552
G1 X72.627 Y125.29 E15.48964
G1 X71.822 Y125.01 E15.52082
G1 X71.6 Y124.923 E15.52954
G1 X70.738 Y124.542 E15.56402
G1 X69.912 Y124.09 E15.59847
G1 X69.479 Y123.814 E15.61726
G1 X69.023 Y123.509 E15.63733
G1 X68.263 Y122.953 E15.67178
G1 X67.552 Y122.334 E15.70627
G1 X66.897 Y121.657 E15.74073
G1 X66.508 Y121.194 E15.76286
G1 X66.364 Y121.013 E15.77132
G1 X65.809 Y120.251 E15.80581
G1 X65.139 Y119.101 E15.8545
G1 X64.909 Y118.645 E15.87319
G1 X64.521 Y117.786 E15.90767
G1 X64.207 Y116.898 E15.94213
G1 X63.97 Y115.986 E15.97661
G1 X63.845 Y115.307 E16.00187
G1 X63.784 Y114.904 E16.01678
G1 X63.668 Y113.69 E16.0614
G1 X63.657 Y113.417 E16.07139
G1 X63.648 Y112.972 E16.08768
G1 X63.647 Y106.968 E16.30734
G1 X63.648 Y106.807 E16.31323
G1 X63.658 Y106.108 E16.33881
G1 X63.744 Y104.883 E16.38374
G1 X63.789 Y104.525 E16.39694
G1 X63.946 Y103.596 E16.43141
G1 X64.181 Y102.683 E16.4659
G1 X64.45 Y101.902 E16.49612
G1 X64.582 Y101.561 E16.5095
G1 X64.96 Y100.698 E16.54397
G1 X65.409 Y99.869 E16.57846
G1 X65.937 Y99.066 E16.61362
G1 X66.195 Y98.709 E16.62974
G1 X66.779 Y97.97 E16.6642
G1 X67.424 Y97.282 E16.6987
G1 X68.269 Y96.535 E16.73996
G1 X68.462 Y96.381 E16.749
G1 X69.223 Y95.825 E16.78348
G0 F6000 X69.482 Y96.18
G1 F1200 X70.667 Y95.498 E16.8335
G1 X71.131 Y95.269 E16.85243
G1 X71.976 Y94.896 E16.88623
G1 X72.85 Y94.599 E16.92
G1 X73.746 Y94.377 E16.95377
G1 X74.225 Y94.292 E16.97157
G1 X74.53 Y94.245 E16.98286
G1 X75.494 Y94.141 E17.01833
G1 X75.784 Y94.123 E17.02896
G1 X76.335 Y94.104 E17.04913
G1 X76.629 Y94.101 E17.05989
G1 X76.738 Y94.1 E17.06388
G1 X143.046 Y94.099 E19.48983
G1 X143.199 Y94.1 E19.49543
G1 X143.897 Y94.11 E19.52097
G1 X145.098 Y94.195 E19.56502
G1 X145.465 Y94.242 E19.57856
G1 X146.375 Y94.399 E19.61234
G1 X147.268 Y94.634 E19.64613
G1 X147.986 Y94.885 E19.67395
G1 X148.332 Y95.02 E19.68754
G1 X149.177 Y95.393 E19.72134
G1 X149.986 Y95.837 E19.7551
G1 X150.764 Y96.357 E19.78934
G1 X151.106 Y96.608 E19.80486
G1 X151.826 Y97.186 E19.83864
G1 X152.493 Y97.824 E19.87241
G1 X153.123 Y98.543 E19.90738
G1 X153.287 Y98.748 E19.91699
G1 X153.832 Y99.493 E19.95076
G1 X154.311 Y100.283 E19.98456
G1 X154.555 Y100.755 E20.004
G1 X154.781 Y101.221 E20.02295
G1 X155.147 Y102.069 E20.05674
G1 X155.439 Y102.945 E20.09052
G1 X155.725 Y104.252 E20.13947
G1 X155.757 Y104.46 E20.14717
G1 X155.846 Y105.216 E20.17502
G1 X155.874 Y105.56 E20.18765
G1 X155.908 Y106.281 E20.21405
G1 X155.912 Y106.577 E20.22489
G1 X155.913 Y106.721 E20.23015
G1 X155.913 Y112.527 E20.44257
G1 X155.912 Y112.68 E20.44817
G1 X155.902 Y113.377 E20.47367
G1 X155.821 Y114.546 E20.51655
G1 X155.776 Y114.906 E20.52982
G1 X155.622 Y115.817 E20.56362
G1 X155.389 Y116.71 E20.59739
G1 X155.14 Y117.429 E20.62523
G1 X155.012 Y117.76 E20.63821
G1 X154.643 Y118.606 E20.67198
G1 X154.201 Y119.416 E20.70574
G1 X153.762 Y120.086 E20.73504
G1 X153.505 Y120.448 E20.75129
G1 X152.939 Y121.177 E20.78505
G1 X152.311 Y121.854 E20.81884
G1 X151.445 Y122.623 E20.86121
G1 X151.187 Y122.828 E20.87326
G1 X150.44 Y123.371 E20.90705
G1 X149.648 Y123.846 E20.94084
G1 X148.956 Y124.191 E20.96913
G1 X148.539 Y124.38 E20.98588
G1 X147.682 Y124.725 E21.01968
G1 X146.799 Y124.994 E21.05345
G1 X145.56 Y125.236 E21.09964
G1 X145.181 Y125.287 E21.11363
G1 X143.967 Y125.38 E21.15818
G1 X143.403 Y125.391 E21.17881
G1 X143.21 Y125.393 E21.18588
G1 X142.493 Y125.394 E21.21211
G1 X76.954 Y125.394 E23.60993
G1 X76.801 Y125.393 E23.61552
G1 X76.103 Y125.383 E23.64106
G1 X74.907 Y125.298 E23.68493
G1 X74.523 Y125.249 E23.69909
G1 X73.613 Y125.093 E23.73287
G1 X72.72 Y124.858 E23.76666
G1 X71.982 Y124.6 E23.79526
G1 X71.76 Y124.513 E23.80398
G1 X70.916 Y124.139 E23.83776
G1 X69.723 Y123.449 E23.88818
G1 X69.267 Y123.144 E23.90825
G1 X68.523 Y122.598 E23.94202
G1 X67.829 Y121.989 E23.9758
G1 X67.189 Y121.323 E24.00959
G1 X66.852 Y120.92 E24.02881
G1 X66.708 Y120.739 E24.03727
G1 X66.165 Y119.992 E24.07106
G1 X65.532 Y118.903 E24.11714
G1 X65.302 Y118.447 E24.13583
G1 X64.922 Y117.605 E24.16963
G1 X64.617 Y116.734 E24.20339
G1 X64.388 Y115.839 E24.23719
G1 X64.28 Y115.241 E24.25942
G1 X64.219 Y114.838 E24.27433
G1 X64.108 Y113.672 E24.31719
G1 X64.097 Y113.399 E24.32718
G1 X64.088 Y112.972 E24.34281
G1 X64.087 Y106.968 E24.56247
G1 X64.088 Y106.814 E24.56811
G1 X64.098 Y106.115 E24.59368
G1 X64.18 Y104.938 E24.63685
G1 X64.225 Y104.58 E24.65005
G1 X64.38 Y103.669 E24.68386
G1 X64.613 Y102.776 E24.71762
G1 X64.861 Y102.061 E24.74531
G1 X64.993 Y101.72 E24.75869
G1 X65.363 Y100.874 E24.79247
G1 X65.805 Y100.063 E24.82626
G1 X66.294 Y99.324 E24.85868
G1 X66.552 Y98.967 E24.8748
G1 X67.125 Y98.243 E24.90858
G1 X67.758 Y97.571 E24.94236
G1 X68.543 Y96.879 E24.98064
G1 X68.736 Y96.725 E24.98968
G1 X69.482 Y96.18 E25.02348
G0 F6000 X69.742 Y96.536
G1 F1200 X70.862 Y95.892 E25.07074
G1 X71.326 Y95.663 E25.08967
G1 X72.153 Y95.3 E25.12272
G1 X73.01 Y95.01 E25.15582
G1 X74.292 Y94.727 E25.20385
G1 X74.597 Y94.68 E25.21514
G1 X75.521 Y94.581 E25.24914
G1 X75.811 Y94.563 E25.25977
G1 X76.34 Y94.544 E25.27914
G1 X76.634 Y94.541 E25.28989
G1 X76.738 Y94.54 E25.2937
G1 X143.046 Y94.539 E27.71965
G1 X143.192 Y94.54 E27.725
G1 X143.89 Y94.55 E27.75054
G1 X145.042 Y94.632 E27.79279
G1 X145.409 Y94.679 E27.80633
G1 X146.3 Y94.833 E27.83941
G1 X147.174 Y95.066 E27.8725
G1 X147.826 Y95.295 E27.89778
G1 X148.172 Y95.43 E27.91137
G1 X148.999 Y95.796 E27.94446
G1 X149.79 Y96.233 E27.97752
G1 X150.504 Y96.712 E28.00898
G1 X150.846 Y96.963 E28.0245
G1 X151.55 Y97.529 E28.05755
G1 X152.202 Y98.156 E28.09064
G1 X152.779 Y98.818 E28.12277
G1 X152.943 Y99.023 E28.13238
G1 X153.476 Y99.753 E28.16544
G1 X153.943 Y100.527 E28.19852
G1 X154.159 Y100.947 E28.2158
G1 X154.385 Y101.413 E28.23475
G1 X154.743 Y102.243 E28.26782
G1 X155.026 Y103.102 E28.30091
G1 X155.29 Y104.319 E28.34647
G1 X155.322 Y104.527 E28.35417
G1 X155.407 Y105.252 E28.38087
G1 X155.435 Y105.596 E28.3935
G1 X155.468 Y106.287 E28.41881
G1 X155.472 Y106.583 E28.42964
G1 X155.473 Y106.721 E28.43469
G1 X155.473 Y112.527 E28.64711
G1 X155.472 Y112.674 E28.65249
G1 X155.462 Y113.371 E28.67799
G1 X155.384 Y114.492 E28.7191
G1 X155.339 Y114.852 E28.73238
G1 X155.187 Y115.743 E28.76544
G1 X154.958 Y116.617 E28.7985
G1 X154.73 Y117.27 E28.82381
G1 X154.602 Y117.601 E28.83679
G1 X154.239 Y118.429 E28.86987
G1 X153.804 Y119.222 E28.90296
G1 X153.403 Y119.831 E28.92963
G1 X153.146 Y120.193 E28.94588
G1 X152.591 Y120.907 E28.97896
G1 X151.975 Y121.568 E29.01202
G1 X151.171 Y122.279 E29.05129
G1 X150.913 Y122.484 E29.06334
G1 X150.181 Y123.014 E29.09641
G1 X149.405 Y123.478 E29.12949
G1 X148.774 Y123.791 E29.15526
G1 X148.357 Y123.98 E29.17201
G1 X147.518 Y124.316 E29.20507
G1 X146.652 Y124.577 E29.23816
G1 X145.501 Y124.8 E29.28106
G1 X145.122 Y124.851 E29.29505
G1 X143.958 Y124.94 E29.33776
G1 X143.394 Y124.951 E29.3584
G1 X143.209 Y124.953 E29.36517
G1 X142.492 Y124.954 E29.3914
G1 X76.954 Y124.954 E31.78918
G1 X76.808 Y124.953 E31.79452
G1 X76.11 Y124.943 E31.82006
G1 X74.962 Y124.862 E31.86217
G1 X74.578 Y124.813 E31.87633
G1 X73.688 Y124.659 E31.90938
G1 X72.814 Y124.427 E31.94246
G1 X72.143 Y124.19 E31.9685
G1 X71.921 Y124.103 E31.97722
G1 X71.095 Y123.737 E32.01027
G1 X69.968 Y123.083 E32.05795
G1 X69.512 Y122.778 E32.07802
G1 X68.784 Y122.243 E32.11107
G1 X68.105 Y121.645 E32.14417
G1 X67.196 Y120.646 E32.19359
G1 X67.052 Y120.465 E32.20205
G1 X66.521 Y119.733 E32.23514
G1 X65.925 Y118.705 E32.27861
G1 X65.695 Y118.249 E32.2973
G1 X65.324 Y117.424 E32.33039
G1 X65.027 Y116.57 E32.36347
G1 X64.807 Y115.693 E32.39655
G1 X64.715 Y115.176 E32.41576
G1 X64.654 Y114.773 E32.43068
G1 X64.547 Y113.654 E32.4718
G1 X64.536 Y113.381 E32.4818
G1 X64.528 Y112.972 E32.49677
G1 X64.527 Y106.968 E32.71643
G1 X64.528 Y106.82 E32.72184
G1 X64.538 Y106.121 E32.74742
G1 X64.617 Y104.992 E32.78883
G1 X64.662 Y104.634 E32.80203
G1 X64.814 Y103.743 E32.8351
G1 X65.045 Y102.869 E32.86817
G1 X65.271 Y102.22 E32.89331
G1 X65.403 Y101.879 E32.90669
G1 X65.766 Y101.051 E32.93977
G1 X66.201 Y100.258 E32.97286
G1 X66.651 Y99.582 E33.00257
G1 X66.909 Y99.225 E33.01869
G1 X67.47 Y98.516 E33.05176
G1 X68.092 Y97.86 E33.08484
G1 X68.818 Y97.222 E33.1202
G1 X69.011 Y97.068 E33.12923
G1 X69.742 Y96.536 E33.16231
G1 F3600 E26.16231
;MESH:Special_Organizer.stl
G0 F6000 X88.447 Y104.133
G0 X99.89 Y108.78
G0 X109.721 Y112.774
G0 X111.275 Y113.634
;TYPE:WALL-INNER
G1 F3600 E33.16231
G1 F1200 X111.401 Y113.33 E33.17435
G1 X111.524 Y113.035 E33.18604
G1 X111.603 Y112.431 E33.20833
G1 X111.603 Y107.121 E33.4026
G1 X111.525 Y106.489 E33.4259
G1 X111.39 Y106.163 E33.43881
G1 X111.264 Y105.859 E33.45085
G1 X111.593 Y105.859 E33.45788
G1 X112.214 Y105.859 E33.4806
G1 X112.215 Y105.859 E33.48064
G1 X112.542 Y105.859 E33.4926
G1 X112.418 Y106.162 E33.49961
G1 X112.286 Y106.481 E33.51224
G1 X112.204 Y107.081 E33.53439
G1 X112.203 Y112.431 E33.73013
G1 X112.281 Y113.03 E33.75223
G1 X112.406 Y113.331 E33.76415
G1 X112.532 Y113.634 E33.77616
G1 X112.204 Y113.634 E33.78317
G1 X112.203 Y113.634 E33.78321
G1 X111.604 Y113.634 E33.80513
G1 X111.275 Y113.634 E33.81216
G1 F3600 E26.81216
G0 F6000 X109.721 Y112.774
G0 X100.084 Y112.774
G0 X98.532 Y113.634
