;FLAVOR:Marlin
;TIME:5579
;Filament used: 3.37596m
;Layer height: 0.2
;MINX:52.86
;MINY:97.928
;MINZ:0.2
;MAXX:159.14
;MAXY:173.828
;MAXZ:28.8
;Generated with Cura_SteamEngine 4.2.1
M140 S60
M105
M190 S60
M104 S200
M105
M109 S200
M82 ;absolute extrusion mode
M201 X500.00 Y500.00 Z100.00 E5000.00 ;Setup machine max acceleration
M203 X500.00 Y500.00 Z10.00 E50.00 ;Setup machine max feedrate
M204 P500.00 R1000.00 T500.00 ;Setup Print/Retract/Travel acceleration
M205 X8.00 Y8.00 Z0.40 E5.00 ;Setup Jerk
M220 S100 ;Reset Feedrate
M221 S100 ;Reset Flowrate

G28 ;Home

G92 E0 ;Reset Extruder
G1 Z2.0 F3000 ;Move Z Axis up
G1 X10.1 Y20 Z0.28 F5000.0 ;Move to start position
G1 X10.1 Y200.0 Z0.28 F1500.0 E15 ;Draw the first line
G1 X10.4 Y200.0 Z0.28 F5000.0 ;Move to side a little
G1 X10.4 Y20 Z0.28 F1500.0 E30 ;Draw the second line
G92 E0 ;Reset Extruder
G1 Z2.0 F3000 ;Move Z Axis up

G92 E0
G92 E0
G1 F3600 E-7
;LAYER_COUNT:143
;LAYER:0
M107
G0 F6000 X66.621 Y100.529 Z0.2
;TYPE:SKIRT
G1 F3600 E0
G1 F1200 X67.547 Y99.958 E0.0398
G1 X68.049 Y99.693 E0.06057
G1 X68.78 Y99.353 E0.09007
G1 X69.559 Y99.087 E0.12018
G1 X70.006 Y98.922 E0.13761
G1 X70.776 Y98.681 E0.16713
G1 X71.566 Y98.517 E0.19665
G1 X72.368 Y98.432 E0.22616
G1 X73.175 Y98.427 E0.25569
G1 X73.831 Y98.482 E0.27977
G1 X75.291 Y98.664 E0.3336
G1 X76.086 Y98.803 E0.36313
G1 X76.862 Y99.02 E0.39261
G1 X77.614 Y99.313 E0.42213
G1 X78.168 Y99.587 E0.44475
G1 X78.844 Y99.954 E0.47289
G1 X79.137 Y100.122 E0.48524
G1 X79.771 Y100.501 E0.51227
G1 X80.471 Y100.482 E0.53789
G1 X80.733 Y100.501 E0.5475
G1 X80.847 Y100.487 E0.5517
G1 X81.654 Y100.466 E0.58124
G1 X81.915 Y100.485 E0.59081
G1 X81.99 Y100.476 E0.59357
G1 X82.797 Y100.454 E0.62311
G1 X83.072 Y100.474 E0.6332
G1 X83.161 Y100.463 E0.63648
G1 X83.968 Y100.442 E0.66601
G1 X84.217 Y100.461 E0.67515
G1 X84.325 Y100.447 E0.67914
G1 X85.132 Y100.426 E0.70867
G1 X85.405 Y100.446 E0.71868
G1 X85.478 Y100.437 E0.72138
G1 X86.284 Y100.416 E0.75087
G1 X86.545 Y100.435 E0.76045
G1 X86.636 Y100.424 E0.7638
G1 X87.443 Y100.403 E0.79334
G1 X87.703 Y100.422 E0.80287
G1 X87.787 Y100.412 E0.80597
G1 X88.593 Y100.391 E0.83547
G1 X89.348 Y100.447 E0.86317
G1 X89.405 Y100.446 E0.86525
G1 X90.21 Y100.507 E0.89479
G1 X91.004 Y100.648 E0.92429
G1 X91.78 Y100.867 E0.95379
G1 X92.532 Y101.161 E0.98333
G1 X93.18 Y101.492 E1.00995
G1 X93.329 Y101.334 E1.0179
G1 X93.675 Y101.009 E1.03527
G1 X94.437 Y100.376 E1.07151
G1 X94.826 Y100.091 E1.08915
G1 X95.719 Y99.522 E1.12789
G1 X96.136 Y99.293 E1.1453
G1 X97.04 Y98.867 E1.18186
G1 X97.489 Y98.688 E1.19955
G1 X98.452 Y98.372 E1.23663
G1 X98.913 Y98.252 E1.25406
G1 X99.94 Y98.054 E1.29232
G1 X100.413 Y97.994 E1.30977
G1 X101.42 Y97.929 E1.34668
G1 X101.9 Y97.928 E1.36425
G1 X102.92 Y97.99 E1.40163
G1 X103.395 Y98.049 E1.41914
G1 X104.423 Y98.244 E1.45743
G1 X104.881 Y98.362 E1.47473
G1 X105.835 Y98.672 E1.51143
G1 X106.284 Y98.849 E1.52909
G1 X107.176 Y99.265 E1.5651
G1 X107.595 Y99.492 E1.58253
G1 X108.51 Y100.069 E1.62211
G1 X108.9 Y100.353 E1.63976
G1 X109.655 Y100.975 E1.67555
G1 X110.003 Y101.299 E1.69294
G1 X110.723 Y102.063 E1.73135
G1 X111.028 Y102.431 E1.74884
G1 X111.574 Y103.181 E1.78278
G1 X111.762 Y102.918 E1.79461
G1 X112.342 Y102.26 E1.8267
G1 X113.062 Y101.527 E1.86429
G1 X113.655 Y100.98 E1.8938
G1 X114.299 Y100.495 E1.9233
G1 X115.141 Y99.995 E1.95913
G1 X116.067 Y99.518 E1.99724
G1 X116.802 Y99.184 E2.02677
G1 X117.566 Y98.925 E2.05629
G1 X118.493 Y98.719 E2.09103
G1 X119.493 Y98.557 E2.12809
G1 X120.295 Y98.467 E2.15762
G1 X121.102 Y98.458 E2.18715
G1 X122.02 Y98.545 E2.22088
G1 X123.032 Y98.699 E2.25834
G1 X123.822 Y98.859 E2.28783
G1 X124.593 Y99.098 E2.31736
G1 X125.463 Y99.473 E2.35202
G1 X126.382 Y99.935 E2.38965
G1 X126.804 Y100.174 E2.40739
G1 X127.379 Y100.319 E2.42909
G1 X140.226 Y100.32 E2.89911
G1 X140.83 Y100.173 E2.92186
G1 X141.09 Y100.02 E2.93289
G1 X142.008 Y99.542 E2.97076
G1 X142.741 Y99.205 E3.00028
G1 X143.504 Y98.943 E3.02979
G1 X144.417 Y98.735 E3.06405
G1 X145.428 Y98.565 E3.10156
G1 X146.229 Y98.471 E3.13106
G1 X147.036 Y98.456 E3.16059
G1 X148.018 Y98.547 E3.19668
G1 X149.05 Y98.706 E3.23488
G1 X149.84 Y98.868 E3.26438
G1 X150.61 Y99.108 E3.29389
G1 X151.482 Y99.486 E3.32866
G1 X152.392 Y99.946 E3.36597
G1 X153.093 Y100.346 E3.3955
G1 X153.751 Y100.812 E3.425
G1 X154.452 Y101.431 E3.45921
G1 X155.173 Y102.146 E3.49636
G1 X155.717 Y102.742 E3.52588
G1 X156.199 Y103.389 E3.5554
G1 X156.66 Y104.166 E3.58846
G1 X157.134 Y105.076 E3.62599
G1 X157.471 Y105.809 E3.65551
G1 X157.734 Y106.571 E3.685
G1 X157.952 Y107.543 E3.72145
G1 X158.119 Y108.581 E3.75991
G1 X158.207 Y109.383 E3.78943
G1 X158.216 Y110.19 E3.81896
G1 X158.123 Y111.142 E3.85395
G1 X157.964 Y112.15 E3.89129
G1 X157.799 Y112.94 E3.92082
G1 X157.556 Y113.709 E3.95032
G1 X157.184 Y114.561 E3.98433
G1 X156.731 Y115.455 E4.021
G1 X156.331 Y116.156 E4.05053
G1 X155.864 Y116.814 E4.08005
G1 X155.265 Y117.492 E4.11315
G1 X154.543 Y118.224 E4.15077
G1 X153.949 Y118.77 E4.18029
G1 X153.304 Y119.254 E4.20979
G1 X152.495 Y119.734 E4.2442
G1 X151.579 Y120.209 E4.28195
G1 X150.846 Y120.545 E4.31146
G1 X150.082 Y120.806 E4.34099
G1 X149.124 Y121.02 E4.37691
G1 X148.091 Y121.186 E4.41519
G1 X147.289 Y121.274 E4.4447
G1 X146.482 Y121.283 E4.47423
G1 X145.531 Y121.19 E4.50919
G1 X144.523 Y121.031 E4.54652
G1 X143.733 Y120.866 E4.57605
G1 X142.964 Y120.623 E4.60556
G1 X142.099 Y120.245 E4.64009
G1 X141.197 Y119.786 E4.67712
G1 X140.814 Y119.566 E4.69328
G1 X140.236 Y119.421 E4.71508
G1 X127.392 Y119.42 E5.185
G1 X126.789 Y119.566 E5.2077
G1 X126.527 Y119.721 E5.21883
G1 X125.599 Y120.205 E5.25712
G1 X124.866 Y120.543 E5.28666
G1 X124.104 Y120.805 E5.31614
G1 X123.106 Y121.028 E5.35355
G1 X122.094 Y121.188 E5.39104
G1 X121.292 Y121.274 E5.42055
G1 X120.485 Y121.281 E5.45007
G1 X119.585 Y121.193 E5.48316
G1 X118.571 Y121.037 E5.52069
G1 X117.781 Y120.875 E5.5502
G1 X117.011 Y120.636 E5.57969
G1 X116.118 Y120.247 E5.61533
G1 X115.206 Y119.783 E5.65277
G1 X114.506 Y119.382 E5.68228
G1 X113.849 Y118.914 E5.71179
G1 X113.161 Y118.304 E5.74543
G1 X112.428 Y117.576 E5.78323
G1 X111.884 Y116.979 E5.81278
G1 X111.572 Y116.56 E5.83189
G1 X111.051 Y117.281 E5.86444
G1 X110.746 Y117.651 E5.88198
G1 X110.04 Y118.404 E5.91974
G1 X109.69 Y118.733 E5.93732
G1 X108.911 Y119.379 E5.97434
G1 X108.527 Y119.659 E5.99173
G1 X107.683 Y120.198 E6.02837
G1 X107.267 Y120.429 E6.04578
G1 X106.323 Y120.877 E6.08401
G1 X105.878 Y121.054 E6.10153
G1 X104.932 Y121.365 E6.13796
G1 X104.466 Y121.487 E6.15559
G1 X103.426 Y121.688 E6.19434
G1 X102.952 Y121.748 E6.21182
G1 X101.947 Y121.812 E6.24866
G1 X101.467 Y121.813 E6.26623
G1 X100.442 Y121.75 E6.3038
G1 X99.969 Y121.691 E6.32124
G1 X98.954 Y121.499 E6.35903
G1 X98.494 Y121.381 E6.3764
G1 X97.552 Y121.077 E6.41262
G1 X97.102 Y120.901 E6.4303
G1 X96.14 Y120.45 E6.46917
G1 X95.717 Y120.217 E6.48684
G1 X94.869 Y119.679 E6.52358
G1 X94.488 Y119.403 E6.54079
G1 X93.72 Y118.772 E6.57716
G1 X93.64 Y118.698 E6.58114
G1 X92.933 Y119.064 E6.61027
G1 X92.184 Y119.362 E6.63976
G1 X91.408 Y119.585 E6.6693
G1 X90.615 Y119.73 E6.6988
G1 X89.811 Y119.796 E6.72831
G1 X89.004 Y119.782 E6.75784
G1 X88.491 Y119.731 E6.7767
G1 X88.078 Y119.677 E6.79194
G1 X87.958 Y119.689 E6.79635
G1 X87.151 Y119.691 E6.82588
G1 X86.995 Y119.677 E6.83161
G1 X86.765 Y119.7 E6.84007
G1 X85.958 Y119.7 E6.86959
G1 X85.837 Y119.689 E6.87404
G1 X85.611 Y119.712 E6.88235
G1 X84.805 Y119.712 E6.91184
G1 X84.687 Y119.701 E6.91617
G1 X84.466 Y119.724 E6.9243
G1 X83.659 Y119.726 E6.95383
G1 X83.549 Y119.716 E6.95787
G1 X83.342 Y119.738 E6.96548
G1 X82.536 Y119.742 E6.99497
G1 X82.375 Y119.728 E7.00088
G1 X82.156 Y119.75 E7.00894
G1 X81.349 Y119.752 E7.03846
G1 X81.247 Y119.743 E7.04221
G1 X81.072 Y119.762 E7.04865
G1 X80.265 Y119.771 E7.07818
G1 X80.034 Y119.751 E7.08666
G1 X79.769 Y119.776 E7.0964
G1 X79.705 Y119.776 E7.09874
G1 X79.351 Y120.023 E7.11453
G1 X78.668 Y120.452 E7.14404
G1 X77.946 Y120.812 E7.17356
G1 X77.192 Y121.098 E7.20306
G1 X76.704 Y121.239 E7.22164
G1 X76.537 Y121.282 E7.22795
G1 X76.335 Y121.35 E7.23575
G1 X75.559 Y121.57 E7.26526
G1 X74.764 Y121.713 E7.29481
G1 X73.605 Y121.778 E7.33728
G1 X72.811 Y121.766 E7.36634
G1 X72.303 Y121.743 E7.38494
G1 X71.647 Y121.692 E7.40901
G1 X70.847 Y121.589 E7.43852
G1 X69.813 Y121.334 E7.47749
G1 X69.577 Y121.259 E7.48655
G1 X68.821 Y120.977 E7.51607
G1 X68.033 Y120.585 E7.54827
G1 X67.358 Y120.203 E7.57665
G1 X66.578 Y119.701 E7.61058
G1 X66.321 Y119.514 E7.62221
G1 X66.036 Y119.297 E7.63532
G1 X65.824 Y119.128 E7.64523
G1 X65.219 Y118.595 E7.67473
G1 X64.67 Y118.004 E7.70425
G1 X64.181 Y117.362 E7.73377
G1 X63.788 Y116.726 E7.76112
G1 X63.069 Y115.436 E7.81516
G1 X62.711 Y114.713 E7.84467
G1 X62.483 Y114.124 E7.86778
G1 X62.297 Y113.584 E7.88868
G1 X62.072 Y112.809 E7.9182
G1 X61.962 Y112.259 E7.93872
G1 X61.876 Y111.738 E7.95804
G1 X61.784 Y110.936 E7.98758
G1 X61.768 Y110.512 E8.0031
G1 X61.762 Y110.024 E8.02096
G1 X61.792 Y109.218 E8.05046
G1 X61.84 Y108.795 E8.06604
G1 X61.911 Y108.288 E8.08477
G1 X62.062 Y107.496 E8.11427
G1 X62.203 Y106.988 E8.13356
G1 X62.379 Y106.425 E8.15514
G1 X62.657 Y105.668 E8.18464
G1 X62.995 Y104.968 E8.21308
G1 X63.717 Y103.639 E8.26842
G1 X64.137 Y102.95 E8.29794
G1 X64.623 Y102.306 E8.32746
G1 X65.17 Y101.714 E8.35695
G1 X65.674 Y101.259 E8.38179
G1 X65.914 Y101.06 E8.39319
G1 X66.384 Y100.698 E8.4149
G1 X66.621 Y100.529 E8.42555
G0 F6000 X66.876 Y100.888
G1 F1200 X67.752 Y100.348 E8.4632
G1 X68.254 Y100.083 E8.48397
G1 X68.966 Y99.752 E8.51269
G1 X69.75 Y99.486 E8.54298
G1 X70.159 Y99.335 E8.55893
G1 X70.908 Y99.101 E8.58764
G1 X71.676 Y98.945 E8.61631
G1 X72.457 Y98.868 E8.64503
G1 X73.242 Y98.87 E8.67375
G1 X73.776 Y98.918 E8.69336
G1 X75.236 Y99.1 E8.74719
G1 X76.009 Y99.237 E8.77591
G1 X76.764 Y99.451 E8.80462
G1 X77.493 Y99.741 E8.83333
G1 X77.958 Y99.974 E8.85236
G1 X78.634 Y100.341 E8.8805
G1 X78.912 Y100.499 E8.8922
G1 X79.663 Y100.948 E8.92421
G1 X79.72 Y100.941 E8.92631
G1 X80.504 Y100.923 E8.955
G1 X80.752 Y100.943 E8.96411
G1 X80.902 Y100.924 E8.96964
G1 X81.686 Y100.907 E8.99833
G1 X81.933 Y100.927 E9.00739
G1 X82.045 Y100.913 E9.01152
G1 X82.829 Y100.895 E9.04021
G1 X83.089 Y100.916 E9.04976
G1 X83.216 Y100.9 E9.05444
G1 X84 Y100.883 E9.08313
G1 X84.234 Y100.902 E9.09172
G1 X84.38 Y100.884 E9.0971
G1 X85.164 Y100.867 E9.12579
G1 X85.422 Y100.888 E9.13526
G1 X85.532 Y100.874 E9.13932
G1 X86.316 Y100.857 E9.16801
G1 X86.561 Y100.877 E9.177
G1 X86.691 Y100.861 E9.1818
G1 X87.475 Y100.844 E9.21049
G1 X87.72 Y100.864 E9.21948
G1 X87.841 Y100.849 E9.22394
G1 X88.626 Y100.832 E9.25267
G1 X89.324 Y100.889 E9.27829
G1 X89.436 Y100.887 E9.28239
G1 X90.218 Y100.952 E9.3111
G1 X90.99 Y101.096 E9.33983
G1 X91.742 Y101.319 E9.36853
G1 X92.468 Y101.616 E9.39722
G1 X93.16 Y101.986 E9.42593
G1 X93.258 Y102.052 E9.43026
G1 X93.63 Y101.655 E9.45016
G1 X93.976 Y101.33 E9.46753
G1 X94.697 Y100.731 E9.50182
G1 X95.086 Y100.446 E9.51947
G1 X95.931 Y99.908 E9.55612
G1 X96.348 Y99.679 E9.57352
G1 X97.203 Y99.275 E9.60812
G1 X97.652 Y99.096 E9.6258
G1 X98.563 Y98.797 E9.66088
G1 X99.024 Y98.677 E9.67831
G1 X99.995 Y98.49 E9.71449
G1 X100.468 Y98.43 E9.73193
G1 X101.421 Y98.369 E9.76687
G1 X101.901 Y98.368 E9.78443
G1 X102.866 Y98.427 E9.8198
G1 X103.341 Y98.486 E9.83731
G1 X104.313 Y98.671 E9.87352
G1 X104.771 Y98.789 E9.89082
G1 X105.674 Y99.082 E9.92555
G1 X106.123 Y99.259 E9.94321
G1 X106.967 Y99.652 E9.97727
G1 X107.386 Y99.879 E9.99471
G1 X108.251 Y100.424 E10.03211
G1 X108.641 Y100.708 E10.04976
G1 X109.355 Y101.297 E10.08363
G1 X109.703 Y101.621 E10.10102
G1 X110.384 Y102.343 E10.13733
G1 X110.689 Y102.711 E10.15482
G1 X111.255 Y103.488 E10.18999
G1 X111.513 Y103.893 E10.20756
G1 X111.565 Y103.987 E10.21149
G1 X111.676 Y103.794 E10.21963
G1 X112.134 Y103.157 E10.24834
G1 X112.656 Y102.568 E10.27713
G1 X113.376 Y101.835 E10.31472
G1 X113.953 Y101.304 E10.34341
G1 X114.582 Y100.835 E10.37212
G1 X115.343 Y100.386 E10.40445
G1 X116.269 Y99.909 E10.44255
G1 X116.984 Y99.586 E10.47126
G1 X117.728 Y99.337 E10.49996
G1 X118.564 Y99.153 E10.53128
G1 X119.564 Y98.991 E10.56834
G1 X120.344 Y98.905 E10.59705
G1 X121.128 Y98.899 E10.62574
G1 X121.953 Y98.98 E10.65607
G1 X122.965 Y99.134 E10.69352
G1 X123.734 Y99.291 E10.72223
G1 X124.483 Y99.526 E10.75095
G1 X125.266 Y99.866 E10.78219
G1 X126.185 Y100.328 E10.81982
G1 X126.653 Y100.594 E10.83951
G1 X126.73 Y100.606 E10.84236
G1 X127.317 Y100.759 E10.86456
G1 X140.295 Y100.76 E11.33937
G1 X140.433 Y100.715 E11.34468
G1 X140.973 Y100.598 E11.3649
G1 X141.293 Y100.41 E11.37848
G1 X142.211 Y99.932 E11.41634
G1 X142.924 Y99.606 E11.44503
G1 X143.667 Y99.354 E11.47373
G1 X144.49 Y99.169 E11.50459
G1 X145.501 Y98.999 E11.5421
G1 X146.281 Y98.908 E11.57083
G1 X147.065 Y98.897 E11.59952
G1 X147.951 Y98.982 E11.63208
G1 X148.983 Y99.141 E11.67028
G1 X149.751 Y99.3 E11.69898
G1 X150.499 Y99.536 E11.72767
G1 X151.284 Y99.879 E11.75902
G1 X152.194 Y100.339 E11.79632
G1 X152.875 Y100.728 E11.82501
G1 X153.513 Y101.185 E11.85373
G1 X154.142 Y101.744 E11.88451
G1 X154.863 Y102.459 E11.92166
G1 X155.391 Y103.039 E11.95036
G1 X155.858 Y103.67 E11.97908
G1 X156.27 Y104.369 E12.00877
G1 X156.744 Y105.279 E12.04631
G1 X157.071 Y105.992 E12.075
G1 X157.323 Y106.735 E12.10371
G1 X157.517 Y107.613 E12.13661
G1 X157.684 Y108.651 E12.17507
G1 X157.769 Y109.431 E12.20378
G1 X157.774 Y110.215 E12.23246
G1 X157.688 Y111.074 E12.26405
G1 X157.529 Y112.082 E12.30138
G1 X157.367 Y112.85 E12.3301
G1 X157.129 Y113.597 E12.35878
G1 X156.792 Y114.362 E12.38936
G1 X156.339 Y115.256 E12.42603
G1 X155.949 Y115.937 E12.45474
G1 X155.492 Y116.575 E12.48346
G1 X154.952 Y117.183 E12.51321
G1 X154.23 Y117.915 E12.55082
G1 X153.651 Y118.445 E12.57954
G1 X153.022 Y118.913 E12.60822
G1 X152.293 Y119.344 E12.63921
G1 X151.377 Y119.819 E12.67696
G1 X150.663 Y120.144 E12.70566
G1 X149.919 Y120.395 E12.73439
G1 X149.054 Y120.585 E12.76679
G1 X148.021 Y120.751 E12.80507
G1 X147.241 Y120.836 E12.83377
G1 X146.456 Y120.841 E12.8625
G1 X145.599 Y120.755 E12.89401
G1 X144.591 Y120.596 E12.93134
G1 X143.823 Y120.434 E12.96006
G1 X143.076 Y120.196 E12.98874
G1 X142.299 Y119.853 E13.01982
G1 X141.397 Y119.394 E13.05684
G1 X140.967 Y119.147 E13.07499
G1 X140.885 Y119.134 E13.07802
G1 X140.298 Y118.981 E13.10022
G1 X127.323 Y118.98 E13.57492
G1 X127.185 Y119.025 E13.58023
G1 X126.647 Y119.142 E13.60038
G1 X126.324 Y119.331 E13.61407
G1 X125.396 Y119.815 E13.65236
G1 X124.683 Y120.142 E13.68106
G1 X123.94 Y120.395 E13.70978
G1 X123.037 Y120.594 E13.74361
G1 X122.025 Y120.754 E13.78109
G1 X121.245 Y120.836 E13.80979
G1 X120.461 Y120.839 E13.83847
G1 X119.652 Y120.758 E13.86821
G1 X118.638 Y120.602 E13.90575
G1 X117.87 Y120.444 E13.93444
G1 X117.122 Y120.208 E13.96313
G1 X116.317 Y119.855 E13.99529
G1 X115.405 Y119.391 E14.03273
G1 X114.725 Y119 E14.06143
G1 X114.088 Y118.542 E14.09013
G1 X113.471 Y117.991 E14.1204
G1 X112.738 Y117.263 E14.15819
G1 X112.21 Y116.683 E14.18689
G1 X111.744 Y116.052 E14.21559
G1 X111.568 Y115.751 E14.22834
G1 X111.533 Y115.814 E14.23098
G1 X111.279 Y116.216 E14.24838
G1 X110.712 Y117.001 E14.28381
G1 X110.407 Y117.371 E14.30135
G1 X109.739 Y118.083 E14.33707
G1 X109.389 Y118.412 E14.35464
G1 X108.652 Y119.024 E14.38969
G1 X108.268 Y119.304 E14.40708
G1 X107.469 Y119.814 E14.44176
G1 X107.053 Y120.045 E14.45917
G1 X106.161 Y120.468 E14.49529
G1 X105.716 Y120.645 E14.51281
G1 X104.82 Y120.939 E14.54731
G1 X104.354 Y121.061 E14.56493
G1 X103.371 Y121.251 E14.60156
G1 X102.897 Y121.311 E14.61904
G1 X101.946 Y121.372 E14.65391
G1 X101.466 Y121.373 E14.67147
G1 X100.497 Y121.314 E14.70699
G1 X100.024 Y121.255 E14.72443
G1 X99.064 Y121.073 E14.76017
G1 X98.604 Y120.955 E14.77755
G1 X97.712 Y120.667 E14.81184
G1 X97.262 Y120.491 E14.82952
G1 X96.352 Y120.065 E14.86628
G1 X95.929 Y119.832 E14.88395
G1 X95.127 Y119.323 E14.9187
G1 X94.746 Y119.047 E14.93591
G1 X94.019 Y118.45 E14.97033
G1 X93.688 Y118.142 E14.98687
G1 X93.391 Y118.334 E14.99981
G1 X92.692 Y118.69 E15.02851
G1 X91.96 Y118.974 E15.05724
G1 X91.203 Y119.181 E15.08595
