;FLAVOR:Marlin
;TIME:1472
;Filament used: 1.14834m
;Layer height: 0.2
;MINX:78.46
;MINY:81.96
;MINZ:0.2
;MAXX:141.54
;MAXY:184.04
;MAXZ:1
;Generated with Cura_SteamEngine 4.2.1
M140 S60
M105
M190 S60
M104 S200
M105
M109 S200
M82 ;absolute extrusion mode
M201 X500.00 Y500.00 Z100.00 E5000.00 ;Setup machine max acceleration
M203 X500.00 Y500.00 Z10.00 E50.00 ;Setup machine max feedrate
M204 P500.00 R1000.00 T500.00 ;Setup Print/Retract/Travel acceleration
M205 X8.00 Y8.00 Z0.40 E5.00 ;Setup Jerk
M220 S100 ;Reset Feedrate
M221 S100 ;Reset Flowrate

G28 ;Home

G92 E0 ;Reset Extruder
G1 Z2.0 F3000 ;Move Z Axis up
G1 X10.1 Y20 Z0.28 F5000.0 ;Move to start position
G1 X10.1 Y200.0 Z0.28 F1500.0 E15 ;Draw the first line
G1 X10.4 Y200.0 Z0.28 F5000.0 ;Move to side a little
G1 X10.4 Y20 Z0.28 F1500.0 E30 ;Draw the second line
G92 E0 ;Reset Extruder
G1 Z2.0 F3000 ;Move Z Axis up

G92 E0
G92 E0
G1 F3600 E-7
;LAYER_COUNT:5
;LAYER:0
M107
G0 F6000 X81.668 Y85.534 Z0.2
;TYPE:SKIRT
G1 F3600 E0
G1 F1200 X82.36 Y84.868 E0.03514
G1 X83.105 Y84.262 E0.07027
G1 X83.898 Y83.72 E0.10542
G1 X84.733 Y83.245 E0.14056
G1 X85.605 Y82.842 E0.17571
G1 X86.508 Y82.513 E0.21087
G1 X87.434 Y82.26 E0.24599
G1 X88.379 Y82.085 E0.28115
G1 X89.686 Y81.974 E0.32914
G1 X90.007 Y81.965 E0.34089
G1 X90.33 Y81.96 E0.35271
G1 X129.293 Y81.96 E1.77822
G1 X129.458 Y81.961 E1.78425
G1 X130.156 Y81.971 E1.80979
G1 X131.115 Y82.025 E1.84493
G1 X132.067 Y82.158 E1.8801
G1 X133.004 Y82.37 E1.91525
G1 X133.92 Y82.659 E1.95039
G1 X134.809 Y83.024 E1.98555
G1 X135.664 Y83.461 E2.02068
G1 X136.48 Y83.967 E2.05581
G1 X137.251 Y84.54 E2.09095
G1 X137.972 Y85.175 E2.1261
G1 X138.638 Y85.868 E2.16127
G1 X139.244 Y86.613 E2.1964
G1 X139.785 Y87.407 E2.23156
G1 X140.259 Y88.243 E2.26672
G1 X140.661 Y89.115 E2.30185
G1 X140.99 Y90.018 E2.33701
G1 X141.242 Y90.944 E2.37212
G1 X141.417 Y91.889 E2.40728
G1 X141.526 Y93.186 E2.4549
G1 X141.535 Y93.506 E2.46661
G1 X141.54 Y93.83 E2.47847
G1 X141.54 Y125.774 E3.64718
G1 X141.539 Y125.933 E3.65299
G1 X141.529 Y126.657 E3.67948
G1 X141.52 Y126.985 E3.69149
G1 X141.495 Y127.577 E3.71317
G1 X141.486 Y127.743 E3.71925
G1 X141.4 Y129.253 E3.77458
G1 X141.331 Y131.735 E3.86543
G1 X141.331 Y134.264 E3.95795
G1 X141.402 Y136.758 E4.04924
G1 X141.473 Y138.161 E4.10063
G1 X141.511 Y138.822 E4.12485
G1 X141.525 Y139.151 E4.1369
G1 X141.535 Y139.494 E4.14946
G1 X141.54 Y139.83 E4.16175
G1 X141.54 Y171.764 E5.33009
G1 X141.539 Y171.907 E5.33533
G1 X141.53 Y172.634 E5.36193
G1 X141.478 Y173.593 E5.39706
G1 X141.347 Y174.545 E5.43222
G1 X141.137 Y175.482 E5.46735
G1 X140.849 Y176.399 E5.50252
G1 X140.487 Y177.288 E5.53764
G1 X140.051 Y178.145 E5.57282
G1 X139.546 Y178.962 E5.60796
G1 X138.975 Y179.734 E5.64309
G1 X138.341 Y180.456 E5.67824
G1 X137.65 Y181.123 E5.71338
G1 X136.906 Y181.73 E5.74851
G1 X136.113 Y182.273 E5.78367
G1 X135.278 Y182.748 E5.81882
G1 X134.407 Y183.153 E5.85396
G1 X133.505 Y183.483 E5.8891
G1 X132.579 Y183.737 E5.92423
G1 X131.634 Y183.913 E5.9594
G1 X130.314 Y184.026 E6.00787
G1 X129.993 Y184.035 E6.01962
G1 X129.67 Y184.04 E6.03144
G1 X90.707 Y184.04 E7.45694
G1 X90.558 Y184.039 E7.46239
G1 X89.86 Y184.03 E7.48793
G1 X88.901 Y183.978 E7.52307
G1 X87.949 Y183.846 E7.55823
G1 X87.012 Y183.635 E7.59337
G1 X86.096 Y183.347 E7.6285
G1 X85.206 Y182.984 E7.66367
G1 X84.35 Y182.548 E7.69882
G1 X83.533 Y182.043 E7.73396
G1 X82.761 Y181.471 E7.76911
G1 X82.04 Y180.837 E7.80423
G1 X81.373 Y180.146 E7.83937
G1 X80.766 Y179.401 E7.87453
G1 X80.224 Y178.608 E7.90967
G1 X79.749 Y177.773 E7.94482
G1 X79.345 Y176.901 E7.97998
G1 X79.015 Y175.999 E8.01512
G1 X78.761 Y175.073 E8.05025
G1 X78.586 Y174.128 E8.08541
G1 X78.473 Y172.803 E8.13406
G1 X78.464 Y172.47 E8.14625
G1 X78.46 Y172.158 E8.15767
G1 X78.46 Y140.207 E9.32663
G1 X78.461 Y140.044 E9.3326
G1 X78.471 Y139.338 E9.35843
G1 X78.48 Y139.013 E9.37032
G1 X78.505 Y138.422 E9.39196
G1 X78.514 Y138.257 E9.39801
G1 X78.6 Y136.747 E9.45335
G1 X78.669 Y134.265 E9.54419
G1 X78.669 Y131.736 E9.63671
G1 X78.598 Y129.242 E9.728
G1 X78.527 Y127.836 E9.7795
G1 X78.489 Y127.178 E9.80362
G1 X78.475 Y126.849 E9.81566
G1 X78.465 Y126.506 E9.82822
G1 X78.46 Y126.17 E9.84051
G1 X78.46 Y94.174 E11.01112
G1 X78.461 Y94.018 E11.01683
G1 X78.47 Y93.353 E11.04116
G1 X78.523 Y92.394 E11.0763
G1 X78.656 Y91.442 E11.11147
G1 X78.867 Y90.505 E11.14661
G1 X79.155 Y89.589 E11.18174
G1 X79.519 Y88.7 E11.21689
G1 X79.955 Y87.844 E11.25203
G1 X80.461 Y87.027 E11.28719
G1 X81.033 Y86.256 E11.32231
G1 X81.668 Y85.534 E11.35749
G0 F6000 X82.1 Y85.721
G1 F1200 X82.788 Y85.079 E11.39192
G1 X83.529 Y84.497 E11.42639
G1 X84.317 Y83.98 E11.46087
G1 X85.146 Y83.531 E11.49537
G1 X86.009 Y83.155 E11.52981
G1 X86.902 Y82.853 E11.5643
G1 X87.816 Y82.628 E11.59873
G1 X88.747 Y82.481 E11.63322
G1 X89.698 Y82.413 E11.6681
G1 X90.019 Y82.404 E11.67985
G1 X90.33 Y82.4 E11.69123
G1 X129.293 Y82.4 E13.11674
G1 X129.452 Y82.401 E13.12255
G1 X130.15 Y82.411 E13.14809
G1 X131.091 Y82.465 E13.18258
G1 X132.023 Y82.598 E13.21702
G1 X132.941 Y82.809 E13.25148
G1 X133.838 Y83.098 E13.28596
G1 X134.707 Y83.462 E13.32043
G1 X135.542 Y83.898 E13.35489
G1 X136.337 Y84.403 E13.38935
G1 X137.087 Y84.974 E13.42384
G1 X137.785 Y85.607 E13.45831
G1 X138.427 Y86.296 E13.49277
G1 X139.009 Y87.037 E13.52724
G1 X139.525 Y87.825 E13.5617
G1 X139.973 Y88.654 E13.59618
G1 X140.348 Y89.518 E13.63064
G1 X140.65 Y90.411 E13.66513
G1 X140.874 Y91.326 E13.69959
G1 X141.02 Y92.257 E13.73407
G1 X141.087 Y93.198 E13.76858
G1 X141.096 Y93.518 E13.7803
G1 X141.1 Y93.83 E13.79171
G1 X141.1 Y125.774 E14.96042
G1 X141.099 Y125.927 E14.96602
G1 X141.089 Y126.651 E14.99251
G1 X141.08 Y126.966 E15.00404
G1 X141.055 Y127.558 E15.02572
G1 X141.047 Y127.719 E15.03161
G1 X140.962 Y129.217 E15.08651
G1 X140.891 Y131.759 E15.17955
G1 X140.891 Y134.277 E15.27167
G1 X140.963 Y136.792 E15.36372
G1 X141.029 Y138.102 E15.41171
G1 X141.072 Y138.847 E15.43901
G1 X141.085 Y139.164 E15.45062
G1 X141.095 Y139.507 E15.46317
G1 X141.1 Y139.83 E15.47499
G1 X141.1 Y171.764 E16.64334
G1 X141.099 Y171.901 E16.64835
G1 X141.09 Y172.628 E16.67495
G1 X141.039 Y173.569 E16.70943
G1 X140.907 Y174.502 E16.7439
G1 X140.697 Y175.421 E16.77839
G1 X140.41 Y176.318 E16.81285
G1 X140.048 Y177.188 E16.84732
G1 X139.614 Y178.024 E16.88178
G1 X139.11 Y178.82 E16.91625
G1 X138.541 Y179.57 E16.9507
G1 X137.909 Y180.27 E16.9852
G1 X137.221 Y180.913 E17.01965
G1 X136.481 Y181.496 E17.05412
G1 X135.694 Y182.014 E17.08859
G1 X134.866 Y182.463 E17.12305
G1 X134.003 Y182.841 E17.15752
G1 X133.111 Y183.144 E17.19199
G1 X132.196 Y183.37 E17.22647
G1 X131.266 Y183.518 E17.26092
G1 X130.302 Y183.587 E17.29628
G1 X129.981 Y183.596 E17.30803
G1 X129.67 Y183.6 E17.31941
G1 X90.707 Y183.6 E18.74492
G1 X90.564 Y183.599 E18.75015
G1 X89.866 Y183.59 E18.77569
G1 X88.925 Y183.538 E18.81017
G1 X87.992 Y183.406 E18.84464
G1 X87.074 Y183.196 E18.8791
G1 X86.177 Y182.908 E18.91356
G1 X85.307 Y182.546 E18.94804
G1 X84.471 Y182.111 E18.98252
G1 X83.676 Y181.607 E19.01696
G1 X82.925 Y181.037 E19.05145
G1 X82.226 Y180.405 E19.08593
G1 X81.583 Y179.717 E19.12038
G1 X81.001 Y178.976 E19.15485
G1 X80.483 Y178.189 E19.18932
G1 X80.034 Y177.361 E19.22378
G1 X79.657 Y176.497 E19.25827
G1 X79.355 Y175.605 E19.29273
G1 X79.129 Y174.691 E19.32717
G1 X78.982 Y173.76 E19.36166
G1 X78.913 Y172.791 E19.3972
G1 X78.904 Y172.458 E19.40939
G1 X78.9 Y172.158 E19.42036
G1 X78.9 Y140.207 E20.58933
G1 X78.901 Y140.05 E20.59507
G1 X78.911 Y139.344 E20.62091
G1 X78.92 Y139.032 E20.63232
G1 X78.945 Y138.441 E20.65397
G1 X78.953 Y138.281 E20.65983
G1 X79.038 Y136.783 E20.71472
G1 X79.109 Y134.241 E20.80776
G1 X79.109 Y131.723 E20.89988
G1 X79.037 Y129.208 E20.99194
G1 X78.971 Y127.898 E21.03992
G1 X78.928 Y127.153 E21.06723
G1 X78.915 Y126.836 E21.07883
G1 X78.905 Y126.493 E21.09139
G1 X78.9 Y126.17 E21.10321
G1 X78.9 Y94.174 E22.27382
G1 X78.901 Y94.024 E22.27931
G1 X78.91 Y93.359 E22.30364
G1 X78.963 Y92.418 E22.33812
G1 X79.095 Y91.485 E22.37259
G1 X79.306 Y90.567 E22.40706
G1 X79.594 Y89.67 E22.44152
G1 X79.957 Y88.801 E22.47598
G1 X80.392 Y87.965 E22.51046
G1 X80.897 Y87.17 E22.54492
G1 X81.468 Y86.42 E22.5794
G1 X82.1 Y85.721 E22.61388
G0 F6000 X82.531 Y85.912
G1 F1200 X83.216 Y85.294 E22.64763
G1 X83.952 Y84.737 E22.6814
G1 X84.734 Y84.246 E22.71519
G1 X85.556 Y83.824 E22.74899
G1 X86.41 Y83.475 E22.78274
G1 X87.292 Y83.201 E22.81653
G1 X88.194 Y83.005 E22.85031
G1 X89.11 Y82.887 E22.8841
G1 X89.71 Y82.853 E22.90608
G1 X90.031 Y82.844 E22.91783
G1 X90.33 Y82.84 E22.92877
G1 X129.293 Y82.84 E24.35428
G1 X129.446 Y82.841 E24.35988
G1 X130.144 Y82.851 E24.38541
G1 X131.065 Y82.904 E24.41917
G1 X131.979 Y83.037 E24.45296
G1 X132.878 Y83.248 E24.48674
G1 X133.755 Y83.537 E24.52053
G1 X134.604 Y83.9 E24.55431
G1 X135.418 Y84.335 E24.58808
G1 X136.192 Y84.839 E24.62187
G1 X136.919 Y85.408 E24.65564
G1 X137.594 Y86.038 E24.68942
G1 X138.212 Y86.724 E24.7232
G1 X138.768 Y87.46 E24.75695
G1 X139.259 Y88.243 E24.79077
G1 X139.68 Y89.064 E24.82452
G1 X140.028 Y89.919 E24.85829
G1 X140.301 Y90.801 E24.89207
G1 X140.497 Y91.703 E24.92584
G1 X140.614 Y92.619 E24.95963
G1 X140.647 Y93.21 E24.98129
G1 X140.656 Y93.53 E24.993
G1 X140.66 Y93.83 E25.00398
G1 X140.66 Y125.774 E26.17268
G1 X140.659 Y125.921 E26.17806
G1 X140.649 Y126.645 E26.20455
G1 X140.641 Y126.948 E26.21564
G1 X140.616 Y127.54 E26.23732
G1 X140.608 Y127.694 E26.24296
G1 X140.522 Y129.214 E26.29866
G1 X140.451 Y131.747 E26.39137
G1 X140.451 Y134.256 E26.48317
G1 X140.525 Y136.826 E26.57723
G1 X140.594 Y138.208 E26.62786
G1 X140.632 Y138.873 E26.65223
G1 X140.645 Y139.176 E26.66332
G1 X140.655 Y139.519 E26.67588
G1 X140.66 Y139.83 E26.68726
G1 X140.66 Y171.764 E27.8556
G1 X140.659 Y171.896 E27.86043
G1 X140.65 Y172.623 E27.88703
G1 X140.599 Y173.545 E27.92081
G1 X140.468 Y174.459 E27.95459
G1 X140.258 Y175.358 E27.98837
G1 X139.972 Y176.236 E28.02215
G1 X139.61 Y177.085 E28.05592
G1 X139.177 Y177.9 E28.08968
G1 X138.674 Y178.675 E28.12349
G1 X138.107 Y179.403 E28.15725
G1 X137.478 Y180.079 E28.19103
G1 X136.793 Y180.699 E28.22483
G1 X136.058 Y181.256 E28.25857
G1 X135.276 Y181.748 E28.29238
G1 X134.456 Y182.171 E28.32613
G1 X133.601 Y182.521 E28.35993
G1 X132.72 Y182.796 E28.3937
G1 X131.818 Y182.993 E28.42748
G1 X130.902 Y183.112 E28.46127
G1 X130.29 Y183.147 E28.4837
G1 X129.969 Y183.156 E28.49545
G1 X129.67 Y183.16 E28.50639
G1 X90.707 Y183.16 E29.93189
G1 X90.57 Y183.159 E29.93691
G1 X89.872 Y183.15 E29.96245
G1 X88.95 Y183.098 E29.99623
G1 X88.036 Y182.967 E30.03001
G1 X87.137 Y182.757 E30.06379
G1 X86.259 Y182.47 E30.09759
G1 X85.41 Y182.108 E30.13135
G1 X84.595 Y181.674 E30.16513
G1 X83.821 Y181.171 E30.19891
G1 X83.093 Y180.603 E30.23269
G1 X82.417 Y179.974 E30.26647
G1 X81.798 Y179.289 E30.30025
G1 X81.241 Y178.553 E30.33402
G1 X80.749 Y177.772 E30.36779
G1 X80.327 Y176.951 E30.40156
G1 X79.977 Y176.096 E30.43536
G1 X79.703 Y175.215 E30.46912
G1 X79.506 Y174.313 E30.5029
G1 X79.388 Y173.397 E30.53669
G1 X79.353 Y172.779 E30.55933
G1 X79.344 Y172.446 E30.57152
G1 X79.34 Y172.158 E30.58206
G1 X79.34 Y140.207 E31.75102
G1 X79.341 Y140.056 E31.75655
G1 X79.351 Y139.35 E31.78238
G1 X79.36 Y139.05 E31.79336
G1 X79.385 Y138.459 E31.815
G1 X79.392 Y138.306 E31.82061
G1 X79.478 Y136.786 E31.87631
G1 X79.549 Y134.253 E31.96902
G1 X79.549 Y131.744 E32.06081
G1 X79.475 Y129.174 E32.15488
G1 X79.406 Y127.792 E32.2055
G1 X79.368 Y127.127 E32.22987
G1 X79.355 Y126.824 E32.24097
G1 X79.345 Y126.481 E32.25352
G1 X79.34 Y126.17 E32.2649
G1 X79.34 Y94.174 E33.43551
G1 X79.341 Y94.03 E33.44078
G1 X79.35 Y93.365 E33.46511
G1 X79.402 Y92.443 E33.4989
G1 X79.534 Y91.529 E33.53268
G1 X79.745 Y90.63 E33.56647
G1 X80.033 Y89.753 E33.60024
G1 X80.395 Y88.904 E33.63401
G1 X80.83 Y88.089 E33.66781
G1 X81.333 Y87.315 E33.70158
G1 X81.901 Y86.588 E33.73533
G1 X82.531 Y85.912 E33.76914
G0 F6000 X82.335 Y86.759
G1 F1200 X82.961 Y86.108 E33.80218
G1 X83.643 Y85.514 E33.83527
G1 X84.374 Y84.983 E33.86833
G1 X85.15 Y84.518 E33.90143
G1 X85.963 Y84.124 E33.93448
G1 X86.809 Y83.803 E33.96758
G1 X87.679 Y83.558 E34.00065
G1 X88.567 Y83.391 E34.03371
G1 X89.723 Y83.293 E34.07616
G1 X90.044 Y83.284 E34.0879
G1 X90.33 Y83.28 E34.09837
G1 X129.293 Y83.28 E35.52387
G1 X129.439 Y83.281 E35.52922
G1 X130.137 Y83.291 E35.55476
G1 X131.04 Y83.344 E35.58785
G1 X131.934 Y83.476 E35.62091
G1 X132.813 Y83.687 E35.65399
G1 X133.67 Y83.975 E35.68706
G1 X134.498 Y84.338 E35.72014
G1 X135.291 Y84.772 E35.75321
G1 X136.043 Y85.274 E35.78629
G1 X136.747 Y85.841 E35.81936
G1 X137.398 Y86.468 E35.85243
G1 X137.991 Y87.15 E35.8855
G1 X138.522 Y87.882 E35.91858
G1 X138.986 Y88.658 E35.95166
G1 X139.379 Y89.472 E35.98473
G1 X139.699 Y90.317 E36.01779
G1 X139.944 Y91.188 E36.05089
G1 X140.11 Y92.076 E36.08395
G1 X140.207 Y93.223 E36.12606
G1 X140.216 Y93.543 E36.13777
G1 X140.22 Y93.83 E36.14827
G1 X140.22 Y125.774 E37.31698
G1 X140.219 Y125.915 E37.32214
G1 X140.209 Y126.639 E37.34863
G1 X140.201 Y126.929 E37.35924
G1 X140.176 Y127.521 E37.38092
G1 X140.169 Y127.669 E37.38634
G1 X140.081 Y129.212 E37.44289
G1 X140.011 Y131.734 E37.53519
G1 X140.011 Y134.268 E37.6279
G1 X140.085 Y136.862 E37.72285
G1 X140.15 Y138.153 E37.77014
G1 X140.193 Y138.898 E37.79744
G1 X140.206 Y139.189 E37.8081
G1 X140.216 Y139.532 E37.82065
G1 X140.22 Y139.83 E37.83156
G1 X140.22 Y171.764 E38.9999
G1 X140.219 Y171.891 E39.00454
G1 X140.21 Y172.618 E39.03114
G1 X140.159 Y173.52 E39.0642
G1 X140.028 Y174.415 E39.09729
G1 X139.819 Y175.294 E39.13035
G1 X139.533 Y176.151 E39.1634
G1 X139.172 Y176.98 E39.19648
G1 X138.74 Y177.774 E39.22955
G1 X138.238 Y178.527 E39.26266
G1 X137.673 Y179.232 E39.29572
G1 X137.047 Y179.884 E39.32879
G1 X136.366 Y180.479 E39.36187
G1 X135.635 Y181.011 E39.39495
G1 X134.861 Y181.476 E39.42798
G1 X134.047 Y181.871 E39.46109
G1 X133.203 Y182.193 E39.49414
G1 X132.333 Y182.439 E39.52721
G1 X131.445 Y182.607 E39.56028
G1 X130.277 Y182.707 E39.60317
G1 X129.956 Y182.716 E39.61492
G1 X129.67 Y182.72 E39.62538
G1 X90.707 Y182.72 E41.05089
G1 X90.575 Y182.719 E41.05572
G1 X89.877 Y182.71 E41.08126
G1 X88.975 Y182.659 E41.11431
G1 X88.08 Y182.527 E41.14741
G1 X87.201 Y182.318 E41.18046
G1 X86.344 Y182.031 E41.21353
G1 X85.515 Y181.67 E41.24661
G1 X84.721 Y181.237 E41.2797
G1 X83.969 Y180.735 E41.31278
G1 X83.264 Y180.169 E41.34586
G1 X82.612 Y179.543 E41.37893
G1 X82.018 Y178.862 E41.41199
G1 X81.486 Y178.131 E41.44506
G1 X81.021 Y177.356 E41.47813
G1 X80.626 Y176.543 E41.5112
G1 X80.305 Y175.698 E41.54427
G1 X80.06 Y174.828 E41.57734
G1 X79.892 Y173.939 E41.61044
G1 X79.793 Y172.767 E41.65347
G1 X79.784 Y172.434 E41.66566
G1 X79.78 Y172.158 E41.67576
G1 X79.78 Y140.207 E42.84472
G1 X79.781 Y140.062 E42.85003
G1 X79.791 Y139.356 E42.87586
G1 X79.799 Y139.069 E42.88636
G1 X79.824 Y138.478 E42.90801
G1 X79.831 Y138.331 E42.91339
G1 X79.919 Y136.788 E42.96993
G1 X79.989 Y134.266 E43.06224
G1 X79.989 Y131.732 E43.15495
G1 X79.915 Y129.138 E43.24989
G1 X79.846 Y127.77 E43.30001
G1 X79.807 Y127.102 E43.32449
G1 X79.794 Y126.811 E43.33514
G1 X79.784 Y126.468 E43.3477
G1 X79.78 Y126.17 E43.3586
G1 X79.78 Y94.174 E44.52921
G1 X79.781 Y94.036 E44.53426
G1 X79.79 Y93.371 E44.55859
G1 X79.842 Y92.468 E44.59169
G1 X79.974 Y91.574 E44.62475
G1 X80.184 Y90.695 E44.65781
G1 X80.471 Y89.837 E44.69091
G1 X80.833 Y89.009 E44.72397
G1 X81.267 Y88.216 E44.75705
G1 X81.768 Y87.464 E44.79011
G1 X82.335 Y86.759 E44.82321
G1 F3600 E37.82321
;MESH:85147f29-9716-465c-bd9a-0c3170108971.stl
G0 F6000 X89.335 Y125.4
G0 X91.1 Y125.4
;TYPE:WALL-INNER
G1 F3600 E44.82321
G1 F1200 X91.1 Y94.6 E45.95006
G1 X128.9 Y94.6 E47.33302
G1 X128.9 Y125.4 E48.45987
G1 X91.1 Y125.4 E49.84283
G0 F6000 X90.66 Y125.84
G1 F1200 X90.66 Y94.16 E51.00188
G1 X129.34 Y94.16 E52.41703
G1 X129.34 Y125.84 E53.57608
G1 X90.66 Y125.84 E54.99123
G0 F6000 X90.22 Y126.28
;TYPE:WALL-OUTER
G1 F1200 X90.22 Y93.72 E56.18248
G1 X129.78 Y93.72 E57.62982
G1 X129.78 Y126.28 E58.82107
G1 X90.22 Y126.28 E60.26842
G0 F6000 X91.53 Y124.97
;TYPE:SKIN
G1 F1200 X91.53 Y95.03 E61.36381
G1 X128.47 Y95.03 E62.7153
