;FLAVOR:Marlin
;TIME:11818
;Filament used: 8.06772m
;Layer height: 0.2
;MINX:48.697
;MINY:53.408
;MINZ:0.2
;MAXX:171.303
;MAXY:168.695
;MAXZ:22
;Generated with Cura_SteamEngine 4.2.1
M140 S60
M105
M190 S60
M104 S210
M105
M109 S210
M82 ;absolute extrusion mode
M201 X500.00 Y500.00 Z100.00 E5000.00 ;Setup machine max acceleration
M203 X500.00 Y500.00 Z10.00 E50.00 ;Setup machine max feedrate
M204 P500.00 R1000.00 T500.00 ;Setup Print/Retract/Travel acceleration
M205 X8.00 Y8.00 Z0.40 E5.00 ;Setup Jerk
M220 S100 ;Reset Feedrate
M221 S100 ;Reset Flowrate

G28 ;Home

G92 E0 ;Reset Extruder
G1 Z2.0 F3000 ;Move Z Axis up
G1 X10.1 Y20 Z0.28 F5000.0 ;Move to start position
G1 X10.1 Y200.0 Z0.28 F1500.0 E15 ;Draw the first line
G1 X10.4 Y200.0 Z0.28 F5000.0 ;Move to side a little
G1 X10.4 Y20 Z0.28 F1500.0 E30 ;Draw the second line
G92 E0 ;Reset Extruder
G1 Z2.0 F3000 ;Move Z Axis up

G92 E0
G92 E0
G1 F3600 E-7
;LAYER_COUNT:109
;LAYER:0
M107
G0 F6000 X52.754 Y57.162 Z0.2
;TYPE:SKIRT
G1 F3600 E0
G1 F1200 X53.295 Y56.671 E0.02673
G1 X53.477 Y56.516 E0.03548
G1 X54.233 Y55.925 E0.07058
G1 X55.075 Y55.375 E0.10738
G1 X55.35 Y55.212 E0.11907
G1 X56.196 Y54.757 E0.15422
G1 X57.28 Y54.297 E0.1973
G1 X57.631 Y54.169 E0.21097
G1 X58.547 Y53.878 E0.24613
G1 X59.483 Y53.664 E0.28126
G1 X60.394 Y53.533 E0.31493
G1 X60.905 Y53.48 E0.33373
G1 X61.921 Y53.419 E0.37097
G1 X62.581 Y53.409 E0.39512
G1 X62.756 Y53.408 E0.40152
G1 X129.509 Y53.408 E2.84376
G1 X157.394 Y53.41 E3.86396
G1 X157.558 Y53.411 E3.86996
G1 X158.259 Y53.421 E3.89561
G1 X159.218 Y53.475 E3.93075
G1 X159.703 Y53.533 E3.94862
G1 X159.98 Y53.572 E3.95886
G1 X160.925 Y53.745 E3.99401
G1 X161.46 Y53.88 E4.01419
G1 X161.676 Y53.94 E4.0224
G1 X162.59 Y54.235 E4.05753
G1 X163.147 Y54.458 E4.07948
G1 X163.333 Y54.538 E4.08689
G1 X164.198 Y54.954 E4.12201
G1 X165.344 Y55.653 E4.17112
G1 X165.741 Y55.928 E4.18879
G1 X166.507 Y56.507 E4.22392
G1 X167.481 Y57.408 E4.27246
G1 X167.691 Y57.626 E4.28354
G1 X168.328 Y58.345 E4.31868
G1 X169.051 Y59.336 E4.36356
G1 X169.204 Y59.571 E4.37382
G1 X169.694 Y60.397 E4.40896
G1 X170.114 Y61.261 E4.44411
G1 X170.311 Y61.744 E4.46319
G1 X170.469 Y62.157 E4.47937
G1 X170.775 Y63.067 E4.51449
G1 X171.023 Y64.097 E4.55326
G1 X171.07 Y64.341 E4.56235
G1 X171.249 Y65.702 E4.61257
G1 X171.268 Y65.968 E4.62233
G1 X171.296 Y66.65 E4.6473
G1 X171.302 Y67.144 E4.66537
G1 X171.303 Y67.284 E4.6705
G1 X171.302 Y126.94 E6.85308
G1 X171.302 Y126.943 E6.85319
G1 X171.295 Y153.702 E7.8322
G1 X171.294 Y153.868 E7.83827
G1 X171.285 Y154.483 E7.86077
G1 X171.231 Y155.442 E7.89592
G1 X171.141 Y156.139 E7.92163
G1 X171.088 Y156.47 E7.93389
G1 X170.897 Y157.411 E7.96902
G1 X170.681 Y158.17 E7.99789
G1 X170.604 Y158.41 E8.00711
G1 X170.273 Y159.312 E8.04227
G1 X169.868 Y160.183 E8.07741
G1 X169.516 Y160.815 E8.10388
G1 X169.274 Y161.219 E8.12111
G1 X168.746 Y162.022 E8.15627
G1 X168.154 Y162.778 E8.1914
G1 X167.675 Y163.305 E8.21745
G1 X167.394 Y163.596 E8.23225
G1 X166.699 Y164.259 E8.26739
G1 X165.633 Y165.088 E8.3168
G1 X165.46 Y165.207 E8.32448
G1 X164.647 Y165.718 E8.35962
G1 X163.925 Y166.097 E8.38945
G1 X163.576 Y166.265 E8.40362
G1 X162.694 Y166.645 E8.43876
G1 X161.585 Y167.007 E8.48144
G1 X161.378 Y167.063 E8.48928
G1 X160.441 Y167.275 E8.52443
G1 X159.914 Y167.358 E8.54395
G1 X159.641 Y167.395 E8.55403
G1 X158.428 Y167.495 E8.59856
G1 X155.579 Y167.578 E8.70284
G1 X153.124 Y167.722 E8.79281
G1 X150.588 Y167.942 E8.88594
G1 X148.093 Y168.23 E8.97783
G1 X145.744 Y168.565 E9.06464
G1 X144.368 Y168.678 E9.11515
G1 X143.73 Y168.692 E9.1385
G1 X143.477 Y168.695 E9.14776
G1 X77.622 Y168.694 E11.55714
G1 X77.458 Y168.693 E11.56314
G1 X76.755 Y168.683 E11.58886
G1 X75.796 Y168.629 E11.624
G1 X75.302 Y168.57 E11.6422
G1 X72.807 Y168.217 E11.73439
G1 X70.327 Y167.935 E11.82571
G1 X67.862 Y167.726 E11.91622
G1 X65.304 Y167.581 E12.00996
G1 X62.854 Y167.51 E12.09963
G1 X61.681 Y167.493 E12.14255
G1 X60.722 Y167.438 E12.1777
G1 X60.177 Y167.372 E12.19778
G1 X59.925 Y167.335 E12.2071
G1 X58.981 Y167.156 E12.24225
G1 X58.024 Y166.889 E12.2786
G1 X57.751 Y166.8 E12.28911
G1 X56.851 Y166.464 E12.32426
G1 X56 Y166.065 E12.35864
G1 X55.731 Y165.925 E12.36974
G1 X54.898 Y165.446 E12.40489
G1 X54.189 Y164.96 E12.43634
G1 X53.996 Y164.817 E12.44513
G1 X53.249 Y164.214 E12.48025
G1 X52.604 Y163.602 E12.51278
G1 X52.408 Y163.401 E12.52305
G1 X51.766 Y162.686 E12.55821
G1 X51.085 Y161.77 E12.59997
G1 X50.849 Y161.418 E12.61548
G1 X50.348 Y160.599 E12.6506
G1 X49.916 Y159.741 E12.68575
G1 X49.46 Y158.561 E12.73203
G1 X49.3 Y158.069 E12.75096
G1 X49.041 Y157.144 E12.7861
G1 X48.86 Y156.2 E12.82127
G1 X48.766 Y155.36 E12.85219
G1 X48.737 Y154.972 E12.86643
G1 X48.706 Y154.265 E12.89232
G1 X48.698 Y153.661 E12.91442
G1 X48.697 Y153.508 E12.92002
G1 X48.697 Y67.424 E16.0695
G1 X48.698 Y67.255 E16.07568
G1 X48.709 Y66.504 E16.10316
G1 X48.763 Y65.545 E16.1383
G1 X48.824 Y65.041 E16.15688
G1 X48.882 Y64.635 E16.17188
G1 X49.057 Y63.691 E16.20701
G1 X49.311 Y62.764 E16.24217
G1 X49.538 Y62.117 E16.26726
G1 X49.659 Y61.803 E16.27957
G1 X50.041 Y60.922 E16.3147
G1 X50.493 Y60.08 E16.34967
G1 X50.668 Y59.784 E16.36225
G1 X51.191 Y58.978 E16.3974
G1 X51.917 Y58.058 E16.44028
G1 X52.092 Y57.858 E16.45
G1 X52.754 Y57.162 E16.48514
G0 F6000 X53.073 Y57.466
G1 F1200 X53.58 Y57.006 E16.51019
G1 X53.762 Y56.851 E16.51893
G1 X54.505 Y56.271 E16.55342
G1 X55.299 Y55.753 E16.5881
G1 X55.574 Y55.59 E16.5998
G1 X56.404 Y55.145 E16.63426
G1 X57.431 Y54.711 E16.67505
G1 X57.782 Y54.583 E16.68872
G1 X58.68 Y54.298 E16.72319
G1 X59.599 Y54.09 E16.75766
G1 X60.44 Y53.97 E16.78874
G1 X60.951 Y53.917 E16.80754
G1 X61.928 Y53.859 E16.84334
G1 X62.588 Y53.849 E16.86749
G1 X62.756 Y53.848 E16.87364
G1 X129.509 Y53.848 E19.31587
G1 X157.394 Y53.85 E20.33608
G1 X157.551 Y53.851 E20.34182
G1 X158.252 Y53.861 E20.36747
G1 X159.642 Y53.968 E20.41848
G1 X159.919 Y54.007 E20.42871
G1 X160.845 Y54.178 E20.46316
G1 X161.342 Y54.304 E20.48192
G1 X161.558 Y54.364 E20.49012
G1 X162.454 Y54.654 E20.52458
G1 X162.973 Y54.862 E20.54504
G1 X163.159 Y54.942 E20.55244
G1 X164.008 Y55.351 E20.58692
G1 X165.094 Y56.014 E20.63347
G1 X165.491 Y56.289 E20.65114
G1 X166.242 Y56.858 E20.68561
G1 X167.164 Y57.713 E20.73162
G1 X167.374 Y57.931 E20.74269
G1 X167.998 Y58.637 E20.77717
G1 X168.682 Y59.576 E20.81967
G1 X168.835 Y59.811 E20.82993
G1 X169.315 Y60.621 E20.86438
G1 X169.9 Y61.901 E20.91586
G1 X170.058 Y62.314 E20.93204
G1 X170.357 Y63.207 E20.9665
G1 X170.591 Y64.18 E21.00311
G1 X170.638 Y64.424 E21.0122
G1 X170.81 Y65.733 E21.0605
G1 X170.829 Y65.999 E21.07026
G1 X170.856 Y66.655 E21.09428
G1 X170.862 Y67.149 E21.11236
G1 X170.863 Y67.284 E21.1173
G1 X170.862 Y126.94 E23.29988
G1 X170.862 Y126.943 E23.29999
G1 X170.855 Y153.702 E24.279
G1 X170.854 Y153.861 E24.28481
G1 X170.845 Y154.476 E24.30732
G1 X170.791 Y155.417 E24.3418
G1 X170.706 Y156.069 E24.36586
G1 X170.653 Y156.4 E24.37812
G1 X170.465 Y157.323 E24.41258
G1 X170.262 Y158.036 E24.43971
G1 X170.185 Y158.276 E24.44893
G1 X169.86 Y159.16 E24.48339
G1 X169.46 Y160.013 E24.51786
G1 X169.138 Y160.589 E24.542
G1 X168.896 Y160.993 E24.55923
G1 X168.378 Y161.78 E24.5937
G1 X167.795 Y162.52 E24.62817
G1 X167.359 Y162.999 E24.65186
G1 X167.078 Y163.29 E24.66666
G1 X166.395 Y163.94 E24.70116
G1 X165.384 Y164.725 E24.74799
G1 X165.211 Y164.844 E24.75567
G1 X164.413 Y165.345 E24.79014
G1 X163.734 Y165.701 E24.81819
G1 X163.385 Y165.869 E24.83236
G1 X162.52 Y166.241 E24.86681
G1 X161.47 Y166.582 E24.9072
G1 X161.263 Y166.638 E24.91505
G1 X160.344 Y166.845 E24.94951
G1 X159.855 Y166.922 E24.96763
G1 X159.582 Y166.959 E24.97771
G1 X158.416 Y167.055 E25.02051
G1 X155.575 Y167.138 E25.12449
G1 X153.056 Y167.285 E25.21681
G1 X150.575 Y167.501 E25.30793
G1 X148.054 Y167.792 E25.40077
G1 X145.682 Y168.13 E25.48843
G1 X144.359 Y168.238 E25.537
G1 X143.721 Y168.252 E25.56034
G1 X143.477 Y168.255 E25.56927
G1 X77.622 Y168.254 E27.97865
G1 X77.464 Y168.253 E27.98443
G1 X76.761 Y168.243 E28.01015
G1 X75.363 Y168.134 E28.06146
G1 X72.881 Y167.783 E28.15317
G1 X70.377 Y167.498 E28.24537
G1 X67.853 Y167.284 E28.33805
G1 X65.342 Y167.141 E28.43006
G1 X62.871 Y167.071 E28.5205
G1 X61.688 Y167.053 E28.56379
G1 X60.747 Y166.999 E28.59827
G1 X60.241 Y166.936 E28.61693
G1 X59.989 Y166.899 E28.62625
G1 X59.063 Y166.723 E28.66073
G1 X58.161 Y166.47 E28.69501
G1 X57.888 Y166.381 E28.70551
G1 X57.005 Y166.052 E28.73999
G1 X56.204 Y165.674 E28.77239
G1 X55.935 Y165.534 E28.78349
G1 X55.118 Y165.064 E28.81797
G1 X54.451 Y164.607 E28.84755
G1 X54.258 Y164.464 E28.85634
G1 X53.525 Y163.871 E28.89084
G1 X52.919 Y163.294 E28.92145
G1 X52.723 Y163.093 E28.93172
G1 X52.094 Y162.392 E28.96618
G1 X51.45 Y161.525 E29.00569
G1 X51.214 Y161.173 E29.0212
G1 X50.723 Y160.369 E29.05566
G1 X50.302 Y159.526 E29.09014
G1 X49.878 Y158.425 E29.1333
G1 X49.718 Y157.933 E29.15223
G1 X49.465 Y157.025 E29.18672
G1 X49.29 Y156.1 E29.22116
G1 X49.205 Y155.327 E29.24961
G1 X49.176 Y154.939 E29.26385
G1 X49.146 Y154.259 E29.28875
G1 X49.138 Y153.655 E29.31085
G1 X49.137 Y153.508 E29.31623
G1 X49.137 Y67.424 E32.46571
G1 X49.138 Y67.261 E32.47167
G1 X49.149 Y66.51 E32.49915
G1 X49.26 Y65.103 E32.55079
G1 X49.318 Y64.697 E32.56579
G1 X49.49 Y63.771 E32.60025
G1 X49.741 Y62.863 E32.63472
G1 X49.948 Y62.276 E32.65749
G1 X50.069 Y61.962 E32.6698
G1 X50.445 Y61.098 E32.70428
G1 X50.872 Y60.304 E32.73726
G1 X51.047 Y60.008 E32.74984
G1 X51.56 Y59.218 E32.7843
G1 X52.248 Y58.348 E32.82488
G1 X52.423 Y58.148 E32.83461
G1 X53.073 Y57.466 E32.86907
G0 F6000 X53.392 Y57.77
G1 F1200 X53.865 Y57.341 E32.89244
G1 X54.047 Y57.186 E32.90118
G1 X54.775 Y56.619 E32.93494
G1 X55.524 Y56.132 E32.96763
G1 X55.799 Y55.969 E32.97933
G1 X56.612 Y55.533 E33.01308
G1 X57.582 Y55.124 E33.05159
G1 X57.933 Y54.996 E33.06526
G1 X58.813 Y54.718 E33.09902
G1 X59.714 Y54.516 E33.13281
G1 X60.485 Y54.408 E33.16129
G1 X60.996 Y54.355 E33.18009
G1 X61.935 Y54.299 E33.2145
G1 X62.595 Y54.289 E33.23865
G1 X62.756 Y54.288 E33.24454
G1 X129.509 Y54.288 E35.68678
G1 X157.394 Y54.29 E36.70698
G1 X157.545 Y54.291 E36.71251
G1 X158.246 Y54.301 E36.73816
G1 X159.58 Y54.404 E36.78711
G1 X159.857 Y54.443 E36.79734
G1 X160.765 Y54.611 E36.83113
G1 X161.224 Y54.728 E36.84846
G1 X161.44 Y54.788 E36.85666
G1 X162.318 Y55.073 E36.89043
G1 X162.799 Y55.266 E36.90939
G1 X162.985 Y55.346 E36.9168
G1 X163.816 Y55.748 E36.95057
G1 X164.843 Y56.376 E36.99462
G1 X165.24 Y56.651 E37.01228
G1 X165.976 Y57.209 E37.04608
G1 X166.847 Y58.018 E37.08957
G1 X167.057 Y58.236 E37.10064
G1 X167.668 Y58.928 E37.13442
G1 X168.313 Y59.816 E37.17457
G1 X168.466 Y60.051 E37.18483
G1 X168.936 Y60.846 E37.21862
G1 X169.489 Y62.058 E37.26736
G1 X169.647 Y62.471 E37.28354
G1 X169.94 Y63.347 E37.31733
G1 X170.159 Y64.264 E37.35182
G1 X170.206 Y64.508 E37.36092
G1 X170.371 Y65.765 E37.4073
G1 X170.39 Y66.031 E37.41706
G1 X170.416 Y66.661 E37.44012
G1 X170.422 Y67.155 E37.4582
G1 X170.423 Y67.284 E37.46292
G1 X170.422 Y126.94 E39.6455
G1 X170.422 Y126.943 E39.64561
G1 X170.415 Y153.702 E40.62462
G1 X170.414 Y153.855 E40.63022
G1 X170.405 Y154.47 E40.65272
G1 X170.351 Y155.392 E40.68651
G1 X170.272 Y155.999 E40.70891
G1 X170.219 Y156.33 E40.72117
G1 X170.034 Y157.235 E40.75497
G1 X169.843 Y157.902 E40.78035
G1 X169.766 Y158.142 E40.78957
G1 X169.447 Y159.008 E40.82334
G1 X169.053 Y159.843 E40.85712
G1 X168.761 Y160.363 E40.87893
G1 X168.519 Y160.767 E40.89616
G1 X168.011 Y161.538 E40.92994
G1 X167.438 Y162.261 E40.9637
G1 X167.042 Y162.694 E40.98516
G1 X166.761 Y162.985 E40.99996
G1 X166.092 Y163.621 E41.03374
G1 X165.134 Y164.363 E41.07807
G1 X164.961 Y164.482 E41.08575
G1 X164.179 Y164.972 E41.11951
G1 X163.544 Y165.304 E41.14573
G1 X163.195 Y165.472 E41.1599
G1 X162.346 Y165.836 E41.1937
G1 X161.355 Y166.157 E41.23181
G1 X161.148 Y166.213 E41.23965
G1 X159.796 Y166.486 E41.29012
G1 X159.523 Y166.523 E41.3002
G1 X158.403 Y166.615 E41.34131
G1 X155.57 Y166.698 E41.445
G1 X153.028 Y166.846 E41.53816
G1 X150.519 Y167.065 E41.63031
G1 X147.982 Y167.357 E41.72374
G1 X145.62 Y167.694 E41.81103
G1 X144.349 Y167.798 E41.85769
G1 X143.711 Y167.812 E41.88103
G1 X143.477 Y167.815 E41.8896
G1 X77.622 Y167.814 E44.29898
G1 X77.47 Y167.813 E44.30454
G1 X76.767 Y167.803 E44.33026
G1 X75.425 Y167.699 E44.37951
G1 X72.921 Y167.344 E44.47203
G1 X70.427 Y167.062 E44.56386
G1 X67.882 Y166.845 E44.65731
G1 X65.379 Y166.703 E44.74903
G1 X62.818 Y166.63 E44.84277
G1 X61.695 Y166.613 E44.88386
G1 X60.773 Y166.559 E44.91765
G1 X60.304 Y166.501 E44.93494
G1 X60.052 Y166.464 E44.94426
G1 X59.146 Y166.29 E44.97801
G1 X58.297 Y166.052 E45.01027
G1 X58.024 Y165.963 E45.02078
G1 X57.159 Y165.639 E45.05457
G1 X56.407 Y165.284 E45.08499
G1 X56.138 Y165.144 E45.09609
G1 X55.338 Y164.683 E45.12987
G1 X54.713 Y164.253 E45.15763
G1 X54.52 Y164.11 E45.16641
G1 X53.802 Y163.529 E45.20021
G1 X53.234 Y162.987 E45.22893
G1 X53.038 Y162.786 E45.2392
G1 X52.423 Y162.098 E45.27296
G1 X51.816 Y161.28 E45.31023
G1 X51.58 Y160.928 E45.32573
G1 X51.099 Y160.14 E45.35951
G1 X50.689 Y159.313 E45.39328
G1 X50.297 Y158.289 E45.4334
G1 X50.137 Y157.797 E45.45233
G1 X49.889 Y156.907 E45.48613
G1 X49.72 Y156 E45.51988
G1 X49.644 Y155.295 E45.54583
G1 X49.615 Y154.907 E45.56006
G1 X49.586 Y154.253 E45.58401
G1 X49.578 Y153.649 E45.60611
G1 X49.577 Y153.508 E45.61127
G1 X49.577 Y67.424 E48.76075
G1 X49.578 Y67.268 E48.76646
G1 X49.589 Y66.517 E48.79394
G1 X49.695 Y65.165 E48.84356
G1 X49.753 Y64.759 E48.85856
G1 X49.923 Y63.852 E48.89232
G1 X50.171 Y62.963 E48.92609
G1 X50.359 Y62.434 E48.94663
G1 X50.48 Y62.12 E48.95894
G1 X50.849 Y61.274 E48.99271
G1 X51.251 Y60.528 E49.02371
G1 X51.426 Y60.232 E49.03629
G1 X51.93 Y59.458 E49.07008
G1 X52.58 Y58.637 E49.1084
G1 X52.755 Y58.437 E49.11812
G1 X53.392 Y57.77 E49.15186
G0 F6000 X53.71 Y58.074
G1 F1200 X54.151 Y57.676 E49.1736
G1 X54.333 Y57.521 E49.18234
G1 X55.046 Y56.966 E49.2154
G1 X55.748 Y56.51 E49.24603
G1 X56.023 Y56.347 E49.25772
G1 X56.82 Y55.921 E49.29079
G1 X57.733 Y55.538 E49.32701
G1 X58.084 Y55.41 E49.34068
G1 X58.946 Y55.138 E49.37375
G1 X59.829 Y54.943 E49.40683
G1 X60.531 Y54.846 E49.43276
G1 X61.042 Y54.793 E49.45155
G1 X61.941 Y54.739 E49.4845
G1 X62.601 Y54.729 E49.50865
G1 X62.756 Y54.728 E49.51433
G1 X129.509 Y54.728 E51.95656
G1 X157.394 Y54.73 E52.97677
G1 X157.539 Y54.731 E52.98207
G1 X158.24 Y54.741 E53.00772
G1 X159.519 Y54.84 E53.05465
G1 X159.796 Y54.879 E53.06489
G1 X161.106 Y55.152 E53.11385
G1 X161.322 Y55.212 E53.12205
G1 X162.182 Y55.492 E53.15514
G1 X162.625 Y55.671 E53.17262
G1 X162.811 Y55.751 E53.18003
G1 X163.625 Y56.144 E53.2131
G1 X164.593 Y56.738 E53.25465
G1 X164.99 Y57.013 E53.27232
G1 X165.709 Y57.56 E53.30537
G1 X166.53 Y58.324 E53.3464
G1 X166.74 Y58.542 E53.35747
G1 X167.338 Y59.22 E53.39055
G1 X167.945 Y60.056 E53.42835
G1 X168.098 Y60.291 E53.43861
G1 X168.557 Y61.069 E53.47166
G1 X169.078 Y62.215 E53.51771
G1 X169.236 Y62.628 E53.53389
G1 X169.522 Y63.486 E53.56698
G1 X169.727 Y64.347 E53.59936
G1 X169.774 Y64.591 E53.60845
G1 X169.932 Y65.796 E53.65292
G1 X169.951 Y66.062 E53.66267
G1 X169.976 Y66.666 E53.68479
G1 X169.982 Y67.16 E53.70286
G1 X169.983 Y67.284 E53.7074
G1 X169.982 Y126.94 E55.88998
G1 X169.982 Y126.943 E55.89009
G1 X169.975 Y153.702 E56.8691
G1 X169.974 Y153.849 E56.87448
G1 X169.965 Y154.464 E56.89698
G1 X169.912 Y155.366 E56.93004
G1 X169.837 Y155.93 E56.95086
G1 X169.784 Y156.261 E56.96312
G1 X169.602 Y157.146 E56.99618
G1 X169.424 Y157.767 E57.01981
G1 X169.347 Y158.007 E57.02904
G1 X169.033 Y158.855 E57.06212
G1 X168.646 Y159.672 E57.09519
G1 X168.383 Y160.137 E57.11474
G1 X168.141 Y160.541 E57.13197
G1 X167.643 Y161.295 E57.16503
G1 X167.08 Y162.002 E57.19809
G1 X166.726 Y162.388 E57.21726
G1 X166.445 Y162.679 E57.23206
G1 X165.789 Y163.301 E57.26513
G1 X164.885 Y164 E57.30694
G1 X164.712 Y164.119 E57.31462
G1 X163.945 Y164.598 E57.3477
G1 X163.353 Y164.908 E57.37215
G1 X163.004 Y165.076 E57.38632
G1 X162.173 Y165.431 E57.41939
G1 X161.24 Y165.732 E57.45525
G1 X161.033 Y165.788 E57.4631
G1 X159.737 Y166.05 E57.51147
