;FLAVOR:Marlin
;TIME:2104
;Filament used: 1.5499m
;Layer height: 0.15
;MINX:97.97
;MINY:98.62
;MINZ:0.2
;MAXX:136.02
;MAXY:136.771
;MAXZ:18.95
;Generated with Cura_SteamEngine 4.1.0
M140 S60
M105
M190 S60
M104 S200
M105
M109 S200
M82 ;absolute extrusion mode
; Ender 3 Custom Start G-code
G28 ; Home all axes
G92 E0 ; Reset Extruder
G1 Z2.0 F3000 ; Move Z Axis up little to prevent scratching of Heat Bed
G1 X0.1 Y20 Z0.3 F5000.0 ; Move to start position
G1 X0.1 Y200.0 Z0.3 F1500.0 E15 ; Draw the first line
G1 X0.4 Y200.0 Z0.3 F5000.0 ; Move to side a little
G1 X0.4 Y20 Z0.3 F1500.0 E30 ; Draw the second line
G92 E0 ; Reset Extruder
G1 Z2.0 F3000 ; Move Z Axis up little to prevent scratching of Heat Bed
; End of custom start GCode
G92 E0
G92 E0
G1 F3600 E-7
;LAYER_COUNT:126
;LAYER:0
M107
M204 S500
M205 X10 Y10
G0 F3600 X103.692 Y104.058 Z0.2
;TYPE:SKIRT
G1 F3600 E0
G1 F1800 X103.817 Y103.936 E0.00581
G1 X104.09 Y103.676 E0.01835
G1 X104.318 Y103.468 E0.02861
G1 X104.687 Y103.149 E0.04484
G1 X104.83 Y103.029 E0.05105
G1 X105.127 Y102.787 E0.06379
G1 X105.284 Y102.664 E0.07042
G1 X105.67 Y102.369 E0.08658
G1 X105.915 Y102.19 E0.09667
G1 X106.142 Y102.033 E0.10585
G1 X106.291 Y101.934 E0.1118
G1 X106.979 Y101.486 E0.13911
G1 X107.294 Y101.293 E0.1514
G1 X107.92 Y100.935 E0.17538
G1 X108.121 Y100.825 E0.183
G1 X108.439 Y100.658 E0.19495
G1 X108.705 Y100.526 E0.20482
G1 X109.225 Y100.283 E0.22392
G1 X109.506 Y100.16 E0.23412
G1 X110.074 Y99.927 E0.25454
G1 X110.436 Y99.791 E0.2674
G1 X111.365 Y99.474 E0.30005
G1 X111.78 Y99.348 E0.31447
G1 X112.525 Y99.149 E0.34012
G1 X112.846 Y99.072 E0.3511
G1 X113.382 Y98.958 E0.36933
G1 X113.717 Y98.896 E0.38066
G1 X114.358 Y98.795 E0.40224
G1 X114.735 Y98.747 E0.41488
G1 X115.363 Y98.686 E0.43587
G1 X115.794 Y98.659 E0.45023
G1 X117.019 Y98.623 E0.49099
G1 X117.232 Y98.62 E0.49807
G1 X117.734 Y98.622 E0.51477
G1 X118.386 Y98.658 E0.53649
G1 X119.57 Y98.784 E0.57609
G1 X120.102 Y98.863 E0.59398
G1 X120.918 Y99.02 E0.62162
G1 X121.222 Y99.086 E0.63197
G1 X121.974 Y99.269 E0.65771
G1 X122.383 Y99.383 E0.67183
G1 X122.672 Y99.474 E0.68191
G1 X122.879 Y99.543 E0.68916
G1 X123.412 Y99.731 E0.70796
G1 X123.583 Y99.794 E0.71402
G1 X124.105 Y99.995 E0.73263
G1 X124.274 Y100.064 E0.7387
G1 X124.647 Y100.22 E0.75215
G1 X124.826 Y100.298 E0.75864
G1 X125.024 Y100.388 E0.76587
G1 X125.286 Y100.514 E0.77554
G1 X125.901 Y100.828 E0.79851
G1 X126.351 Y101.081 E0.81568
G1 X127.293 Y101.662 E0.85249
G1 X127.771 Y101.988 E0.87174
G1 X128.677 Y102.667 E0.90939
G1 X128.884 Y102.829 E0.91814
G1 X129.063 Y102.975 E0.92582
G1 X129.286 Y103.165 E0.93556
G1 X129.695 Y103.531 E0.95382
G1 X129.913 Y103.735 E0.96375
G1 X130.261 Y104.077 E0.97998
G1 X130.409 Y104.228 E0.98701
G1 X130.57 Y104.397 E0.99477
G1 X130.66 Y104.493 E0.99915
G1 X130.862 Y104.714 E1.00911
G1 X130.966 Y104.831 E1.01431
G1 X131.428 Y105.362 E1.03772
G1 X131.692 Y105.686 E1.05162
G1 X131.861 Y105.908 E1.0609
G1 X132.042 Y106.157 E1.07114
G1 X132.838 Y107.314 E1.11785
G1 X133.159 Y107.833 E1.13815
G1 X133.418 Y108.299 E1.15588
G1 X133.51 Y108.471 E1.16237
G1 X133.65 Y108.742 E1.17251
G1 X133.798 Y109.048 E1.18382
G1 X134.056 Y109.62 E1.20469
G1 X134.094 Y109.706 E1.20782
G1 X134.27 Y110.112 E1.22254
G1 X134.304 Y110.192 E1.22543
G1 X134.738 Y111.232 E1.26291
G1 X134.809 Y111.41 E1.26928
G1 X134.977 Y111.849 E1.28492
G1 X135.072 Y112.112 E1.29422
G1 X135.144 Y112.328 E1.30179
G1 X135.211 Y112.545 E1.30934
G1 X135.337 Y112.973 E1.32418
G1 X135.456 Y113.44 E1.34021
G1 X135.745 Y114.79 E1.38613
G1 X135.84 Y115.359 E1.40532
G1 X135.898 Y115.837 E1.42133
G1 X135.921 Y116.059 E1.42876
G1 X135.966 Y116.582 E1.44621
G1 X135.987 Y116.951 E1.45851
G1 X136.02 Y118.126 E1.4976
G1 X136.01 Y118.716 E1.51723
G1 X135.969 Y119.355 E1.53853
G1 X135.954 Y119.542 E1.54477
G1 X135.905 Y120.065 E1.56224
G1 X135.844 Y120.53 E1.57784
G1 X135.674 Y121.54 E1.6119
G1 X135.634 Y121.757 E1.61924
G1 X135.573 Y122.056 E1.62939
G1 X135.505 Y122.355 E1.63959
G1 X135.388 Y122.815 E1.65538
G1 X135.269 Y123.225 E1.66957
G1 X135.088 Y123.779 E1.68896
G1 X135.007 Y124.011 E1.69713
G1 X134.645 Y124.99 E1.73185
G1 X134.557 Y125.214 E1.73985
G1 X134.476 Y125.41 E1.74691
G1 X134.359 Y125.677 E1.7566
G1 X134.186 Y126.047 E1.77019
G1 X134.122 Y126.179 E1.77507
G1 X134.002 Y126.421 E1.78405
G1 X133.921 Y126.578 E1.78993
G1 X133.817 Y126.774 E1.79731
G1 X133.714 Y126.961 E1.80441
G1 X133.451 Y127.419 E1.82197
G1 X133.351 Y127.587 E1.82848
G1 X133.122 Y127.959 E1.84301
G1 X132.978 Y128.183 E1.85186
G1 X132.837 Y128.392 E1.86025
G1 X132.722 Y128.556 E1.86691
G1 X132.293 Y129.151 E1.89131
G1 X132.18 Y129.304 E1.89763
G1 X131.867 Y129.712 E1.91474
G1 X131.663 Y129.964 E1.92552
G1 X131.526 Y130.125 E1.93255
G1 X131.4 Y130.269 E1.93892
G1 X131.221 Y130.467 E1.94779
G1 X131.132 Y130.563 E1.95215
G1 X130.645 Y131.08 E1.97577
G1 X130.42 Y131.307 E1.9864
G1 X130.164 Y131.553 E1.99821
G1 X130.003 Y131.703 E2.00553
G1 X129.616 Y132.05 E2.02282
G1 X129.416 Y132.222 E2.03159
G1 X129.073 Y132.505 E2.04638
G1 X128.887 Y132.653 E2.05429
G1 X128.365 Y133.052 E2.07614
G1 X128.123 Y133.228 E2.08609
G1 X127.742 Y133.492 E2.10151
G1 X127.571 Y133.606 E2.10834
G1 X127.099 Y133.911 E2.12704
G1 X126.807 Y134.089 E2.13841
G1 X126.472 Y134.281 E2.15125
G1 X126.267 Y134.393 E2.15902
G1 X125.561 Y134.764 E2.18555
G1 X125.275 Y134.906 E2.19617
G1 X125.001 Y135.033 E2.20621
G1 X124.835 Y135.107 E2.21226
G1 X124.297 Y135.338 E2.23173
G1 X124.12 Y135.411 E2.2381
G1 X123.836 Y135.523 E2.24825
G1 X123.624 Y135.602 E2.25578
G1 X123.415 Y135.676 E2.26315
G1 X123.147 Y135.764 E2.27253
G1 X122.095 Y136.085 E2.30912
G1 X121.927 Y136.134 E2.31494
G1 X121.731 Y136.188 E2.3217
G1 X121.53 Y136.24 E2.3286
G1 X121.31 Y136.293 E2.33613
G1 X120.839 Y136.388 E2.35211
G1 X119.586 Y136.592 E2.39434
G1 X119.311 Y136.631 E2.40357
G1 X119.083 Y136.658 E2.41121
G1 X118.92 Y136.675 E2.41666
G1 X118.477 Y136.716 E2.43146
G1 X118.309 Y136.729 E2.43706
G1 X117.9 Y136.756 E2.4507
G1 X117.487 Y136.77 E2.46444
G1 X116.757 Y136.771 E2.48872
G1 X116.518 Y136.767 E2.49667
G1 X116.24 Y136.757 E2.50592
G1 X116.069 Y136.748 E2.51162
G1 X115.798 Y136.731 E2.52065
G1 X115.584 Y136.714 E2.52779
G1 X114.786 Y136.637 E2.55445
G1 X114.371 Y136.584 E2.56837
G1 X113.537 Y136.448 E2.59647
G1 X113.109 Y136.363 E2.61099
G1 X112.284 Y136.17 E2.63917
G1 X112.076 Y136.117 E2.64631
G1 X111.568 Y135.98 E2.66381
G1 X111.095 Y135.833 E2.68028
G1 X110.39 Y135.583 E2.70516
G1 X110.212 Y135.517 E2.71147
G1 X109.594 Y135.277 E2.73352
G1 X109.277 Y135.144 E2.74496
G1 X108.947 Y134.995 E2.757
G1 X108.775 Y134.914 E2.76332
G1 X108.406 Y134.734 E2.77698
G1 X108.319 Y134.691 E2.78021
G1 X107.731 Y134.393 E2.80213
G1 X107.2 Y134.091 E2.82245
G1 X106.93 Y133.92 E2.83308
G1 X106.721 Y133.782 E2.84141
G1 X106.286 Y133.482 E2.85899
G1 X106.141 Y133.379 E2.8649
G1 X105.806 Y133.134 E2.87871
G1 X105.507 Y132.901 E2.89131
G1 X104.671 Y132.21 E2.92739
G1 X104.493 Y132.058 E2.93517
G1 X104.22 Y131.815 E2.94733
G1 X104.085 Y131.691 E2.95343
G1 X103.91 Y131.526 E2.96142
G1 X103.714 Y131.334 E2.97055
G1 X103.382 Y130.993 E2.98638
G1 X103.27 Y130.874 E2.99182
G1 X103.072 Y130.66 E3.00151
G1 X102.951 Y130.525 E3.00754
G1 X102.549 Y130.065 E3.02786
G1 X102.376 Y129.859 E3.03681
G1 X102.177 Y129.611 E3.04738
G1 X101.993 Y129.37 E3.05747
G1 X101.572 Y128.791 E3.08128
G1 X101.467 Y128.642 E3.08734
G1 X101.085 Y128.084 E3.10983
G1 X100.837 Y127.693 E3.12523
G1 X100.553 Y127.206 E3.14398
G1 X100.451 Y127.024 E3.15092
G1 X100.075 Y126.328 E3.17723
G1 X99.853 Y125.874 E3.19404
G1 X99.593 Y125.286 E3.21543
G1 X99.521 Y125.118 E3.22151
G1 X99.193 Y124.315 E3.25036
G1 X99.013 Y123.815 E3.26803
G1 X98.824 Y123.214 E3.28898
G1 X98.77 Y123.033 E3.29527
G1 X98.582 Y122.367 E3.31828
G1 X98.45 Y121.804 E3.33752
G1 X98.27 Y120.841 E3.3701
G1 X98.243 Y120.684 E3.3754
G1 X98.144 Y120.07 E3.39609
G1 X98.079 Y119.523 E3.41441
G1 X98.019 Y118.711 E3.44149
G1 X98.009 Y118.528 E3.44758
G1 X97.973 Y117.732 E3.47409
G1 X97.97 Y117.208 E3.49151
G1 X97.988 Y116.719 E3.50779
G1 X97.998 Y116.532 E3.51402
G1 X98.034 Y115.987 E3.53218
G1 X98.062 Y115.675 E3.5426
G1 X98.139 Y115.008 E3.56493
G1 X98.165 Y114.809 E3.57161
G1 X98.262 Y114.151 E3.59373
G1 X98.373 Y113.582 E3.61301
G1 X98.543 Y112.878 E3.6371
G1 X98.59 Y112.694 E3.64342
G1 X98.661 Y112.434 E3.65238
G1 X98.777 Y112.055 E3.66556
G1 X99.003 Y111.392 E3.68886
G1 X99.101 Y111.125 E3.69832
G1 X99.317 Y110.573 E3.71804
G1 X99.429 Y110.304 E3.72773
G1 X99.582 Y109.96 E3.74025
G1 X99.667 Y109.778 E3.74693
G1 X99.99 Y109.109 E3.77164
G1 X100.128 Y108.839 E3.78173
G1 X100.312 Y108.5 E3.79455
G1 X100.389 Y108.363 E3.79978
G1 X100.554 Y108.076 E3.81079
G1 X100.65 Y107.914 E3.81706
G1 X100.757 Y107.74 E3.82385
G1 X100.804 Y107.665 E3.82679
G1 X101.166 Y107.094 E3.84928
G1 X101.375 Y106.784 E3.86171
G1 X101.562 Y106.524 E3.87237
G1 X101.667 Y106.383 E3.87821
G1 X101.977 Y105.976 E3.89523
G1 X102.16 Y105.747 E3.90498
G1 X102.524 Y105.312 E3.92385
G1 X102.64 Y105.177 E3.92977
G1 X102.825 Y104.968 E3.93905
G1 X102.915 Y104.868 E3.94352
G1 X103.204 Y104.555 E3.95769
G1 X103.367 Y104.385 E3.96553
G1 X103.692 Y104.058 E3.98086
G0 F3600 X103.975 Y104.34
G1 F1800 X104.093 Y104.225 E3.98634
G1 X104.366 Y103.965 E3.99888
G1 X104.58 Y103.771 E4.00849
G1 X104.949 Y103.452 E4.02471
G1 X105.083 Y103.34 E4.03052
G1 X105.38 Y103.098 E4.04326
G1 X105.527 Y102.982 E4.04949
G1 X105.913 Y102.687 E4.06565
G1 X106.143 Y102.519 E4.07512
G1 X106.37 Y102.362 E4.0843
G1 X106.509 Y102.269 E4.08986
G1 X107.197 Y101.821 E4.11717
G1 X107.492 Y101.641 E4.12866
G1 X108.118 Y101.283 E4.15265
G1 X108.307 Y101.179 E4.15982
G1 X108.625 Y101.012 E4.17177
G1 X108.875 Y100.888 E4.18105
G1 X109.395 Y100.645 E4.20014
G1 X109.658 Y100.53 E4.20969
G1 X110.226 Y100.297 E4.23011
G1 X110.565 Y100.169 E4.24216
G1 X111.494 Y99.852 E4.27481
G1 X111.884 Y99.734 E4.28836
G1 X112.629 Y99.535 E4.31401
G1 X112.929 Y99.463 E4.32427
G1 X113.465 Y99.349 E4.3425
G1 X113.779 Y99.291 E4.35312
G1 X114.42 Y99.19 E4.3747
G1 X114.774 Y99.145 E4.38657
G1 X115.402 Y99.084 E4.40755
G1 X115.806 Y99.059 E4.42102
G1 X117.031 Y99.023 E4.46178
G1 X117.231 Y99.02 E4.46843
G1 X117.733 Y99.022 E4.48513
G1 X118.344 Y99.056 E4.50548
G1 X119.528 Y99.182 E4.54508
G1 X120.027 Y99.256 E4.56186
G1 X120.843 Y99.413 E4.5895
G1 X121.128 Y99.475 E4.5992
G1 X121.88 Y99.658 E4.62494
G1 X122.263 Y99.765 E4.63817
G1 X122.552 Y99.856 E4.64825
G1 X122.746 Y99.921 E4.65505
G1 X123.279 Y100.109 E4.67385
G1 X123.439 Y100.168 E4.67952
G1 X123.961 Y100.369 E4.69813
G1 X124.12 Y100.433 E4.70383
G1 X124.493 Y100.589 E4.71727
G1 X124.661 Y100.662 E4.72337
G1 X124.859 Y100.752 E4.7306
G1 X125.104 Y100.87 E4.73965
G1 X125.719 Y101.184 E4.76261
G1 X126.141 Y101.421 E4.77871
G1 X127.083 Y102.002 E4.81552
G1 X127.531 Y102.308 E4.83357
G1 X128.437 Y102.987 E4.87122
G1 X128.631 Y103.138 E4.8794
G1 X128.81 Y103.284 E4.88708
G1 X129.019 Y103.463 E4.89623
G1 X129.428 Y103.829 E4.91449
G1 X129.633 Y104.021 E4.92383
G1 X129.981 Y104.363 E4.94006
G1 X130.119 Y104.503 E4.9466
G1 X130.28 Y104.672 E4.95436
G1 X130.365 Y104.763 E4.9585
G1 X130.567 Y104.984 E4.96846
G1 X130.665 Y105.094 E4.97336
G1 X131.127 Y105.625 E4.99677
G1 X131.374 Y105.929 E5.0098
G1 X131.543 Y106.151 E5.01908
G1 X131.712 Y106.384 E5.02865
G1 X132.508 Y107.541 E5.07536
G1 X132.809 Y108.027 E5.09438
G1 X133.068 Y108.493 E5.11211
G1 X133.155 Y108.654 E5.11819
G1 X133.295 Y108.925 E5.12834
G1 X133.433 Y109.212 E5.13893
G1 X133.691 Y109.784 E5.1598
G1 X133.727 Y109.865 E5.16275
G1 X133.903 Y110.271 E5.17747
G1 X133.935 Y110.346 E5.18018
G1 X134.369 Y111.386 E5.21766
G1 X134.436 Y111.553 E5.22365
G1 X134.604 Y111.992 E5.23928
G1 X134.692 Y112.239 E5.248
G1 X134.764 Y112.455 E5.25557
G1 X134.828 Y112.658 E5.26265
G1 X134.954 Y113.086 E5.27749
G1 X135.065 Y113.524 E5.29252
G1 X135.354 Y114.874 E5.33844
G1 X135.443 Y115.407 E5.35641
G1 X135.501 Y115.885 E5.37243
G1 X135.523 Y116.094 E5.37942
G1 X135.568 Y116.617 E5.39688
G1 X135.588 Y116.963 E5.4084
G1 X135.621 Y118.138 E5.4475
G1 X135.611 Y118.69 E5.46586
G1 X135.57 Y119.329 E5.48716
G1 X135.556 Y119.505 E5.49303
G1 X135.507 Y120.028 E5.5105
G1 X135.45 Y120.464 E5.52513
G1 X135.28 Y121.474 E5.55919
G1 X135.242 Y121.677 E5.56606
G1 X135.181 Y121.976 E5.57621
G1 X135.117 Y122.256 E5.58577
G1 X135 Y122.716 E5.60155
G1 X134.888 Y123.1 E5.61486
G1 X134.707 Y123.654 E5.63424
G1 X134.632 Y123.872 E5.64191
G1 X134.27 Y124.851 E5.67663
G1 X134.187 Y125.062 E5.68417
G1 X134.106 Y125.258 E5.69122
G1 X133.996 Y125.507 E5.70027
G1 X133.823 Y125.877 E5.71386
G1 X133.763 Y126.001 E5.71844
G1 X133.643 Y126.243 E5.72742
G1 X133.568 Y126.39 E5.73291
G1 X133.464 Y126.586 E5.74029
G1 X133.367 Y126.762 E5.74698
G1 X133.104 Y127.22 E5.76454
G1 X133.01 Y127.377 E5.77063
G1 X132.781 Y127.749 E5.78516
G1 X132.646 Y127.96 E5.79349
G1 X132.505 Y128.169 E5.80188
G1 X132.398 Y128.322 E5.80809
G1 X131.969 Y128.917 E5.83248
G1 X131.863 Y129.06 E5.8384
G1 X131.55 Y129.468 E5.85551
G1 X131.359 Y129.704 E5.8656
G1 X131.222 Y129.865 E5.87264
G1 X131.103 Y130.001 E5.87865
G1 X130.924 Y130.199 E5.88752
G1 X130.84 Y130.289 E5.89162
G1 X130.353 Y130.806 E5.91524
G1 X130.143 Y131.018 E5.92517
G1 X129.887 Y131.264 E5.93698
G1 X129.735 Y131.405 E5.94387
G1 X129.348 Y131.752 E5.96116
G1 X129.161 Y131.913 E5.96937
G1 X128.818 Y132.196 E5.98416
G1 X128.644 Y132.335 E5.99156
G1 X128.122 Y132.734 E6.01342
G1 X127.895 Y132.899 E6.02275
G1 X127.514 Y133.163 E6.03817
G1 X127.353 Y133.27 E6.0446
G1 X126.881 Y133.575 E6.06329
G1 X126.609 Y133.742 E6.0739
G1 X126.274 Y133.934 E6.08675
G1 X126.081 Y134.039 E6.09405
G1 X125.375 Y134.41 E6.12058
G1 X125.107 Y134.543 E6.13053
G1 X124.833 Y134.67 E6.14058
G1 X124.677 Y134.739 E6.14625
G1 X124.139 Y134.97 E6.16572
G1 X123.973 Y135.039 E6.1717
G1 X123.689 Y135.151 E6.18186
G1 X123.491 Y135.225 E6.18889
G1 X123.282 Y135.299 E6.19626
G1 X123.03 Y135.382 E6.20509
G1 X121.978 Y135.703 E6.24167
G1 X121.821 Y135.748 E6.2471
G1 X121.625 Y135.802 E6.25386
G1 X121.436 Y135.851 E6.26036
G1 X121.216 Y135.904 E6.26788
G1 X120.775 Y135.993 E6.28285
G1 X119.522 Y136.197 E6.32507
G1 X119.264 Y136.233 E6.33373
G1 X119.036 Y136.26 E6.34137
G1 X118.883 Y136.276 E6.34649
G1 X118.44 Y136.317 E6.36128
G1 X118.282 Y136.33 E6.36656
G1 X117.873 Y136.357 E6.38019
G1 X117.486 Y136.37 E6.39307
G1 X116.756 Y136.371 E6.41735
G1 X116.532 Y136.367 E6.4248
G1 X116.254 Y136.357 E6.43405
G1 X116.094 Y136.349 E6.43938
G1 X115.823 Y136.332 E6.44841
G1 X115.623 Y136.316 E6.45508
G1 X114.825 Y136.239 E6.48175
G1 X114.435 Y136.189 E6.49483
G1 X113.601 Y136.053 E6.52293
G1 X113.2 Y135.973 E6.53653
G1 X112.375 Y135.78 E6.56471
G1 X112.18 Y135.731 E6.5714
G1 X111.672 Y135.594 E6.5889
G1 X111.229 Y135.456 E6.60433
G1 X110.524 Y135.206 E6.62921
G1 X110.357 Y135.144 E6.63514
G1 X109.739 Y134.904 E6.65719
G1 X109.442 Y134.779 E6.6679
G1 X109.112 Y134.63 E6.67995
G1 X108.95 Y134.555 E6.68589
G1 X108.581 Y134.375 E6.69954
G1 X108.5 Y134.334 E6.70256
G1 X107.912 Y134.036 E6.72449
G1 X107.414 Y133.753 E6.74354
G1 X107.144 Y133.582 E6.75417
G1 X106.948 Y133.452 E6.76199
G1 X106.513 Y133.152 E6.77956
G1 X106.377 Y133.056 E6.7851
G1 X106.042 Y132.811 E6.7989
G1 X105.761 Y132.593 E6.81073
G1 X104.925 Y131.902 E6.84681
G1 X104.759 Y131.759 E6.8541
G1 X104.486 Y131.516 E6.86625
G1 X104.359 Y131.4 E6.87197
G1 X104.184 Y131.235 E6.87997
G1 X104.001 Y131.055 E6.88851
G1 X103.669 Y130.714 E6.90434
G1 X103.564 Y130.603 E6.90942
G1 X103.366 Y130.389 E6.91912
G1 X103.252 Y130.262 E6.92479
G1 X102.85 Y129.802 E6.94511
G1 X102.688 Y129.609 E6.95349
G1 X102.489 Y129.361 E6.96407
G1 X102.316 Y129.135 E6.97354
G1 X101.895 Y128.556 E6.99735
G1 X101.797 Y128.416 E7.00303
G1 X101.415 Y127.858 E7.02552
G1 X101.183 Y127.492 E7.03993
G1 X100.899 Y127.005 E7.05868
G1 X100.803 Y126.834 E7.06521
G1 X100.427 Y126.138 E7.09152
G1 X100.219 Y125.712 E7.10729
G1 X99.959 Y125.124 E7.12867
G1 X99.892 Y124.967 E7.13435
G1 X99.564 Y124.164 E7.1632
G1 X99.394 Y123.695 E7.17979
G1 X99.205 Y123.094 E7.20074
G1 X99.155 Y122.924 E7.20664
