;FLAVOR:Marlin
;TIME:992
;Filament used: 0.905883m
;Layer height: 0.3
;MINX:66.631
;MINY:95.572
;MINZ:0.2
;MAXX:168.383
;MAXY:139.415
;MAXZ:8.6
;Generated with Cura_SteamEngine 4.1.0
M140 S60
M105
M190 S60
M104 S200
M105
M109 S200
M82 ;absolute extrusion mode
; Ender 3 Custom Start G-code
G28 ; Home all axes
G92 E0 ; Reset Extruder
G1 Z2.0 F3000 ; Move Z Axis up little to prevent scratching of Heat Bed
G1 X0.1 Y20 Z0.3 F5000.0 ; Move to start position
G1 X0.1 Y200.0 Z0.3 F1500.0 E15 ; Draw the first line
G1 X0.4 Y200.0 Z0.3 F5000.0 ; Move to side a little
G1 X0.4 Y20 Z0.3 F1500.0 E30 ; Draw the second line
G92 E0 ; Reset Extruder
G1 Z2.0 F3000 ; Move Z Axis up little to prevent scratching of Heat Bed
; End of custom start GCode
G92 E0
G92 E0
G1 F2400 E-5
;LAYER_COUNT:30
;LAYER:0
M107
M204 S500
M205 X10 Y10
G0 F3600 X69.207 Y96.863 Z0.2
;TYPE:SKIRT
G1 F2400 E0
G1 F1800 X69.804 Y96.469 E0.02379
G1 X70.441 Y96.144 E0.04758
G1 X71.111 Y95.892 E0.07138
G1 X71.804 Y95.716 E0.09517
G1 X72.513 Y95.619 E0.11897
G1 X72.897 Y95.599 E0.13176
G1 X73.878 Y95.579 E0.16439
G1 X74.008 Y95.578 E0.16871
G1 X78.615 Y95.578 E0.32194
G1 X78.704 Y95.579 E0.3249
G1 X80 Y95.597 E0.36801
G1 X80.091 Y95.599 E0.37104
G1 X81.652 Y95.643 E0.42298
G1 X84.355 Y95.641 E0.51288
G1 X85.932 Y95.606 E0.56535
G1 X86.074 Y95.604 E0.57007
G1 X91.307 Y95.604 E0.74412
G1 X91.395 Y95.605 E0.74705
G1 X93.976 Y95.641 E0.8329
G1 X97.701 Y95.602 E0.9568
G1 X98.565 Y95.577 E0.98555
G1 X98.752 Y95.574 E0.99177
G1 X104.054 Y95.574 E1.16812
G1 X104.143 Y95.575 E1.17108
G1 X105.86 Y95.599 E1.22819
G1 X105.954 Y95.601 E1.23132
G1 X106.688 Y95.622 E1.25574
G1 X109.369 Y95.622 E1.34491
G1 X111.339 Y95.575 E1.41045
G1 X111.492 Y95.573 E1.41554
G1 X116.789 Y95.573 E1.59172
G1 X116.878 Y95.574 E1.59468
G1 X118.595 Y95.598 E1.65179
G1 X118.689 Y95.6 E1.65492
G1 X119.423 Y95.621 E1.67934
G1 X122.105 Y95.621 E1.76855
G1 X124.04 Y95.575 E1.83292
G1 X124.192 Y95.573 E1.83798
G1 X129.493 Y95.573 E2.01429
G1 X129.585 Y95.574 E2.01735
G1 X131.318 Y95.599 E2.075
G1 X131.399 Y95.6 E2.07769
G1 X132.21 Y95.622 E2.10467
G1 X134.872 Y95.62 E2.19321
G1 X136.77 Y95.575 E2.25636
G1 X136.922 Y95.573 E2.26141
G1 X142.211 Y95.573 E2.43733
G1 X142.3 Y95.574 E2.44029
G1 X143.951 Y95.597 E2.49521
G1 X144.05 Y95.599 E2.4985
G1 X144.766 Y95.62 E2.52232
G1 X147.442 Y95.622 E2.61133
G1 X149.471 Y95.574 E2.67883
G1 X149.622 Y95.572 E2.68385
G1 X154.929 Y95.572 E2.86037
G1 X155.021 Y95.573 E2.86343
G1 X155.719 Y95.583 E2.88664
G1 X156.432 Y95.633 E2.91042
G1 X157.136 Y95.762 E2.93422
G1 X157.82 Y95.97 E2.958
G1 X158.477 Y96.252 E2.98178
G1 X159.099 Y96.606 E3.00558
G1 X159.677 Y97.027 E3.02937
G1 X160.205 Y97.51 E3.05317
G1 X160.675 Y98.048 E3.07693
G1 X161.083 Y98.636 E3.10073
G1 X161.422 Y99.266 E3.12453
G1 X161.689 Y99.929 E3.1483
G1 X161.88 Y100.619 E3.17211
G1 X161.975 Y101.165 E3.19054
G1 X162.325 Y103.882 E3.28166
G1 X162.739 Y106.505 E3.36998
G1 X163.229 Y109.127 E3.4587
G1 X163.782 Y111.685 E3.54574
G1 X164.407 Y114.216 E3.63245
G1 X165.122 Y116.809 E3.72192
G1 X165.902 Y119.348 E3.81026
G1 X166.746 Y121.842 E3.89783
G1 X167.706 Y124.434 E3.98976
G1 X167.957 Y125.085 E4.01297
G1 X168.177 Y125.765 E4.03674
G1 X168.32 Y126.466 E4.06054
G1 X168.383 Y127.179 E4.08434
G1 X168.367 Y127.894 E4.10813
G1 X168.271 Y128.603 E4.13193
G1 X168.097 Y129.296 E4.15569
G1 X167.846 Y129.966 E4.17949
G1 X167.522 Y130.604 E4.20329
G1 X167.141 Y131.185 E4.2264
G1 X166.996 Y131.382 E4.23453
G1 X166.837 Y131.589 E4.24321
G1 X166.692 Y131.77 E4.25093
G1 X166.668 Y131.801 E4.25223
G1 X162.89 Y136.459 E4.45171
G1 X162.839 Y136.52 E4.45435
G1 X162.349 Y137.109 E4.47984
G1 X161.862 Y137.633 E4.50363
G1 X161.319 Y138.098 E4.52741
G1 X160.727 Y138.501 E4.55123
G1 X160.095 Y138.834 E4.57499
G1 X159.429 Y139.096 E4.59879
G1 X158.738 Y139.281 E4.62258
G1 X158.031 Y139.388 E4.64636
G1 X157.316 Y139.415 E4.67016
G1 X156.603 Y139.362 E4.69394
G1 X155.639 Y139.161 E4.72669
G1 X155.306 Y139.064 E4.73823
G1 X155.131 Y139.01 E4.74432
G1 X146.797 Y136.321 E5.03558
G1 X75.495 Y113.321 E7.52743
G1 X75.416 Y113.295 E7.53019
G1 X74.781 Y113.081 E7.55248
G1 X74.117 Y112.815 E7.57627
G1 X73.487 Y112.477 E7.60005
G1 X72.898 Y112.07 E7.62386
G1 X72.359 Y111.6 E7.64765
G1 X71.845 Y111.035 E7.67305
G1 X71.661 Y110.807 E7.6828
G1 X71.538 Y110.651 E7.6894
G1 X68.344 Y106.432 E7.86541
G1 X68.291 Y106.361 E7.86835
G1 X67.871 Y105.79 E7.89193
G1 X67.481 Y105.191 E7.9157
G1 X67.159 Y104.552 E7.9395
G1 X66.91 Y103.882 E7.96327
G1 X66.738 Y103.187 E7.98709
G1 X66.645 Y102.478 E8.01087
G1 X66.631 Y101.763 E8.03466
G1 X66.697 Y101.051 E8.05844
G1 X66.843 Y100.35 E8.08225
G1 X67.065 Y99.671 E8.10601
G1 X67.362 Y99.02 E8.12981
G1 X67.73 Y98.406 E8.15362
G1 X68.164 Y97.838 E8.1774
G1 X68.658 Y97.321 E8.20118
G1 X69.207 Y96.863 E8.22496
G0 F3600 X69.698 Y97.006
G1 F1800 X70.295 Y96.656 E8.24798
G1 X70.929 Y96.377 E8.27102
G1 X71.591 Y96.172 E8.29407
G1 X72.272 Y96.046 E8.3171
G1 X72.905 Y95.999 E8.33821
G1 X73.886 Y95.979 E8.37085
G1 X74.008 Y95.978 E8.3749
G1 X78.615 Y95.978 E8.52813
G1 X78.698 Y95.979 E8.5309
G1 X79.994 Y95.997 E8.574
G1 X80.08 Y95.998 E8.57687
G1 X81.676 Y96.043 E8.62997
G1 X84.318 Y96.041 E8.71784
G1 X85.941 Y96.005 E8.77184
G1 X86.074 Y96.004 E8.77626
G1 X91.307 Y96.004 E8.95031
G1 X91.39 Y96.005 E8.95307
G1 X93.974 Y96.041 E9.03902
G1 X97.717 Y96.002 E9.16352
G1 X98.577 Y95.977 E9.19214
G1 X98.752 Y95.974 E9.19796
G1 X104.054 Y95.974 E9.37431
G1 X104.138 Y95.975 E9.3771
G1 X105.855 Y95.999 E9.43421
G1 X105.943 Y96 E9.43714
G1 X106.712 Y96.022 E9.46273
G1 X109.379 Y96.022 E9.55143
G1 X111.349 Y95.975 E9.61697
G1 X111.492 Y95.973 E9.62173
G1 X116.789 Y95.973 E9.79791
G1 X116.873 Y95.974 E9.8007
G1 X118.59 Y95.998 E9.85782
G1 X118.678 Y95.999 E9.86074
G1 X119.447 Y96.021 E9.88633
G1 X122.114 Y96.021 E9.97504
G1 X124.049 Y95.975 E10.03941
G1 X124.192 Y95.973 E10.04417
G1 X129.493 Y95.973 E10.22048
G1 X129.58 Y95.974 E10.22338
G1 X131.313 Y95.999 E10.28102
G1 X131.388 Y96 E10.28352
G1 X132.2 Y96.022 E10.31053
G1 X134.883 Y96.02 E10.39977
G1 X136.78 Y95.975 E10.46288
G1 X136.922 Y95.973 E10.46761
G1 X142.211 Y95.973 E10.64352
G1 X142.295 Y95.974 E10.64631
G1 X143.946 Y95.997 E10.70123
G1 X144.038 Y95.999 E10.70429
G1 X144.754 Y96.02 E10.72812
G1 X147.45 Y96.022 E10.81778
G1 X149.48 Y95.974 E10.88532
G1 X149.622 Y95.972 E10.89005
G1 X154.929 Y95.972 E11.06656
G1 X155.015 Y95.973 E11.06942
G1 X155.713 Y95.983 E11.09264
G1 X156.404 Y96.032 E11.11568
G1 X157.084 Y96.162 E11.1387
G1 X157.745 Y96.368 E11.16173
G1 X158.378 Y96.65 E11.18478
G1 X158.974 Y97.002 E11.2078
G1 X159.525 Y97.421 E11.23082
G1 X160.025 Y97.901 E11.25388
G1 X160.466 Y98.435 E11.27691
G1 X160.843 Y99.016 E11.29995
G1 X161.15 Y99.637 E11.32299
G1 X161.383 Y100.289 E11.34602
G1 X161.578 Y101.216 E11.37752
G1 X161.928 Y103.936 E11.46874
G1 X162.343 Y106.563 E11.55719
G1 X162.832 Y109.179 E11.64571
G1 X163.399 Y111.801 E11.73493
G1 X164.028 Y114.347 E11.82216
G1 X164.736 Y116.918 E11.91086
G1 X165.516 Y119.456 E11.99917
G1 X166.378 Y122.004 E12.08863
G1 X167.302 Y124.499 E12.17712
G1 X167.584 Y125.229 E12.20315
G1 X167.796 Y125.888 E12.22618
G1 X167.93 Y126.568 E12.24923
G1 X167.986 Y127.258 E12.27225
G1 X167.961 Y127.95 E12.29528
G1 X167.857 Y128.635 E12.31833
G1 X167.674 Y129.303 E12.34137
G1 X167.416 Y129.945 E12.36438
G1 X167.086 Y130.554 E12.38742
G1 X166.819 Y130.948 E12.40325
G1 X166.674 Y131.145 E12.41138
G1 X166.525 Y131.339 E12.41952
G1 X166.38 Y131.52 E12.42723
G1 X166.357 Y131.549 E12.42846
G1 X162.579 Y136.207 E12.62794
G1 X162.532 Y136.264 E12.6304
G1 X162.042 Y136.853 E12.65588
G1 X161.569 Y137.359 E12.67892
G1 X161.041 Y137.807 E12.70195
G1 X160.464 Y138.192 E12.72502
G1 X159.848 Y138.507 E12.74803
G1 X159.199 Y138.749 E12.77107
G1 X158.527 Y138.915 E12.79409
G1 X157.84 Y139.002 E12.81712
G1 X157.147 Y139.009 E12.84018
G1 X156.458 Y138.937 E12.86322
G1 X155.751 Y138.777 E12.88733
G1 X155.418 Y138.68 E12.89886
G1 X155.254 Y138.629 E12.90457
G1 X146.92 Y135.94 E13.19584
G1 X75.618 Y112.94 E15.68768
G1 X75.544 Y112.916 E15.69027
G1 X74.909 Y112.702 E15.71255
G1 X74.266 Y112.443 E15.73561
G1 X73.658 Y112.112 E15.75863
G1 X73.092 Y111.713 E15.78167
G1 X72.576 Y111.252 E15.80468
G1 X72.156 Y110.784 E15.82559
G1 X71.972 Y110.556 E15.83534
G1 X71.857 Y110.41 E15.84152
G1 X68.663 Y106.191 E16.01752
G1 X68.614 Y106.124 E16.02028
G1 X68.194 Y105.553 E16.04386
G1 X67.816 Y104.973 E16.06688
G1 X67.508 Y104.352 E16.08994
G1 X67.274 Y103.701 E16.11295
G1 X67.116 Y103.026 E16.13601
G1 X67.037 Y102.338 E16.15904
G1 X67.037 Y101.646 E16.18206
G1 X67.118 Y100.958 E16.2051
G1 X67.277 Y100.284 E16.22813
G1 X67.513 Y99.633 E16.25116
G1 X67.822 Y99.013 E16.2742
G1 X68.201 Y98.433 E16.29724
G1 X68.644 Y97.901 E16.32027
G1 X69.145 Y97.423 E16.3433
G1 X69.698 Y97.006 E16.36634
G0 F3600 X69.634 Y97.543
G1 F1800 X70.189 Y97.17 E16.38858
G1 X70.785 Y96.866 E16.41083
G1 X71.413 Y96.636 E16.43308
G1 X72.064 Y96.481 E16.45533
G1 X72.913 Y96.399 E16.4837
G1 X73.894 Y96.379 E16.51634
G1 X74.008 Y96.378 E16.52013
G1 X78.615 Y96.378 E16.67336
G1 X78.693 Y96.379 E16.67595
G1 X79.989 Y96.397 E16.71906
G1 X80.069 Y96.398 E16.72172
G1 X81.666 Y96.443 E16.77486
G1 X84.328 Y96.441 E16.8634
G1 X85.95 Y96.405 E16.91736
G1 X86.074 Y96.404 E16.92149
G1 X91.307 Y96.404 E17.09554
G1 X91.384 Y96.405 E17.0981
G1 X93.973 Y96.441 E17.18422
G1 X97.678 Y96.403 E17.30745
G1 X98.588 Y96.376 E17.33773
G1 X98.752 Y96.374 E17.34319
G1 X104.054 Y96.374 E17.51953
G1 X104.132 Y96.375 E17.52213
G1 X105.849 Y96.399 E17.57924
G1 X105.931 Y96.4 E17.58197
G1 X106.7 Y96.422 E17.60755
G1 X109.388 Y96.422 E17.69696
G1 X111.358 Y96.375 E17.7625
G1 X111.492 Y96.373 E17.76696
G1 X116.789 Y96.373 E17.94313
G1 X116.867 Y96.374 E17.94573
G1 X118.584 Y96.398 E18.00284
G1 X118.666 Y96.399 E18.00557
G1 X119.435 Y96.421 E18.03116
G1 X122.124 Y96.421 E18.12059
G1 X124.059 Y96.375 E18.18497
G1 X124.192 Y96.373 E18.18939
G1 X129.493 Y96.373 E18.36571
G1 X129.574 Y96.374 E18.3684
G1 X131.307 Y96.399 E18.42605
G1 X131.377 Y96.4 E18.42838
G1 X132.189 Y96.422 E18.45539
G1 X134.892 Y96.42 E18.54529
G1 X136.789 Y96.375 E18.60841
G1 X136.922 Y96.373 E18.61283
G1 X142.211 Y96.373 E18.78874
G1 X142.289 Y96.374 E18.79134
G1 X143.94 Y96.397 E18.84626
G1 X144.027 Y96.398 E18.84915
G1 X144.777 Y96.42 E18.87411
G1 X147.46 Y96.422 E18.96334
G1 X149.49 Y96.374 E19.03088
G1 X149.622 Y96.372 E19.03527
G1 X154.929 Y96.372 E19.21178
G1 X155.009 Y96.373 E19.21444
G1 X155.707 Y96.383 E19.23766
G1 X156.374 Y96.432 E19.25991
G1 X157.031 Y96.561 E19.28217
G1 X157.667 Y96.767 E19.30441
G1 X158.275 Y97.048 E19.32669
G1 X158.844 Y97.398 E19.34891
G1 X159.368 Y97.815 E19.37118
G1 X159.838 Y98.291 E19.39343
G1 X160.248 Y98.819 E19.41566
G1 X160.593 Y99.393 E19.43794
G1 X160.866 Y100.004 E19.46019
G1 X161.064 Y100.643 E19.48245
G1 X161.181 Y101.267 E19.50356
G1 X161.53 Y103.978 E19.59447
G1 X161.955 Y106.668 E19.68505
G1 X162.434 Y109.231 E19.77177
G1 X163.006 Y111.877 E19.86181
G1 X163.638 Y114.435 E19.94945
G1 X164.357 Y117.046 E20.03953
G1 X165.138 Y119.587 E20.12794
G1 X166 Y122.134 E20.21738
G1 X166.929 Y124.643 E20.30636
G1 X167.211 Y125.373 E20.33239
G1 X167.414 Y126.01 E20.35463
G1 X167.54 Y126.667 E20.37688
G1 X167.587 Y127.335 E20.39915
G1 X167.553 Y128.003 E20.4214
G1 X167.441 Y128.663 E20.44366
G1 X167.25 Y129.304 E20.46591
G1 X166.984 Y129.918 E20.48816
G1 X166.497 Y130.711 E20.51912
G1 X166.352 Y130.908 E20.52725
G1 X166.213 Y131.089 E20.53484
G1 X166.068 Y131.27 E20.54256
G1 X166.046 Y131.297 E20.54371
G1 X162.268 Y135.955 E20.74319
G1 X162.224 Y136.008 E20.74548
G1 X161.734 Y136.597 E20.77097
G1 X161.276 Y137.085 E20.79323
G1 X160.763 Y137.515 E20.81549
G1 X160.203 Y137.881 E20.83774
G1 X159.603 Y138.177 E20.85999
G1 X158.972 Y138.399 E20.88224
G1 X158.319 Y138.545 E20.9045
G1 X157.654 Y138.611 E20.92672
G1 X156.985 Y138.598 E20.94898
G1 X156.322 Y138.506 E20.97124
G1 X155.863 Y138.393 E20.98696
G1 X155.53 Y138.296 E20.9985
G1 X155.376 Y138.248 E21.00386
G1 X147.042 Y135.559 E21.29513
G1 X75.74 Y112.559 E23.78697
G1 X75.672 Y112.537 E23.78935
G1 X75.037 Y112.323 E23.81163
G1 X74.416 Y112.072 E23.83391
G1 X73.831 Y111.748 E23.85615
G1 X73.288 Y111.357 E23.87841
G1 X72.795 Y110.905 E23.90065
G1 X72.467 Y110.533 E23.91715
G1 X72.283 Y110.305 E23.92689
G1 X72.176 Y110.168 E23.93268
G1 X68.982 Y105.949 E24.10868
G1 X68.936 Y105.887 E24.11124
G1 X68.516 Y105.316 E24.13482
G1 X68.152 Y104.754 E24.15709
G1 X67.858 Y104.153 E24.17934
G1 X67.638 Y103.522 E24.20157
G1 X67.495 Y102.868 E24.22384
G1 X67.431 Y102.202 E24.24609
G1 X67.446 Y101.533 E24.26835
G1 X67.542 Y100.871 E24.29059
G1 X67.715 Y100.225 E24.31284
G1 X67.964 Y99.604 E24.33509
G1 X68.286 Y99.018 E24.35733
G1 X68.675 Y98.473 E24.3796
G1 X69.127 Y97.98 E24.40185
G1 X69.634 Y97.543 E24.42411
G0 F3600 X70.124 Y97.684
G1 F1800 X70.68 Y97.358 E24.44554
G1 X71.272 Y97.103 E24.46698
G1 X71.892 Y96.923 E24.48846
G1 X72.528 Y96.822 E24.50988
G1 X72.921 Y96.799 E24.52297
G1 X73.902 Y96.779 E24.5556
G1 X74.008 Y96.778 E24.55913
G1 X78.615 Y96.778 E24.71236
G1 X79.983 Y96.797 E24.75786
G1 X80.057 Y96.798 E24.76032
G1 X81.654 Y96.843 E24.81346
G1 X84.336 Y96.841 E24.90267
G1 X85.958 Y96.805 E24.95663
G1 X86.074 Y96.804 E24.96049
G1 X91.379 Y96.804 E25.13693
G1 X94.014 Y96.84 E25.22458
G1 X97.695 Y96.802 E25.34702
G1 X98.6 Y96.776 E25.37713
G1 X98.752 Y96.774 E25.38218
G1 X104.054 Y96.774 E25.55853
G1 X104.127 Y96.775 E25.56096
G1 X105.844 Y96.799 E25.61807
G1 X105.92 Y96.8 E25.6206
G1 X106.689 Y96.822 E25.64619
G1 X109.356 Y96.822 E25.73489
G1 X111.368 Y96.774 E25.80183
G1 X111.492 Y96.773 E25.80595
G1 X116.789 Y96.773 E25.98213
G1 X116.862 Y96.774 E25.98456
G1 X118.579 Y96.798 E26.04168
G1 X118.655 Y96.799 E26.0442
G1 X119.424 Y96.821 E26.06979
G1 X122.091 Y96.821 E26.1585
G1 X124.068 Y96.774 E26.22427
G1 X124.192 Y96.773 E26.22839
G1 X129.493 Y96.773 E26.40471
G1 X129.568 Y96.774 E26.4072
G1 X131.301 Y96.799 E26.46485
G1 X131.366 Y96.8 E26.46701
G1 X132.178 Y96.822 E26.49403
G1 X134.859 Y96.82 E26.5832
G1 X136.799 Y96.774 E26.64774
G1 X136.922 Y96.773 E26.65183
G1 X142.211 Y96.773 E26.82774
G1 X142.283 Y96.774 E26.83014
G1 X143.934 Y96.797 E26.88506
G1 X144.015 Y96.798 E26.88775
G1 X144.765 Y96.82 E26.91271
G1 X147.428 Y96.822 E27.00128
G1 X149.499 Y96.773 E27.07018
G1 X149.622 Y96.772 E27.07427
G1 X154.929 Y96.772 E27.25078
G1 X155.003 Y96.773 E27.25324
G1 X155.701 Y96.783 E27.27646
G1 X156.344 Y96.832 E27.29791
G1 X156.976 Y96.96 E27.31936
G1 X157.587 Y97.166 E27.3408
G1 X158.168 Y97.445 E27.36224
G1 X158.71 Y97.794 E27.38368
G1 X159.204 Y98.208 E27.40512
G1 X159.644 Y98.68 E27.42658
G1 X160.022 Y99.202 E27.44801
G1 X160.332 Y99.767 E27.46945
G1 X160.57 Y100.366 E27.49089
G1 X160.732 Y100.99 E27.51233
G1 X160.784 Y101.318 E27.52338
G1 X161.136 Y104.054 E27.61513
G1 X161.555 Y106.704 E27.70436
G1 X162.042 Y109.311 E27.79257
G1 X162.622 Y111.992 E27.8838
G1 X163.247 Y114.523 E27.97051
G1 X163.966 Y117.132 E28.06052
G1 X164.763 Y119.727 E28.15081
G1 X165.622 Y122.264 E28.2399
G1 X166.556 Y124.787 E28.32938
G1 X166.838 Y125.517 E28.35541
G1 X167.032 Y126.132 E28.37686
G1 X167.149 Y126.766 E28.3983
G1 X167.187 Y127.409 E28.41972
G1 X167.145 Y128.053 E28.44119
G1 X167.023 Y128.686 E28.46263
G1 X166.824 Y129.299 E28.48406
G1 X166.551 Y129.883 E28.50551
G1 X166.175 Y130.473 E28.52878
G1 X166.03 Y130.67 E28.53691
G1 X165.9 Y130.839 E28.544
G1 X165.755 Y131.02 E28.55172
G1 X165.736 Y131.045 E28.55276
G1 X161.958 Y135.703 E28.75224
G1 X161.917 Y135.753 E28.75439
G1 X161.427 Y136.342 E28.77987
G1 X160.984 Y136.811 E28.80133
G1 X160.487 Y137.221 E28.82276
G1 X159.944 Y137.568 E28.84419
G1 X159.361 Y137.844 E28.86565
G1 X158.749 Y138.046 E28.88708
G1 X158.116 Y138.17 E28.90854
G1 X157.473 Y138.216 E28.92998
G1 X156.83 Y138.181 E28.95139
G1 X155.975 Y138.009 E28.9804
G1 X155.642 Y137.912 E28.99194
G1 X155.499 Y137.868 E28.99691
G1 X147.165 Y135.179 E29.28818
G1 X75.863 Y112.179 E31.78002
G1 X75.799 Y112.158 E31.78226
G1 X75.164 Y111.944 E31.80455
G1 X74.567 Y111.7 E31.826
G1 X74.005 Y111.385 E31.84742
