;FLAVOR:Marlin
;TIME:1866
;Filament used: 0.647239m
;Layer height: 0.2
;MINX:85.593
;MINY:94.464
;MINZ:0.2
;MAXX:128.127
;MAXY:125.542
;MAXZ:24
;Generated with Cura_SteamEngine 4.3.0
M140 S65
M105
M190 S65
M104 S210
M105
M109 S210
M82 ;absolute extrusion mode
M201 X500.00 Y500.00 Z100.00 E5000.00 ;Setup machine max acceleration
M203 X500.00 Y500.00 Z10.00 E50.00 ;Setup machine max feedrate
M204 P500.00 R1000.00 T500.00 ;Setup Print/Retract/Travel acceleration
M205 X8.00 Y8.00 Z0.40 E5.00 ;Setup Jerk
M220 S100 ;Reset Feedrate
M221 S100 ;Reset Flowrate

G28 ;Home

G92 E0 ;Reset Extruder
G1 Z2.0 F3000 ;Move Z Axis up
G1 X10.1 Y20 Z0.28 F5000.0 ;Move to start position
G1 X10.1 Y200.0 Z0.28 F1500.0 E15 ;Draw the first line
G1 X10.4 Y200.0 Z0.28 F5000.0 ;Move to side a little
G1 X10.4 Y20 Z0.28 F1500.0 E30 ;Draw the second line
G92 E0 ;Reset Extruder
G1 Z2.0 F3000 ;Move Z Axis up

G92 E0
G92 E0
G1 F3600 E-7
;LAYER_COUNT:140
;LAYER:0
M107
G0 F9000 X89.79 Y98.235 Z0.2
;TYPE:SKIRT
G1 F3600 E0
G1 F1800 X90.532 Y97.635 E0.03174
G1 X91.321 Y97.098 E0.06348
G1 X91.871 Y96.778 E0.08465
G1 X92.093 Y96.657 E0.09305
G1 X92.95 Y96.236 E0.12481
G1 X93.839 Y95.888 E0.15657
G1 X94.754 Y95.615 E0.18832
G1 X95.452 Y95.461 E0.2121
G1 X95.778 Y95.4 E0.22313
G1 X96.953 Y95.243 E0.26256
G1 X97.754 Y95.178 E0.28929
G1 X97.971 Y95.163 E0.29652
G1 X108.598 Y94.505 E0.65065
G1 X108.761 Y94.496 E0.65608
G1 X109.37 Y94.467 E0.67636
G1 X110.383 Y94.464 E0.71005
G1 X111.06 Y94.492 E0.73259
G1 X111.404 Y94.511 E0.74405
G1 X111.669 Y94.53 E0.75289
G1 X112.702 Y94.652 E0.78748
G1 X113.408 Y94.768 E0.81128
G1 X113.796 Y94.838 E0.82439
G1 X114.096 Y94.898 E0.83457
G1 X115.211 Y95.181 E0.87283
G1 X115.702 Y95.332 E0.88991
G1 X116.07 Y95.452 E0.90279
G1 X116.638 Y95.648 E0.92277
G1 X117.756 Y96.101 E0.96289
G1 X118.281 Y96.347 E0.98218
G1 X118.645 Y96.526 E0.99567
G1 X119.078 Y96.748 E1.01185
G1 X120.068 Y97.319 E1.04987
G1 X120.402 Y97.535 E1.06309
G1 X120.722 Y97.75 E1.07592
G1 X121.225 Y98.1 E1.0963
G1 X121.885 Y98.596 E1.12376
G1 X122.105 Y98.774 E1.13317
G1 X122.438 Y99.054 E1.14764
G1 X122.669 Y99.256 E1.15785
G1 X123.154 Y99.705 E1.17983
G1 X123.549 Y100.093 E1.19825
G1 X124.349 Y100.965 E1.2376
G1 X124.943 Y101.684 E1.26862
G1 X125.287 Y102.122 E1.28715
G1 X125.538 Y102.458 E1.3011
G1 X126.124 Y103.323 E1.33585
G1 X126.349 Y103.69 E1.35017
G1 X126.813 Y104.524 E1.38191
G1 X127.291 Y105.61 E1.42137
G1 X127.366 Y105.808 E1.42842
G1 X127.666 Y106.714 E1.46016
G1 X127.89 Y107.642 E1.49191
G1 X128.047 Y108.693 E1.52725
G1 X128.071 Y108.929 E1.53514
G1 X128.127 Y109.882 E1.5669
G1 X128.104 Y110.836 E1.59863
G1 X128.001 Y111.785 E1.63038
G1 X127.819 Y112.723 E1.66216
G1 X127.605 Y113.5 E1.68897
G1 X127.539 Y113.71 E1.69629
G1 X127.214 Y114.608 E1.72805
G1 X126.816 Y115.476 E1.75981
G1 X126.495 Y116.062 E1.78204
G1 X126.316 Y116.367 E1.7938
G1 X125.866 Y117.072 E1.82162
G1 X125.592 Y117.469 E1.83766
G1 X125.337 Y117.824 E1.8522
G1 X125.117 Y118.118 E1.86441
G1 X124.713 Y118.628 E1.88605
G1 X124.522 Y118.855 E1.89592
G1 X123.938 Y119.497 E1.92479
G1 X123.378 Y120.068 E1.95139
G1 X122.996 Y120.44 E1.96912
G1 X122.8 Y120.622 E1.97802
G1 X122.047 Y121.262 E2.01089
G1 X121.473 Y121.709 E2.03508
G1 X121.151 Y121.952 E2.0485
G1 X120.916 Y122.122 E2.05815
G1 X119.917 Y122.768 E2.09772
G1 X119.397 Y123.067 E2.11767
G1 X119.073 Y123.246 E2.12998
G1 X118.566 Y123.516 E2.14908
G1 X117.383 Y124.062 E2.19242
G1 X116.908 Y124.249 E2.2094
G1 X116.592 Y124.367 E2.22062
G1 X116.203 Y124.507 E2.23437
G1 X115.231 Y124.809 E2.26822
G1 X114.494 Y125.002 E2.29356
G1 X114.166 Y125.083 E2.3048
G1 X113.91 Y125.142 E2.31353
G1 X112.887 Y125.329 E2.34812
G1 X112.593 Y125.369 E2.35799
G1 X112.15 Y125.42 E2.37282
G1 X111.445 Y125.488 E2.39638
G1 X110.458 Y125.54 E2.42925
G1 X110.245 Y125.542 E2.43634
G1 X109.654 Y125.533 E2.456
G1 X107.772 Y125.453 E2.51865
G1 X107.536 Y125.44 E2.52651
G1 X97.788 Y124.823 E2.85138
G1 X97.624 Y124.812 E2.85685
G1 X96.853 Y124.752 E2.88257
G1 X95.905 Y124.638 E2.91432
G1 X94.742 Y124.385 E2.95391
G1 X94.518 Y124.324 E2.96163
G1 X93.608 Y124.035 E2.99339
G1 X92.725 Y123.671 E3.02516
G1 X91.71 Y123.137 E3.0633
G1 X91.524 Y123.027 E3.07049
G1 X90.723 Y122.507 E3.10225
G1 X89.969 Y121.922 E3.13399
G1 X89.266 Y121.276 E3.16575
G1 X88.818 Y120.801 E3.18746
G1 X88.629 Y120.589 E3.19691
G1 X88.024 Y119.851 E3.22865
G1 X87.483 Y119.064 E3.26041
G1 X87.009 Y118.235 E3.29218
G1 X86.58 Y117.303 E3.3263
G1 X86.479 Y117.055 E3.33521
G1 X86.156 Y116.156 E3.36698
G1 X85.91 Y115.234 E3.39872
G1 X85.698 Y113.934 E3.44253
G1 X85.659 Y113.559 E3.45507
G1 X85.599 Y112.547 E3.48879
G1 X85.594 Y112.206 E3.50013
G1 X85.593 Y112.036 E3.50578
G1 X85.594 Y108.091 E3.63699
G1 X85.595 Y107.918 E3.64275
G1 X85.605 Y107.271 E3.66427
G1 X85.713 Y105.874 E3.71087
G1 X85.741 Y105.673 E3.71762
G1 X85.912 Y104.734 E3.74937
G1 X86.161 Y103.812 E3.78113
G1 X86.654 Y102.529 E3.82685
G1 X86.784 Y102.243 E3.8373
G1 X87.215 Y101.391 E3.86905
G1 X87.716 Y100.578 E3.90082
G1 X88.283 Y99.81 E3.93257
G1 X88.935 Y99.068 E3.96542
G1 X89.1 Y98.896 E3.97335
G1 X89.79 Y98.235 E4.00513
G0 F9000 X90.066 Y98.525
G1 F1800 X90.797 Y97.936 E4.03635
G1 X91.575 Y97.412 E4.06755
G1 X92.063 Y97.129 E4.08631
G1 X92.285 Y97.008 E4.09472
G1 X93.127 Y96.595 E4.12591
G1 X94.001 Y96.255 E4.15711
G1 X94.9 Y95.991 E4.18827
G1 X95.526 Y95.855 E4.20958
G1 X95.852 Y95.794 E4.22061
G1 X96.985 Y95.642 E4.25863
G1 X97.786 Y95.577 E4.28536
G1 X97.996 Y95.562 E4.29236
G1 X108.623 Y94.904 E4.64649
G1 X108.78 Y94.895 E4.65172
G1 X109.389 Y94.866 E4.672
G1 X110.367 Y94.863 E4.70453
G1 X111.044 Y94.891 E4.72707
G1 X111.376 Y94.91 E4.73813
G1 X111.641 Y94.929 E4.74696
G1 X112.637 Y95.047 E4.78032
G1 X113.343 Y95.163 E4.80412
G1 X113.717 Y95.231 E4.81676
G1 X114.017 Y95.291 E4.82694
G1 X115.093 Y95.563 E4.86385
G1 X115.584 Y95.714 E4.88094
G1 X115.939 Y95.83 E4.89336
G1 X116.507 Y96.026 E4.91334
G1 X117.586 Y96.463 E4.95206
G1 X118.111 Y96.709 E4.97134
G1 X118.463 Y96.882 E4.98439
G1 X118.896 Y97.104 E5.00057
G1 X119.85 Y97.655 E5.03722
G1 X120.184 Y97.871 E5.05045
G1 X120.494 Y98.079 E5.06286
G1 X120.997 Y98.429 E5.08324
G1 X121.633 Y98.906 E5.10969
G1 X121.853 Y99.084 E5.1191
G1 X122.175 Y99.355 E5.1331
G1 X122.406 Y99.557 E5.1433
G1 X122.873 Y99.991 E5.16451
G1 X123.268 Y100.379 E5.18292
G1 X124.04 Y101.22 E5.22089
G1 X124.634 Y101.939 E5.25191
G1 X124.967 Y102.362 E5.26982
G1 X125.218 Y102.698 E5.28377
G1 X125.783 Y103.532 E5.31727
G1 X126.008 Y103.899 E5.33159
G1 X126.464 Y104.718 E5.36277
G1 X126.917 Y105.752 E5.40031
G1 X126.992 Y105.95 E5.40736
G1 X127.286 Y106.84 E5.43853
G1 X127.504 Y107.752 E5.46972
G1 X127.649 Y108.733 E5.5027
G1 X127.673 Y108.969 E5.51059
G1 X127.728 Y109.905 E5.54178
G1 X127.703 Y110.843 E5.57299
G1 X127.598 Y111.775 E5.60418
G1 X127.414 Y112.695 E5.63539
G1 X127.223 Y113.38 E5.65904
G1 X127.157 Y113.59 E5.66636
G1 X126.838 Y114.472 E5.69755
G1 X126.445 Y115.324 E5.72876
G1 X126.15 Y115.86 E5.74911
G1 X125.971 Y116.165 E5.76087
G1 X125.537 Y116.845 E5.7877
G1 X125.263 Y117.242 E5.80375
G1 X125.017 Y117.584 E5.81776
G1 X124.797 Y117.878 E5.82997
G1 X124.407 Y118.37 E5.85085
G1 X124.216 Y118.597 E5.86072
G1 X123.652 Y119.217 E5.8886
G1 X123.092 Y119.788 E5.9152
G1 X122.724 Y120.147 E5.9323
G1 X122.528 Y120.329 E5.94119
G1 X121.802 Y120.947 E5.9729
G1 X121.228 Y121.394 E5.9971
G1 X120.916 Y121.627 E6.01005
G1 X120.681 Y121.797 E6.0197
G1 X119.717 Y122.421 E6.05789
G1 X119.197 Y122.72 E6.07784
G1 X118.885 Y122.893 E6.08971
G1 X118.378 Y123.163 E6.10882
G1 X117.237 Y123.689 E6.1506
G1 X116.762 Y123.876 E6.16758
G1 X116.457 Y123.991 E6.17842
G1 X116.068 Y124.131 E6.19217
G1 X115.13 Y124.422 E6.22484
G1 X114.393 Y124.615 E6.25018
G1 X114.076 Y124.693 E6.26104
G1 X113.82 Y124.752 E6.26977
G1 X112.833 Y124.933 E6.30315
G1 X112.539 Y124.973 E6.31302
G1 X112.112 Y125.022 E6.32731
G1 X111.407 Y125.09 E6.35087
G1 X110.454 Y125.141 E6.38261
G1 X110.241 Y125.143 E6.3897
G1 X109.671 Y125.133 E6.40866
G1 X107.789 Y125.053 E6.47131
G1 X107.561 Y125.041 E6.4789
G1 X97.813 Y124.424 E6.80377
G1 X97.655 Y124.413 E6.80904
G1 X96.884 Y124.353 E6.83476
G1 X95.952 Y124.24 E6.86599
G1 X94.847 Y123.999 E6.9036
G1 X94.623 Y123.938 E6.91133
G1 X93.729 Y123.654 E6.94252
G1 X92.863 Y123.294 E6.97372
G1 X91.914 Y122.793 E7.00941
G1 X91.728 Y122.683 E7.0166
G1 X90.941 Y122.172 E7.04781
G1 X90.202 Y121.595 E7.07899
G1 X89.514 Y120.958 E7.11018
G1 X89.116 Y120.535 E7.12949
G1 X88.927 Y120.323 E7.13894
G1 X88.333 Y119.597 E7.17014
G1 X87.804 Y118.823 E7.20132
G1 X87.342 Y118.007 E7.23251
G1 X86.95 Y117.152 E7.26379
G1 X86.849 Y116.904 E7.2727
G1 X86.533 Y116.021 E7.30389
G1 X86.293 Y115.114 E7.3351
G1 X86.096 Y113.893 E7.37623
G1 X86.057 Y113.518 E7.38877
G1 X85.999 Y112.541 E7.42132
G1 X85.994 Y112.2 E7.43267
G1 X85.993 Y112.036 E7.43812
G1 X85.994 Y108.091 E7.56933
G1 X85.995 Y107.924 E7.57489
G1 X86.005 Y107.277 E7.59641
G1 X86.109 Y105.929 E7.64138
G1 X86.137 Y105.728 E7.64813
G1 X86.306 Y104.806 E7.6793
G1 X86.553 Y103.901 E7.71051
G1 X87.018 Y102.694 E7.75353
G1 X87.148 Y102.408 E7.76398
G1 X87.572 Y101.572 E7.79515
G1 X88.066 Y100.774 E7.82637
G1 X88.626 Y100.022 E7.85755
G1 X89.224 Y99.345 E7.8876
G1 X89.389 Y99.173 E7.89552
G1 X90.066 Y98.525 E7.92669
G0 F9000 X90.343 Y98.814
G1 F1800 X91.061 Y98.238 E7.95731
G1 X91.827 Y97.727 E7.98794
G1 X92.254 Y97.481 E8.00433
G1 X92.476 Y97.36 E8.01274
G1 X93.303 Y96.955 E8.04336
G1 X94.162 Y96.623 E8.07399
G1 X95.046 Y96.367 E8.1046
G1 X95.599 Y96.248 E8.12342
G1 X95.925 Y96.187 E8.13445
G1 X97.018 Y96.041 E8.17112
G1 X97.819 Y95.976 E8.19785
G1 X98.021 Y95.961 E8.20459
G1 X108.648 Y95.303 E8.55872
G1 X108.799 Y95.295 E8.56375
G1 X109.408 Y95.266 E8.58403
G1 X110.35 Y95.263 E8.61536
G1 X111.027 Y95.291 E8.6379
G1 X111.347 Y95.309 E8.64856
G1 X111.612 Y95.328 E8.65739
G1 X112.573 Y95.441 E8.68958
G1 X113.279 Y95.557 E8.71337
G1 X113.639 Y95.623 E8.72555
G1 X113.939 Y95.683 E8.73572
G1 X114.976 Y95.945 E8.7713
G1 X115.467 Y96.096 E8.78838
G1 X115.809 Y96.208 E8.80035
G1 X116.377 Y96.404 E8.82034
G1 X117.417 Y96.825 E8.85765
G1 X117.942 Y97.071 E8.87694
G1 X118.28 Y97.237 E8.88946
G1 X118.713 Y97.459 E8.90565
G1 X119.633 Y97.991 E8.94099
G1 X119.967 Y98.207 E8.95422
G1 X120.265 Y98.407 E8.96616
G1 X120.768 Y98.757 E8.98654
G1 X121.381 Y99.217 E9.01203
G1 X121.601 Y99.395 E9.02144
G1 X121.912 Y99.657 E9.03497
G1 X122.143 Y99.859 E9.04518
G1 X122.593 Y100.276 E9.06558
G1 X122.988 Y100.664 E9.084
G1 X123.732 Y101.475 E9.1206
G1 X124.326 Y102.194 E9.15162
G1 X124.646 Y102.601 E9.16884
G1 X124.897 Y102.937 E9.18279
G1 X125.442 Y103.741 E9.2151
G1 X125.667 Y104.108 E9.22941
G1 X126.114 Y104.913 E9.26004
G1 X126.543 Y105.893 E9.29562
G1 X126.618 Y106.091 E9.30266
G1 X126.906 Y106.965 E9.33327
G1 X127.118 Y107.862 E9.36393
G1 X127.251 Y108.774 E9.39458
G1 X127.275 Y109.01 E9.40247
G1 X127.328 Y109.929 E9.43309
G1 X127.301 Y110.849 E9.4637
G1 X127.195 Y111.763 E9.4943
G1 X127.009 Y112.665 E9.52493
G1 X126.841 Y113.26 E9.5455
G1 X126.775 Y113.47 E9.55282
G1 X126.461 Y114.336 E9.58346
G1 X126.074 Y115.171 E9.61407
G1 X125.805 Y115.657 E9.63254
G1 X125.626 Y115.962 E9.64431
G1 X125.208 Y116.618 E9.67018
G1 X124.934 Y117.015 E9.68622
G1 X124.697 Y117.345 E9.69973
G1 X124.477 Y117.639 E9.71195
G1 X124.101 Y118.113 E9.73207
G1 X123.91 Y118.34 E9.74194
G1 X123.367 Y118.937 E9.76878
G1 X122.807 Y119.508 E9.79538
G1 X122.452 Y119.854 E9.81187
G1 X122.256 Y120.036 E9.82076
G1 X121.556 Y120.631 E9.85132
G1 X120.982 Y121.078 E9.87552
G1 X120.682 Y121.303 E9.88799
G1 X120.447 Y121.473 E9.89764
G1 X119.518 Y122.074 E9.93444
G1 X118.998 Y122.373 E9.95439
G1 X118.696 Y122.54 E9.96587
G1 X118.189 Y122.81 E9.98497
G1 X117.09 Y123.317 E10.02523
G1 X116.615 Y123.504 E10.0422
G1 X116.322 Y123.615 E10.05263
G1 X115.933 Y123.755 E10.06638
G1 X115.028 Y124.035 E10.09788
G1 X114.291 Y124.228 E10.12322
G1 X113.987 Y124.303 E10.13364
G1 X113.731 Y124.362 E10.14238
G1 X112.779 Y124.536 E10.17456
G1 X112.485 Y124.576 E10.18443
G1 X112.074 Y124.624 E10.1982
G1 X111.369 Y124.692 E10.22175
G1 X110.451 Y124.741 E10.25233
G1 X110.238 Y124.743 E10.25941
G1 X109.688 Y124.733 E10.27771
G1 X107.806 Y124.653 E10.34036
G1 X107.586 Y124.642 E10.34769
G1 X97.838 Y124.025 E10.67256
G1 X97.686 Y124.014 E10.67763
G1 X96.915 Y123.954 E10.70335
G1 X96.001 Y123.843 E10.73397
G1 X94.952 Y123.614 E10.76968
G1 X94.728 Y123.553 E10.7774
G1 X93.851 Y123.272 E10.80803
G1 X93.002 Y122.917 E10.83864
G1 X92.117 Y122.449 E10.87194
G1 X91.931 Y122.339 E10.87912
G1 X91.16 Y121.836 E10.90974
G1 X90.435 Y121.269 E10.94036
G1 X89.762 Y120.64 E10.97099
G1 X89.415 Y120.269 E10.98789
G1 X89.226 Y120.057 E10.99734
G1 X88.644 Y119.344 E11.02795
G1 X88.125 Y118.583 E11.05858
G1 X87.675 Y117.78 E11.0892
G1 X87.321 Y117.001 E11.11766
G1 X87.22 Y116.753 E11.12657
G1 X86.91 Y115.886 E11.15719
G1 X86.677 Y114.996 E11.18779
G1 X86.494 Y113.851 E11.22636
G1 X86.455 Y113.476 E11.2389
G1 X86.399 Y112.535 E11.27025
G1 X86.394 Y112.194 E11.28159
G1 X86.393 Y112.036 E11.28685
G1 X86.394 Y108.091 E11.41806
G1 X86.395 Y107.93 E11.42341
G1 X86.405 Y107.283 E11.44493
G1 X86.505 Y105.985 E11.48823
G1 X86.533 Y105.784 E11.49498
G1 X86.7 Y104.878 E11.52563
G1 X86.944 Y103.99 E11.55626
G1 X87.382 Y102.86 E11.59656
G1 X87.512 Y102.574 E11.60701
G1 X87.929 Y101.753 E11.63764
G1 X88.416 Y100.971 E11.66828
G1 X88.968 Y100.235 E11.69888
G1 X89.513 Y99.622 E11.72616
G1 X89.678 Y99.45 E11.73409
G1 X90.343 Y98.814 E11.76469
G0 F9000 X90.62 Y99.103
G1 F1800 X91.326 Y98.54 E11.79473
G1 X92.446 Y97.832 E11.8388
G1 X92.668 Y97.711 E11.84721
G1 X93.479 Y97.314 E11.87724
G1 X94.322 Y96.991 E11.90727
G1 X95.191 Y96.743 E11.93732
G1 X95.673 Y96.641 E11.95371
G1 X95.999 Y96.58 E11.96474
G1 X97.05 Y96.439 E12.00001
G1 X97.851 Y96.374 E12.02674
G1 X98.046 Y96.36 E12.03324
G1 X108.673 Y95.702 E12.38737
G1 X108.818 Y95.695 E12.3922
G1 X109.427 Y95.666 E12.41248
G1 X110.334 Y95.663 E12.44265
G1 X111.011 Y95.691 E12.46518
G1 X111.318 Y95.708 E12.47541
G1 X111.583 Y95.727 E12.48425
G1 X112.508 Y95.836 E12.51522
G1 X113.214 Y95.952 E12.53902
G1 X113.56 Y96.015 E12.55072
G1 X113.86 Y96.075 E12.56089
G1 X114.858 Y96.328 E12.59514
G1 X115.349 Y96.479 E12.61222
G1 X115.678 Y96.586 E12.62373
G1 X116.246 Y96.782 E12.64372
G1 X117.247 Y97.188 E12.67964
G1 X117.772 Y97.434 E12.69893
G1 X118.098 Y97.593 E12.71099
G1 X118.531 Y97.815 E12.72717
G1 X119.416 Y98.327 E12.76118
G1 X119.75 Y98.543 E12.77441
G1 X120.037 Y98.735 E12.78589
G1 X120.54 Y99.085 E12.80628
G1 X121.13 Y99.528 E12.83082
G1 X121.35 Y99.706 E12.84023
G1 X121.648 Y99.958 E12.85321
G1 X121.879 Y100.16 E12.86341
G1 X122.313 Y100.561 E12.88307
G1 X122.708 Y100.949 E12.90148
G1 X123.424 Y101.73 E12.93672
G1 X124.018 Y102.449 E12.96774
G1 X124.326 Y102.841 E12.98432
G1 X124.577 Y103.177 E12.99827
G1 X125.101 Y103.95 E13.02933
G1 X125.326 Y104.317 E13.04365
G1 X125.763 Y105.107 E13.07368
G1 X126.169 Y106.035 E13.10737
G1 X126.244 Y106.233 E13.11441
G1 X126.526 Y107.091 E13.14445
G1 X126.731 Y107.97 E13.17447
G1 X126.853 Y108.814 E13.20283
G1 X126.877 Y109.05 E13.21072
G1 X126.928 Y109.952 E13.24077
G1 X126.9 Y110.854 E13.27079
G1 X126.792 Y111.751 E13.30084
G1 X126.604 Y112.634 E13.33086
G1 X126.46 Y113.14 E13.34836
G1 X126.394 Y113.35 E13.35568
G1 X126.085 Y114.199 E13.38573
G1 X125.703 Y115.017 E13.41576
G1 X125.46 Y115.455 E13.43242
G1 X125.281 Y115.76 E13.44418
G1 X124.879 Y116.391 E13.46907
G1 X124.605 Y116.788 E13.48511
G1 X124.377 Y117.105 E13.4981
G1 X124.157 Y117.399 E13.51031
G1 X123.795 Y117.855 E13.52968
G1 X123.604 Y118.082 E13.53954
G1 X123.081 Y118.657 E13.5654
G1 X122.521 Y119.228 E13.592
G1 X122.18 Y119.56 E13.60783
G1 X121.984 Y119.742 E13.61672
G1 X121.31 Y120.316 E13.64617
G1 X120.736 Y120.763 E13.67036
G1 X120.447 Y120.979 E13.68236
G1 X120.212 Y121.149 E13.69201
G1 X119.318 Y121.727 E13.72742
G1 X118.798 Y122.026 E13.74737
G1 X118.508 Y122.187 E13.7584
G1 X118.001 Y122.457 E13.77751
G1 X116.943 Y122.945 E13.81626
G1 X116.468 Y123.132 E13.83324
G1 X116.186 Y123.238 E13.84326
G1 X115.797 Y123.378 E13.85701
