;FLAVOR:Marlin
;TIME:4679
;Filament used: 3.71879m
;Layer height: 0.2
;MINX:77.5
;MINY:103.595
;MINZ:0.2
;MAXX:158.4
;MAXY:131.4
;MAXZ:27.8
;Generated with Cura_SteamEngine 4.1.0
M140 S60
M105
M190 S60
M104 S200
M105
M109 S200
M82 ;absolute extrusion mode
; Ender 3 Custom Start G-code
G28 ; Home all axes
G92 E0 ; Reset Extruder
G1 Z2.0 F3000 ; Move Z Axis up little to prevent scratching of Heat Bed
G1 X0.1 Y20 Z0.3 F5000.0 ; Move to start position
G1 X0.1 Y200.0 Z0.3 F1500.0 E15 ; Draw the first line
G1 X0.4 Y200.0 Z0.3 F5000.0 ; Move to side a little
G1 X0.4 Y20 Z0.3 F1500.0 E30 ; Draw the second line
G92 E0 ; Reset Extruder
G1 Z2.0 F3000 ; Move Z Axis up little to prevent scratching of Heat Bed
; End of custom start GCode
G92 E0
G92 E0
G1 F2400 E-5
;LAYER_COUNT:139
;LAYER:0
M107
M204 S500
M205 X10 Y10
G0 F3600 X79.971 Y104.964 Z0.2
;TYPE:SKIRT
G1 F2400 E0
G1 F1800 X80.559 Y104.556 E0.0238
G1 X81.188 Y104.216 E0.04759
G1 X81.852 Y103.949 E0.07139
G1 X82.541 Y103.757 E0.09518
G1 X83.247 Y103.643 E0.11896
G1 X83.73 Y103.612 E0.13506
G1 X84.051 Y103.603 E0.14574
G1 X84.23 Y103.6 E0.1517
G1 X142.056 Y103.599 E2.075
G1 X142.639 Y103.595 E2.09439
G1 X142.687 Y103.595 E2.09598
G1 X151.18 Y103.6 E2.37846
G1 X151.268 Y103.601 E2.38139
G1 X151.966 Y103.611 E2.40461
G1 X152.679 Y103.661 E2.42838
G1 X153.383 Y103.79 E2.45219
G1 X154.067 Y103.998 E2.47596
G1 X154.724 Y104.28 E2.49974
G1 X155.346 Y104.634 E2.52355
G1 X155.924 Y105.055 E2.54733
G1 X156.319 Y105.406 E2.56491
G1 X156.435 Y105.518 E2.57027
G1 X156.921 Y106.043 E2.59406
G1 X157.346 Y106.618 E2.61785
G1 X157.703 Y107.238 E2.64164
G1 X157.989 Y107.893 E2.66541
G1 X158.201 Y108.577 E2.68923
G1 X158.334 Y109.279 E2.71299
G1 X158.389 Y110.002 E2.73711
G1 X158.399 Y110.534 E2.75481
G1 X158.4 Y110.654 E2.7588
G1 X158.4 Y116.254 E2.94506
G1 X158.399 Y116.343 E2.94802
G1 X158.389 Y117.062 E2.97193
G1 X158.339 Y117.776 E2.99574
G1 X158.21 Y118.479 E3.01951
G1 X158.003 Y119.164 E3.04331
G1 X157.721 Y119.821 E3.06709
G1 X157.368 Y120.443 E3.09088
G1 X156.947 Y121.021 E3.11466
G1 X156.464 Y121.549 E3.13846
G1 X155.904 Y122.036 E3.16315
G1 X154.961 Y122.765 E3.20279
G1 X154.764 Y122.912 E3.21097
G1 X154.245 Y123.282 E3.23217
G1 X152.115 Y124.895 E3.32103
G1 X150.059 Y126.545 E3.40871
G1 X148.052 Y128.251 E3.49632
G1 X146.362 Y129.761 E3.5717
G1 X145.802 Y130.207 E3.59551
G1 X145.197 Y130.588 E3.61929
G1 X144.553 Y130.899 E3.64308
G1 X143.878 Y131.136 E3.66687
G1 X143.181 Y131.296 E3.69066
G1 X142.308 Y131.385 E3.71984
G1 X141.973 Y131.396 E3.73099
G1 X141.763 Y131.399 E3.73798
G1 X84.607 Y131.4 E5.63899
G1 X84.515 Y131.399 E5.64205
G1 X83.817 Y131.389 E5.66527
G1 X83.104 Y131.339 E5.68904
G1 X82.4 Y131.21 E5.71285
G1 X81.716 Y131.002 E5.73663
G1 X81.059 Y130.72 E5.76041
G1 X80.437 Y130.366 E5.78421
G1 X79.859 Y129.945 E5.80799
G1 X79.331 Y129.462 E5.8318
G1 X78.861 Y128.924 E5.85556
G1 X78.453 Y128.336 E5.87936
G1 X78.114 Y127.706 E5.90315
G1 X77.847 Y127.043 E5.92693
G1 X77.656 Y126.353 E5.95074
G1 X77.543 Y125.647 E5.97452
G1 X77.511 Y125.163 E5.99065
G1 X77.502 Y124.831 E6.0017
G1 X77.5 Y124.658 E6.00745
G1 X77.5 Y110.674 E6.47256
G1 X77.501 Y110.587 E6.47546
G1 X77.51 Y109.922 E6.49758
G1 X77.559 Y109.209 E6.52135
G1 X77.688 Y108.505 E6.54515
G1 X77.895 Y107.821 E6.56892
G1 X78.177 Y107.163 E6.59273
G1 X78.53 Y106.541 E6.61652
G1 X78.95 Y105.963 E6.64028
G1 X79.433 Y105.435 E6.66408
G1 X79.971 Y104.964 E6.68787
G0 F3600 X80.358 Y105.173
G1 F1800 X80.939 Y104.796 E6.7109
G1 X81.559 Y104.488 E6.73393
G1 X82.211 Y104.254 E6.75697
G1 X82.885 Y104.097 E6.77999
G1 X83.741 Y104.011 E6.8086
G1 X84.062 Y104.002 E6.81928
G1 X84.23 Y104 E6.82487
G1 X142.059 Y103.999 E8.74827
G1 X142.642 Y103.995 E8.76766
G1 X142.687 Y103.995 E8.76916
G1 X151.18 Y104 E9.05163
G1 X151.262 Y104.001 E9.05436
G1 X151.96 Y104.011 E9.07758
G1 X152.651 Y104.06 E9.10062
G1 X153.331 Y104.19 E9.12365
G1 X153.992 Y104.396 E9.14668
G1 X154.625 Y104.678 E9.16972
G1 X155.221 Y105.03 E9.19275
G1 X155.772 Y105.449 E9.21577
G1 X156.042 Y105.694 E9.2279
G1 X156.158 Y105.806 E9.23326
G1 X156.627 Y106.315 E9.25628
G1 X157.035 Y106.874 E9.2793
G1 X157.376 Y107.477 E9.30234
G1 X157.645 Y108.115 E9.32537
G1 X157.838 Y108.78 E9.3484
G1 X157.954 Y109.463 E9.37144
G1 X157.989 Y110.009 E9.38964
G1 X157.999 Y110.541 E9.40733
G1 X158 Y110.654 E9.41109
G1 X158 Y116.254 E9.59735
G1 X157.999 Y116.337 E9.60011
G1 X157.989 Y117.056 E9.62403
G1 X157.94 Y117.747 E9.64707
G1 X157.811 Y118.428 E9.67012
G1 X157.605 Y119.089 E9.69315
G1 X157.323 Y119.722 E9.7162
G1 X156.971 Y120.318 E9.73922
G1 X156.553 Y120.87 E9.76225
G1 X156.073 Y121.369 E9.78528
G1 X155.66 Y121.72 E9.8033
G1 X154.717 Y122.449 E9.84295
G1 X154.531 Y122.587 E9.85065
G1 X154.01 Y122.958 E9.87192
G1 X151.869 Y124.579 E9.96124
G1 X149.795 Y126.244 E10.0497
G1 X147.79 Y127.949 E10.13724
G1 X146.095 Y129.463 E10.21283
G1 X145.553 Y129.894 E10.23586
G1 X144.965 Y130.259 E10.25888
G1 X144.338 Y130.554 E10.28193
G1 X143.682 Y130.775 E10.30495
G1 X143.004 Y130.919 E10.328
G1 X142.295 Y130.985 E10.35169
G1 X141.96 Y130.996 E10.36284
G1 X141.763 Y130.999 E10.36939
G1 X84.607 Y131 E12.27041
G1 X84.521 Y130.999 E12.27327
G1 X83.823 Y130.989 E12.29648
G1 X83.132 Y130.94 E12.31952
G1 X82.452 Y130.81 E12.34255
G1 X81.791 Y130.604 E12.36558
G1 X81.158 Y130.322 E12.38863
G1 X80.562 Y129.97 E12.41165
G1 X80.011 Y129.551 E12.43467
G1 X79.511 Y129.071 E12.45773
G1 X79.07 Y128.537 E12.48076
G1 X78.693 Y127.956 E12.5038
G1 X78.386 Y127.335 E12.52684
G1 X78.153 Y126.683 E12.54986
G1 X77.996 Y126.009 E12.57288
G1 X77.911 Y125.153 E12.60149
G1 X77.902 Y124.821 E12.61254
G1 X77.9 Y124.658 E12.61796
G1 X77.9 Y110.674 E13.08307
G1 X77.901 Y110.593 E13.08577
G1 X77.91 Y109.928 E13.10789
G1 X77.959 Y109.237 E13.13093
G1 X78.087 Y108.557 E13.15394
G1 X78.294 Y107.895 E13.17701
G1 X78.575 Y107.262 E13.20004
G1 X78.927 Y106.666 E13.22307
G1 X79.345 Y106.114 E13.2461
G1 X79.824 Y105.614 E13.26913
G1 X80.358 Y105.173 E13.29216
G0 F3600 X80.214 Y105.801
G1 F1800 X80.743 Y105.39 E13.31444
G1 X81.316 Y105.045 E13.33669
G1 X81.927 Y104.772 E13.35895
G1 X82.565 Y104.573 E13.38117
G1 X83.223 Y104.451 E13.40343
G1 X83.752 Y104.411 E13.42108
G1 X84.073 Y104.402 E13.43176
G1 X84.23 Y104.4 E13.43698
G1 X142.062 Y104.399 E15.36048
G1 X142.645 Y104.395 E15.37987
G1 X142.686 Y104.395 E15.38123
G1 X151.179 Y104.4 E15.66371
G1 X151.256 Y104.401 E15.66627
G1 X151.954 Y104.411 E15.68949
G1 X152.621 Y104.46 E15.71174
G1 X153.278 Y104.589 E15.73401
G1 X153.914 Y104.795 E15.75624
G1 X154.522 Y105.076 E15.77852
G1 X155.091 Y105.426 E15.80074
G1 X155.764 Y105.981 E15.82975
G1 X155.88 Y106.093 E15.83511
G1 X156.332 Y106.586 E15.85736
G1 X156.723 Y107.129 E15.87962
G1 X157.046 Y107.715 E15.90187
G1 X157.297 Y108.335 E15.92412
G1 X157.472 Y108.981 E15.94638
G1 X157.569 Y109.643 E15.96863
G1 X157.589 Y110.017 E15.98109
G1 X157.599 Y110.549 E15.99879
G1 X157.6 Y110.654 E16.00228
G1 X157.6 Y116.254 E16.18853
G1 X157.599 Y116.332 E16.19113
G1 X157.589 Y117.051 E16.21505
G1 X157.54 Y117.718 E16.23729
G1 X157.412 Y118.375 E16.25955
G1 X157.206 Y119.011 E16.28179
G1 X156.926 Y119.619 E16.30405
G1 X156.575 Y120.188 E16.32629
G1 X156.159 Y120.712 E16.34854
G1 X155.683 Y121.183 E16.37081
G1 X155.415 Y121.403 E16.38235
G1 X154.472 Y122.132 E16.42199
G1 X154.299 Y122.261 E16.42917
G1 X153.765 Y122.642 E16.45098
G1 X151.64 Y124.251 E16.53964
G1 X149.552 Y125.926 E16.62867
G1 X147.502 Y127.67 E16.71819
G1 X145.829 Y129.164 E16.79279
G1 X145.304 Y129.58 E16.81507
G1 X144.733 Y129.929 E16.83733
G1 X144.125 Y130.208 E16.85958
G1 X143.488 Y130.413 E16.88183
G1 X142.832 Y130.54 E16.90406
G1 X142.282 Y130.585 E16.92241
G1 X141.947 Y130.596 E16.93356
G1 X141.763 Y130.599 E16.93968
G1 X84.607 Y130.6 E18.8407
G1 X84.527 Y130.599 E18.84336
G1 X83.829 Y130.589 E18.86657
G1 X83.162 Y130.54 E18.88882
G1 X82.505 Y130.411 E18.91109
G1 X81.869 Y130.205 E18.93332
G1 X81.261 Y129.924 E18.9556
G1 X80.692 Y129.574 E18.97782
G1 X80.168 Y129.157 E19.00009
G1 X79.698 Y128.681 E19.02234
G1 X79.288 Y128.153 E19.04458
G1 X78.943 Y127.579 E19.06685
G1 X78.67 Y126.968 E19.08911
G1 X78.472 Y126.329 E19.11136
G1 X78.351 Y125.671 E19.13361
G1 X78.311 Y125.142 E19.15126
G1 X78.302 Y124.81 E19.1623
G1 X78.3 Y124.658 E19.16736
G1 X78.3 Y110.674 E19.63247
G1 X78.301 Y110.598 E19.635
G1 X78.31 Y109.933 E19.65712
G1 X78.359 Y109.266 E19.67936
G1 X78.487 Y108.609 E19.70162
G1 X78.692 Y107.973 E19.72385
G1 X78.972 Y107.365 E19.74611
G1 X79.323 Y106.795 E19.76838
G1 X79.739 Y106.271 E19.79063
G1 X80.214 Y105.801 E19.81285
G0 F3600 X80.603 Y105.995
G1 F1800 X81.126 Y105.617 E19.83432
G1 X81.69 Y105.306 E19.85574
G1 X82.289 Y105.068 E19.87718
G1 X82.913 Y104.905 E19.89863
G1 X83.763 Y104.811 E19.92707
G1 X84.084 Y104.802 E19.93775
G1 X84.23 Y104.8 E19.94261
G1 X142.064 Y104.799 E21.86617
G1 X142.647 Y104.795 E21.88557
G1 X142.686 Y104.795 E21.88686
G1 X151.179 Y104.8 E22.16934
G1 X151.25 Y104.801 E22.1717
G1 X151.948 Y104.811 E22.19492
G1 X152.591 Y104.86 E22.21637
G1 X153.223 Y104.988 E22.23782
G1 X153.834 Y105.194 E22.25926
G1 X154.415 Y105.473 E22.2807
G1 X154.957 Y105.822 E22.30214
G1 X155.486 Y106.269 E22.32517
G1 X155.602 Y106.381 E22.33054
G1 X156.037 Y106.857 E22.35198
G1 X156.41 Y107.383 E22.37343
G1 X156.715 Y107.951 E22.39487
G1 X156.947 Y108.552 E22.4163
G1 X157.103 Y109.177 E22.43773
G1 X157.189 Y110.024 E22.46604
G1 X157.199 Y110.556 E22.48374
G1 X157.2 Y110.654 E22.487
G1 X157.2 Y116.254 E22.67326
G1 X157.199 Y116.326 E22.67565
G1 X157.189 Y117.045 E22.69957
G1 X157.141 Y117.688 E22.72101
G1 X157.013 Y118.32 E22.74246
G1 X156.807 Y118.931 E22.76391
G1 X156.528 Y119.512 E22.78534
G1 X156.179 Y120.054 E22.80679
G1 X155.765 Y120.549 E22.82825
G1 X155.17 Y121.087 E22.85493
G1 X154.227 Y121.816 E22.89457
G1 X154.067 Y121.935 E22.9012
G1 X153.538 Y122.313 E22.92283
G1 X151.376 Y123.949 E23.013
G1 X149.306 Y125.611 E23.1013
G1 X147.24 Y127.367 E23.19148
G1 X145.562 Y128.866 E23.26632
G1 X145.056 Y129.265 E23.28775
G1 X144.504 Y129.598 E23.30919
G1 X143.915 Y129.86 E23.33063
G1 X143.298 Y130.048 E23.35209
G1 X142.663 Y130.157 E23.37351
G1 X142.269 Y130.185 E23.38665
G1 X141.934 Y130.196 E23.3978
G1 X141.763 Y130.199 E23.40349
G1 X84.607 Y130.2 E25.30451
G1 X84.533 Y130.199 E25.30697
G1 X83.835 Y130.189 E25.33018
G1 X83.192 Y130.14 E25.35163
G1 X82.56 Y130.012 E25.37308
G1 X81.949 Y129.806 E25.39453
G1 X81.368 Y129.527 E25.41596
G1 X80.826 Y129.178 E25.4374
G1 X80.332 Y128.764 E25.45884
G1 X79.892 Y128.292 E25.4803
G1 X79.514 Y127.77 E25.50174
G1 X79.204 Y127.205 E25.52317
G1 X78.966 Y126.606 E25.54461
G1 X78.804 Y125.982 E25.56605
G1 X78.711 Y125.131 E25.59453
G1 X78.702 Y124.799 E25.60557
G1 X78.7 Y124.658 E25.61026
G1 X78.7 Y110.604 E26.0777
G1 X78.709 Y109.939 E26.09982
G1 X78.758 Y109.296 E26.12127
G1 X78.886 Y108.664 E26.14272
G1 X79.091 Y108.053 E26.16415
G1 X79.37 Y107.472 E26.18559
G1 X79.719 Y106.929 E26.20706
G1 X80.132 Y106.435 E26.22847
G1 X80.603 Y105.995 E26.24991
G1 F2400 E21.24991
G0 F3600 X142.631 Y109.347
G0 X142.885 Y110.2
;TYPE:SUPPORT
G1 F2400 E26.24991
G1 F1800 X151.8 Y110.2 E26.54643
G1 X151.8 Y116.9 E26.76927
G1 X149.199 Y116.9 E26.85578
G1 X148.8 Y117.299 E26.87455
G1 X148.8 Y117.514 E26.8817
G1 X142.943 Y117.514 E27.0765
G1 X142.885 Y110.2 E27.31977
G0 F3600 X144.018 Y110.36
G1 F1800 X144.018 Y117.354 E27.5524
G0 F3600 X143.1 Y117.348
G1 F1800 X148.64 Y117.348 E27.73666
G0 F3600 X149.352 Y116.74
G1 F1800 X149.352 Y110.36 E27.94886
G0 F3600 X146.685 Y110.36
G1 F1800 X146.685 Y117.354 E28.18148
G0 F3600 X143.08 Y114.681
G1 F1800 X151.64 Y114.681 E28.46618
G0 F3600 X151.64 Y112.014
G1 F1800 X143.059 Y112.014 E28.75159
G1 F2400 E23.75159
;MESH:tool_holder_wScrapper.STL
G0 F3600 X141.5 Y112.014
G0 X141.301 Y124.3
G0 X141.301 Y124.4
;TYPE:WALL-INNER
G1 F2400 E28.75159
G1 F1800 X84.5 Y124.4 E30.6408
G1 X84.5 Y110.6 E31.09979
G1 X141.5 Y110.6 E32.99562
G1 X141.501 Y124.2 E33.44795
G1 X141.501 Y124.4 E33.45461
G1 X141.301 Y124.4 E33.45891
G0 F3600 X141.701 Y124.8
;TYPE:WALL-OUTER
G1 F1800 X84.1 Y124.8 E35.37473
G1 X84.1 Y110.2 E35.86033
G1 X141.9 Y110.2 E37.78276
G1 X141.901 Y124.6 E38.26171
G1 X141.901 Y124.8 E38.26836
G1 X141.701 Y124.8 E38.27267
G0 F3600 X141.501 Y124.8
G0 X141.111 Y124.01
;TYPE:SKIN
G1 F1800 X84.89 Y124.01 E40.14259
G1 X84.89 Y110.99 E40.57563
G1 X141.11 Y110.99 E42.44552
G1 X141.111 Y124.01 E42.87857
G0 F3600 X140.929 Y111.514
G1 F1800 X140.585 Y111.169 E42.89477
G0 F3600 X140.019 Y111.169
G1 F1800 X140.929 Y112.079 E42.93757
G0 F3600 X140.929 Y112.645
G1 F1800 X139.454 Y111.169 E43.00698
G0 F3600 X138.888 Y111.169
G1 F1800 X140.929 Y113.211 E43.103
G0 F3600 X140.929 Y113.777
G1 F1800 X138.322 Y111.169 E43.22565
G0 F3600 X137.757 Y111.169
G1 F1800 X140.929 Y114.342 E43.37488
G0 F3600 X140.929 Y114.908
G1 F1800 X137.191 Y111.169 E43.55072
G0 F3600 X136.625 Y111.169
G1 F1800 X140.929 Y115.474 E43.75319
G0 F3600 X140.929 Y116.039
G1 F1800 X136.06 Y111.169 E43.98224
G0 F3600 X135.494 Y111.169
G1 F1800 X140.929 Y116.605 E44.23791
G0 F3600 X140.929 Y117.171
G1 F1800 X134.928 Y111.169 E44.5202
G0 F3600 X134.363 Y111.169
G1 F1800 X140.93 Y117.737 E44.82912
G0 F3600 X140.93 Y118.303
G1 F1800 X133.797 Y111.169 E45.16465
G0 F3600 X133.231 Y111.169
G1 F1800 X140.93 Y118.868 E45.52679
G0 F3600 X140.93 Y119.434
G1 F1800 X132.665 Y111.169 E45.91555
G0 F3600 X132.1 Y111.169
G1 F1800 X140.93 Y120 E46.33091
G0 F3600 X140.93 Y120.565
G1 F1800 X131.534 Y111.169 E46.77287
G0 F3600 X130.968 Y111.169
G1 F1800 X140.93 Y121.131 E47.24145
G0 F3600 X140.93 Y121.697
G1 F1800 X130.403 Y111.169 E47.73663
G0 F3600 X129.837 Y111.169
G1 F1800 X140.93 Y122.263 E48.25844
G0 F3600 X140.93 Y122.828
G1 F1800 X129.271 Y111.169 E48.80684
G0 F3600 X128.706 Y111.169
G1 F1800 X140.93 Y123.394 E49.38185
G0 F3600 X140.799 Y123.829
G1 F1800 X128.14 Y111.169 E49.97731
G0 F3600 X127.574 Y111.169
G1 F1800 X140.234 Y123.829 E50.5728
G0 F3600 X139.668 Y123.829
G1 F1800 X127.009 Y111.169 E51.16826
G0 F3600 X126.443 Y111.169
G1 F1800 X139.102 Y123.829 E51.76372
G0 F3600 X138.537 Y123.829
G1 F1800 X125.877 Y111.169 E52.35921
G0 F3600 X125.312 Y111.169
G1 F1800 X137.971 Y123.829 E52.95468
G0 F3600 X137.405 Y123.829
G1 F1800 X124.746 Y111.169 E53.55014
G0 F3600 X124.18 Y111.169
G1 F1800 X136.84 Y123.829 E54.14563
G0 F3600 X136.274 Y123.829
G1 F1800 X123.614 Y111.169 E54.74112
G0 F3600 X123.049 Y111.169
G1 F1800 X135.708 Y123.829 E55.33658
G0 F3600 X135.142 Y123.829
G1 F1800 X122.483 Y111.169 E55.93204
G0 F3600 X121.917 Y111.169
G1 F1800 X134.577 Y123.829 E56.52753
G0 F3600 X134.011 Y123.829
G1 F1800 X121.352 Y111.169 E57.123
G0 F3600 X120.786 Y111.169
G1 F1800 X133.445 Y123.829 E57.71846
G0 F3600 X132.88 Y123.829
G1 F1800 X120.22 Y111.169 E58.31395
G0 F3600 X119.655 Y111.169
G1 F1800 X132.314 Y123.829 E58.90941
G0 F3600 X131.748 Y123.829
G1 F1800 X119.089 Y111.169 E59.50488
G0 F3600 X118.523 Y111.169
G1 F1800 X131.183 Y123.829 E60.10036
G0 F3600 X130.617 Y123.829
G1 F1800 X117.958 Y111.169 E60.69583
G0 F3600 X117.392 Y111.169
G1 F1800 X130.051 Y123.829 E61.29129
G0 F3600 X129.486 Y123.829
G1 F1800 X116.826 Y111.169 E61.88678
G0 F3600 X116.261 Y111.169
G1 F1800 X128.92 Y123.829 E62.48224
G0 F3600 X128.354 Y123.829
G1 F1800 X115.695 Y111.169 E63.07771
G0 F3600 X115.129 Y111.169
G1 F1800 X127.789 Y123.829 E63.67319
G0 F3600 X127.223 Y123.829
G1 F1800 X114.564 Y111.169 E64.26866
G0 F3600 X113.998 Y111.169
G1 F1800 X126.657 Y123.829 E64.86412
G0 F3600 X126.091 Y123.829
G1 F1800 X113.432 Y111.169 E65.45959
G0 F3600 X112.866 Y111.169
G1 F1800 X125.526 Y123.829 E66.05507
G0 F3600 X124.96 Y123.829
G1 F1800 X112.301 Y111.169 E66.65054
G0 F3600 X111.735 Y111.169
G1 F1800 X124.394 Y123.829 E67.246
G0 F3600 X123.829 Y123.829
G1 F1800 X111.169 Y111.169 E67.84149
G0 F3600 X110.604 Y111.169
G1 F1800 X123.263 Y123.829 E68.43695
G0 F3600 X122.697 Y123.829
G1 F1800 X110.038 Y111.169 E69.03242
G0 F3600 X109.472 Y111.169
G1 F1800 X122.132 Y123.829 E69.62791
G0 F3600 X121.566 Y123.829
G1 F1800 X108.907 Y111.169 E70.22337
G0 F3600 X108.341 Y111.169
G1 F1800 X121 Y123.829 E70.81883
