;FLAVOR:Marlin
;TIME:4270
;Filament used: 1.08136m
;Layer height: 0.1
;MINX:72.6
;MINY:116.44
;MINZ:0.2
;MAXX:98.4
;MAXY:142.56
;MAXZ:38.1
;Generated with Cura_SteamEngine 4.1.0
M140 S60
M105
M190 S60
M104 S200
M105
M109 S200
M82 ;absolute extrusion mode
; Ender 3 Custom Start G-code
G28 ; Home all axes
G92 E0 ; Reset Extruder
G1 Z2.0 F3000 ; Move Z Axis up little to prevent scratching of Heat Bed
G1 X0.1 Y20 Z0.3 F5000.0 ; Move to start position
G1 X0.1 Y200.0 Z0.3 F1500.0 E15 ; Draw the first line
G1 X0.4 Y200.0 Z0.3 F5000.0 ; Move to side a little
G1 X0.4 Y20 Z0.3 F1500.0 E30 ; Draw the second line
G92 E0 ; Reset Extruder
G1 Z2.0 F3000 ; Move Z Axis up little to prevent scratching of Heat Bed
; End of custom start GCode
G92 E0
G92 E0
G1 F3600 E-7
;LAYER_COUNT:380
;LAYER:0
M107
M204 S500
M205 X10 Y10
G0 F3600 X77.816 Y119.055 Z0.2
;TYPE:SKIRT
G1 F3600 E0
G1 F1800 X78.352 Y118.733 E0.0208
G1 X78.449 Y118.676 E0.02454
G1 X79.563 Y118.033 E0.06732
G1 X79.643 Y117.988 E0.07037
G1 X80.279 Y117.633 E0.0946
G1 X80.956 Y117.305 E0.11962
G1 X81.334 Y117.149 E0.13322
G1 X82.29 Y116.84 E0.16664
G1 X82.621 Y116.761 E0.17795
G1 X82.9 Y116.701 E0.18745
G1 X83.254 Y116.633 E0.19944
G1 X83.639 Y116.571 E0.21241
G1 X84.002 Y116.524 E0.22458
G1 X84.384 Y116.486 E0.23735
G1 X84.674 Y116.466 E0.24702
G1 X84.832 Y116.457 E0.25228
G1 X85.104 Y116.445 E0.26134
G1 X85.493 Y116.44 E0.27428
G1 X85.851 Y116.446 E0.28618
G1 X86.329 Y116.472 E0.30211
G1 X87.091 Y116.542 E0.32756
G1 X87.626 Y116.614 E0.34551
G1 X87.913 Y116.665 E0.35521
G1 X88.213 Y116.725 E0.36538
G1 X88.569 Y116.806 E0.37753
G1 X89.445 Y117.073 E0.40798
G1 X89.903 Y117.249 E0.4243
G1 X90.712 Y117.626 E0.45399
G1 X91.251 Y117.925 E0.47449
G1 X91.345 Y117.979 E0.4781
G1 X92.44 Y118.611 E0.52015
G1 X92.514 Y118.654 E0.52299
G1 X93.156 Y119.036 E0.54784
G1 X93.781 Y119.46 E0.57296
G1 X94.113 Y119.715 E0.58688
G1 X94.861 Y120.389 E0.62037
G1 X95.078 Y120.618 E0.63087
G1 X95.222 Y120.775 E0.63795
G1 X95.37 Y120.942 E0.64537
G1 X95.634 Y121.26 E0.65912
G1 X95.972 Y121.695 E0.67744
G1 X96.207 Y122.018 E0.69073
G1 X96.331 Y122.2 E0.69805
G1 X96.453 Y122.386 E0.70545
G1 X96.609 Y122.633 E0.71517
G1 X96.788 Y122.934 E0.72681
G1 X96.991 Y123.298 E0.74068
G1 X97.195 Y123.697 E0.75558
G1 X97.46 Y124.262 E0.77634
G1 X97.686 Y124.807 E0.79596
G1 X97.851 Y125.264 E0.81212
G1 X97.942 Y125.534 E0.8216
G1 X98.027 Y125.807 E0.83111
G1 X98.236 Y126.702 E0.86168
G1 X98.306 Y127.141 E0.87646
G1 X98.385 Y128.018 E0.90575
G1 X98.399 Y128.702 E0.9285
G1 X98.4 Y128.833 E0.93286
G1 X98.4 Y130.108 E0.97527
G1 X98.399 Y130.2 E0.97833
G1 X98.389 Y130.894 E1.00141
G1 X98.336 Y131.628 E1.02589
G1 X98.279 Y132.066 E1.04058
G1 X98.073 Y133.046 E1.07389
G1 X97.998 Y133.301 E1.08273
G1 X97.941 Y133.485 E1.08913
G1 X97.87 Y133.702 E1.09673
G1 X97.722 Y134.107 E1.11107
G1 X97.515 Y134.62 E1.12947
G1 X97.34 Y135.016 E1.14387
G1 X97.215 Y135.274 E1.1534
G1 X97.122 Y135.457 E1.16023
G1 X96.995 Y135.699 E1.16932
G1 X96.842 Y135.974 E1.17979
G1 X96.7 Y136.215 E1.18909
G1 X96.6 Y136.378 E1.19545
G1 X96.479 Y136.57 E1.203
G1 X96.249 Y136.911 E1.21668
G1 X95.869 Y137.436 E1.23824
G1 X95.536 Y137.858 E1.25612
G1 X95.32 Y138.109 E1.26713
G1 X95.163 Y138.284 E1.27495
G1 X94.961 Y138.502 E1.28484
G1 X94.307 Y139.116 E1.31467
G1 X93.931 Y139.422 E1.3308
G1 X93.181 Y139.948 E1.36126
G1 X92.642 Y140.271 E1.38216
G1 X92.551 Y140.324 E1.38567
G1 X91.442 Y140.964 E1.42825
G1 X91.368 Y141.006 E1.43108
G1 X90.73 Y141.363 E1.4554
G1 X90.043 Y141.695 E1.48078
G1 X89.662 Y141.852 E1.49448
G1 X88.71 Y142.16 E1.52776
G1 X88.379 Y142.239 E1.53908
G1 X88.1 Y142.299 E1.54857
G1 X87.746 Y142.367 E1.56056
G1 X87.361 Y142.429 E1.57353
G1 X86.998 Y142.476 E1.58571
G1 X86.616 Y142.514 E1.59847
G1 X86.326 Y142.534 E1.60814
G1 X86.168 Y142.543 E1.61341
G1 X85.896 Y142.555 E1.62246
G1 X85.507 Y142.56 E1.6354
G1 X85.149 Y142.554 E1.64731
G1 X84.671 Y142.528 E1.66323
G1 X83.909 Y142.458 E1.68868
G1 X83.374 Y142.386 E1.70664
G1 X83.087 Y142.335 E1.71633
G1 X82.787 Y142.275 E1.72651
G1 X82.431 Y142.194 E1.73865
G1 X81.555 Y141.927 E1.76911
G1 X81.097 Y141.751 E1.78543
G1 X80.281 Y141.369 E1.8154
G1 X79.724 Y141.059 E1.8366
G1 X79.639 Y141.011 E1.83985
G1 X78.562 Y140.39 E1.88119
G1 X78.486 Y140.346 E1.88412
G1 X77.844 Y139.964 E1.90896
G1 X77.216 Y139.538 E1.9342
G1 X76.883 Y139.282 E1.94817
G1 X76.148 Y138.62 E1.98107
G1 X75.931 Y138.392 E1.99154
G1 X75.776 Y138.223 E1.99917
G1 X75.629 Y138.057 E2.00654
G1 X75.363 Y137.737 E2.02038
G1 X75.024 Y137.3 E2.03878
G1 X74.785 Y136.97 E2.05233
G1 X74.65 Y136.771 E2.06033
G1 X74.528 Y136.585 E2.06773
G1 X74.384 Y136.356 E2.07672
G1 X74.212 Y136.066 E2.08794
G1 X74.009 Y135.702 E2.1018
G1 X73.805 Y135.303 E2.11671
G1 X73.54 Y134.738 E2.13746
G1 X73.314 Y134.193 E2.15709
G1 X73.149 Y133.736 E2.17325
G1 X73.058 Y133.466 E2.18272
G1 X72.973 Y133.193 E2.19223
G1 X72.764 Y132.298 E2.2228
G1 X72.694 Y131.859 E2.23759
G1 X72.615 Y130.982 E2.26687
G1 X72.601 Y130.298 E2.28963
G1 X72.6 Y130.167 E2.29399
G1 X72.6 Y128.892 E2.33639
G1 X72.601 Y128.8 E2.33945
G1 X72.611 Y128.102 E2.36267
G1 X72.666 Y127.351 E2.38772
G1 X72.725 Y126.907 E2.40261
G1 X72.94 Y125.906 E2.43667
G1 X73.014 Y125.66 E2.44521
G1 X73.062 Y125.51 E2.45045
G1 X73.143 Y125.263 E2.45909
G1 X73.301 Y124.833 E2.47433
G1 X73.504 Y124.337 E2.49216
G1 X73.665 Y123.975 E2.50533
G1 X73.783 Y123.731 E2.51435
G1 X73.883 Y123.534 E2.5217
G1 X74.02 Y123.274 E2.53147
G1 X74.171 Y123.004 E2.54176
G1 X74.305 Y122.777 E2.55053
G1 X74.408 Y122.607 E2.55714
G1 X74.527 Y122.419 E2.56454
G1 X74.753 Y122.086 E2.57792
G1 X75.14 Y121.552 E2.59986
G1 X75.478 Y121.125 E2.61797
G1 X75.687 Y120.883 E2.62861
G1 X75.837 Y120.716 E2.63607
G1 X76.039 Y120.498 E2.64596
G1 X76.705 Y119.875 E2.67629
G1 X77.084 Y119.568 E2.69251
G1 X77.816 Y119.055 E2.72224
G0 F3600 X78.022 Y119.398
G1 F1800 X78.558 Y119.076 E2.74304
G1 X78.649 Y119.023 E2.74654
G1 X79.763 Y118.38 E2.78932
G1 X79.838 Y118.337 E2.7922
G1 X80.474 Y117.982 E2.81642
G1 X81.109 Y117.675 E2.83988
G1 X81.487 Y117.519 E2.85348
G1 X82.383 Y117.229 E2.88481
G1 X82.714 Y117.15 E2.89613
G1 X82.975 Y117.094 E2.905
G1 X83.329 Y117.026 E2.91699
G1 X83.691 Y116.968 E2.92919
G1 X84.054 Y116.921 E2.94136
G1 X84.411 Y116.885 E2.9533
G1 X84.701 Y116.865 E2.96296
G1 X84.85 Y116.857 E2.96793
G1 X85.122 Y116.845 E2.97698
G1 X85.487 Y116.84 E2.98912
G1 X85.845 Y116.846 E3.00103
G1 X86.293 Y116.87 E3.01595
G1 X87.055 Y116.94 E3.04141
G1 X87.556 Y117.008 E3.05822
G1 X87.843 Y117.059 E3.06792
G1 X88.124 Y117.116 E3.07745
G1 X88.48 Y117.197 E3.0896
G1 X89.301 Y117.446 E3.11813
G1 X89.759 Y117.622 E3.13445
G1 X90.518 Y117.976 E3.16231
G1 X91.057 Y118.275 E3.18281
G1 X91.145 Y118.325 E3.18617
G1 X92.24 Y118.957 E3.22822
G1 X92.309 Y118.998 E3.23089
G1 X92.951 Y119.38 E3.25574
G1 X93.538 Y119.778 E3.27933
G1 X93.87 Y120.033 E3.29325
G1 X94.57 Y120.664 E3.3246
G1 X94.787 Y120.893 E3.33509
G1 X94.922 Y121.04 E3.34173
G1 X95.07 Y121.207 E3.34915
G1 X95.318 Y121.506 E3.36207
G1 X95.656 Y121.941 E3.38039
G1 X95.877 Y122.244 E3.39287
G1 X96.001 Y122.426 E3.40019
G1 X96.115 Y122.6 E3.40711
G1 X96.271 Y122.847 E3.41683
G1 X96.438 Y123.129 E3.42773
G1 X96.641 Y123.493 E3.44159
G1 X96.833 Y123.867 E3.45557
G1 X97.098 Y124.432 E3.47633
G1 X97.309 Y124.942 E3.49469
G1 X97.474 Y125.399 E3.51085
G1 X97.56 Y125.653 E3.51976
G1 X97.645 Y125.926 E3.52927
G1 X97.841 Y126.765 E3.55793
G1 X97.911 Y127.204 E3.57272
G1 X97.985 Y128.026 E3.60017
G1 X97.999 Y128.71 E3.62292
G1 X98 Y128.833 E3.62701
G1 X98 Y130.108 E3.66942
G1 X97.999 Y130.194 E3.67228
G1 X97.989 Y130.888 E3.69537
G1 X97.94 Y131.576 E3.71831
G1 X97.883 Y132.014 E3.733
G1 X97.689 Y132.933 E3.76424
G1 X97.614 Y133.188 E3.77308
G1 X97.561 Y133.361 E3.7791
G1 X97.49 Y133.578 E3.78669
G1 X97.351 Y133.957 E3.80012
G1 X97.144 Y134.47 E3.81851
G1 X96.98 Y134.841 E3.83201
G1 X96.855 Y135.099 E3.84154
G1 X96.768 Y135.271 E3.84795
G1 X96.641 Y135.513 E3.85704
G1 X96.497 Y135.771 E3.86687
G1 X96.355 Y136.012 E3.87617
G1 X96.262 Y136.165 E3.88213
G1 X96.141 Y136.357 E3.88968
G1 X95.925 Y136.676 E3.90249
G1 X95.545 Y137.201 E3.92405
G1 X95.233 Y137.597 E3.94081
G1 X95.017 Y137.848 E3.95183
G1 X94.87 Y138.012 E3.95915
G1 X94.668 Y138.23 E3.96904
G1 X94.054 Y138.806 E3.99704
G1 X93.678 Y139.112 E4.01316
G1 X92.975 Y139.605 E4.04172
G1 X92.436 Y139.928 E4.06262
G1 X92.351 Y139.978 E4.0659
G1 X91.242 Y140.618 E4.10849
G1 X91.173 Y140.657 E4.11112
G1 X90.535 Y141.014 E4.13544
G1 X89.891 Y141.325 E4.15923
G1 X89.51 Y141.482 E4.17293
G1 X88.617 Y141.771 E4.20415
G1 X88.286 Y141.85 E4.21547
G1 X88.025 Y141.906 E4.22435
G1 X87.671 Y141.974 E4.23634
G1 X87.309 Y142.032 E4.24853
G1 X86.946 Y142.079 E4.2607
G1 X86.589 Y142.115 E4.27264
G1 X86.299 Y142.135 E4.28231
G1 X86.15 Y142.143 E4.28727
G1 X85.878 Y142.155 E4.29633
G1 X85.513 Y142.16 E4.30847
G1 X85.155 Y142.154 E4.32038
G1 X84.707 Y142.13 E4.3353
G1 X83.945 Y142.06 E4.36075
G1 X83.444 Y141.992 E4.37756
G1 X83.157 Y141.941 E4.38726
G1 X82.876 Y141.884 E4.3968
G1 X82.52 Y141.803 E4.40894
G1 X81.699 Y141.554 E4.43747
G1 X81.241 Y141.378 E4.45379
G1 X80.475 Y141.02 E4.48192
G1 X79.918 Y140.71 E4.50312
G1 X79.839 Y140.665 E4.50614
G1 X78.762 Y140.044 E4.54749
G1 X78.691 Y140.002 E4.55023
G1 X78.049 Y139.62 E4.57508
G1 X77.46 Y139.221 E4.59874
G1 X77.127 Y138.965 E4.61271
G1 X76.438 Y138.345 E4.64354
G1 X76.221 Y138.117 E4.65401
G1 X76.075 Y137.958 E4.66119
G1 X75.928 Y137.792 E4.66857
G1 X75.679 Y137.492 E4.68153
G1 X75.34 Y137.055 E4.69993
G1 X75.116 Y136.745 E4.71265
G1 X74.981 Y136.546 E4.72065
G1 X74.867 Y136.372 E4.72757
G1 X74.723 Y136.143 E4.73656
G1 X74.562 Y135.871 E4.74708
G1 X74.359 Y135.507 E4.76094
G1 X74.167 Y135.133 E4.77492
G1 X73.902 Y134.568 E4.79568
G1 X73.691 Y134.058 E4.81403
G1 X73.526 Y133.601 E4.83019
G1 X73.44 Y133.347 E4.83911
G1 X73.355 Y133.074 E4.84862
G1 X73.159 Y132.235 E4.87728
G1 X73.089 Y131.796 E4.89207
G1 X73.015 Y130.974 E4.91952
G1 X73.001 Y130.29 E4.94227
G1 X73 Y130.167 E4.94636
G1 X73 Y128.892 E4.98877
G1 X73.001 Y128.806 E4.99163
G1 X73.011 Y128.108 E5.01485
G1 X73.062 Y127.404 E5.03832
G1 X73.121 Y126.96 E5.05322
G1 X73.323 Y126.022 E5.08513
G1 X73.397 Y125.776 E5.09368
G1 X73.442 Y125.634 E5.09863
G1 X73.523 Y125.387 E5.10728
G1 X73.671 Y124.984 E5.12156
G1 X73.874 Y124.488 E5.13938
G1 X74.025 Y124.149 E5.15173
G1 X74.143 Y123.905 E5.16074
G1 X74.237 Y123.72 E5.16764
G1 X74.374 Y123.46 E5.17742
G1 X74.515 Y123.207 E5.18705
G1 X74.649 Y122.98 E5.19582
G1 X74.746 Y122.821 E5.20201
G1 X74.865 Y122.633 E5.20941
G1 X75.077 Y122.321 E5.22196
G1 X75.464 Y121.787 E5.24389
G1 X75.781 Y121.386 E5.26089
G1 X75.99 Y121.144 E5.27153
G1 X76.13 Y120.988 E5.2785
G1 X76.332 Y120.77 E5.28839
G1 X76.956 Y120.186 E5.31681
G1 X77.335 Y119.879 E5.33303
G1 X78.022 Y119.398 E5.36093
G0 F3600 X78.228 Y119.741
G1 F1800 X78.764 Y119.419 E5.38173
G1 X78.849 Y119.369 E5.38501
G1 X79.963 Y118.726 E5.42779
G1 X80.033 Y118.686 E5.43047
G1 X80.669 Y118.331 E5.45469
G1 X81.262 Y118.045 E5.47659
G1 X81.64 Y117.889 E5.49019
G1 X82.476 Y117.618 E5.51942
G1 X82.807 Y117.539 E5.53074
G1 X83.051 Y117.487 E5.53904
G1 X83.405 Y117.419 E5.55103
G1 X83.742 Y117.364 E5.56238
G1 X84.105 Y117.317 E5.57456
G1 X84.439 Y117.284 E5.58572
G1 X84.729 Y117.264 E5.59539
G1 X84.867 Y117.256 E5.59999
G1 X85.139 Y117.244 E5.60904
G1 X85.48 Y117.24 E5.62039
G1 X85.838 Y117.246 E5.63229
G1 X86.256 Y117.268 E5.64622
G1 X87.018 Y117.338 E5.67167
G1 X87.486 Y117.401 E5.68737
G1 X87.773 Y117.452 E5.69707
G1 X88.035 Y117.506 E5.70597
G1 X88.391 Y117.587 E5.71811
G1 X89.158 Y117.82 E5.74477
G1 X89.616 Y117.996 E5.76109
G1 X90.324 Y118.326 E5.78707
G1 X90.863 Y118.625 E5.80757
G1 X90.945 Y118.672 E5.81071
G1 X92.04 Y119.304 E5.85277
G1 X92.105 Y119.341 E5.85525
G1 X92.747 Y119.723 E5.8801
G1 X93.294 Y120.095 E5.9021
G1 X93.626 Y120.35 E5.91603
G1 X94.28 Y120.939 E5.9453
G1 X94.497 Y121.168 E5.95579
G1 X94.623 Y121.306 E5.96201
G1 X94.771 Y121.473 E5.96943
G1 X95.002 Y121.751 E5.98145
G1 X95.34 Y122.186 E5.99977
G1 X95.546 Y122.469 E6.01142
G1 X95.67 Y122.651 E6.01874
G1 X95.777 Y122.814 E6.02523
G1 X95.933 Y123.061 E6.03494
G1 X96.089 Y123.323 E6.04508
G1 X96.292 Y123.687 E6.05895
G1 X96.471 Y124.037 E6.07202
G1 X96.736 Y124.602 E6.09278
G1 X96.933 Y125.078 E6.10991
G1 X97.098 Y125.535 E6.12607
G1 X97.178 Y125.772 E6.13439
G1 X97.263 Y126.045 E6.1439
G1 X97.446 Y126.828 E6.17065
G1 X97.516 Y127.267 E6.18543
G1 X97.585 Y128.034 E6.21104
G1 X97.599 Y128.718 E6.2338
G1 X97.6 Y128.833 E6.23762
G1 X97.6 Y130.108 E6.28003
G1 X97.599 Y130.189 E6.28273
G1 X97.589 Y130.883 E6.30581
G1 X97.543 Y131.525 E6.32722
G1 X97.486 Y131.963 E6.34191
G1 X97.305 Y132.82 E6.37104
G1 X97.23 Y133.075 E6.37988
G1 X97.18 Y133.236 E6.38549
G1 X97.109 Y133.453 E6.39308
G1 X96.98 Y133.807 E6.40561
G1 X96.773 Y134.32 E6.42401
G1 X96.62 Y134.667 E6.43663
G1 X96.495 Y134.925 E6.44616
G1 X96.414 Y135.085 E6.45213
G1 X96.287 Y135.327 E6.46122
G1 X96.153 Y135.568 E6.47039
G1 X96.011 Y135.809 E6.47969
G1 X95.924 Y135.952 E6.48526
G1 X95.803 Y136.144 E6.49281
G1 X95.601 Y136.441 E6.50475
G1 X95.221 Y136.966 E6.52631
G1 X94.93 Y137.336 E6.54197
G1 X94.714 Y137.587 E6.55298
G1 X94.577 Y137.74 E6.55981
G1 X94.375 Y137.958 E6.5697
G1 X93.802 Y138.495 E6.59582
G1 X93.426 Y138.801 E6.61194
G1 X92.77 Y139.262 E6.63861
G1 X92.231 Y139.585 E6.65951
G1 X92.151 Y139.631 E6.66258
G1 X91.042 Y140.271 E6.70516
G1 X90.978 Y140.308 E6.70762
G1 X90.34 Y140.665 E6.73194
G1 X89.739 Y140.956 E6.75415
G1 X89.358 Y141.113 E6.76785
G1 X88.524 Y141.382 E6.797
G1 X88.193 Y141.461 E6.80832
G1 X87.949 Y141.513 E6.81661
G1 X87.595 Y141.581 E6.8286
G1 X87.258 Y141.636 E6.83996
G1 X86.895 Y141.683 E6.85214
G1 X86.561 Y141.716 E6.8633
G1 X86.271 Y141.736 E6.87297
G1 X86.133 Y141.744 E6.87756
G1 X85.861 Y141.756 E6.88662
G1 X85.52 Y141.76 E6.89796
G1 X85.162 Y141.754 E6.90987
G1 X84.744 Y141.732 E6.92379
G1 X83.982 Y141.662 E6.94924
G1 X83.514 Y141.599 E6.96495
G1 X83.227 Y141.548 E6.97465
G1 X82.965 Y141.494 E6.98354
G1 X82.609 Y141.413 E6.99569
G1 X81.842 Y141.18 E7.02235
G1 X81.384 Y141.004 E7.03867
G1 X80.67 Y140.67 E7.06488
G1 X80.113 Y140.36 E7.08609
G1 X80.039 Y140.318 E7.08892
G1 X78.962 Y139.697 E7.13027
G1 X78.895 Y139.659 E7.13283
G1 X78.253 Y139.277 E7.15767
G1 X77.704 Y138.904 E7.17975
G1 X77.371 Y138.648 E7.19372
G1 X76.728 Y138.069 E7.2225
G1 X76.511 Y137.841 E7.23297
G1 X76.375 Y137.693 E7.23965
G1 X76.228 Y137.527 E7.24703
G1 X75.995 Y137.246 E7.25917
G1 X75.656 Y136.809 E7.27756
G1 X75.447 Y136.521 E7.2894
G1 X75.312 Y136.322 E7.2974
G1 X75.205 Y136.159 E7.30388
G1 X75.061 Y135.93 E7.31288
G1 X74.911 Y135.677 E7.32266
G1 X74.708 Y135.313 E7.33653
G1 X74.529 Y134.963 E7.3496
G1 X74.264 Y134.398 E7.37036
G1 X74.067 Y133.922 E7.38749
G1 X73.902 Y133.465 E7.40365
G1 X73.822 Y133.228 E7.41197
G1 X73.737 Y132.955 E7.42148
G1 X73.554 Y132.172 E7.44823
G1 X73.484 Y131.733 E7.46301
G1 X73.415 Y130.966 E7.48862
G1 X73.401 Y130.282 E7.51138
G1 X73.4 Y130.167 E7.5152
G1 X73.4 Y128.892 E7.55761
G1 X73.401 Y128.812 E7.56027
G1 X73.411 Y128.114 E7.58349
G1 X73.459 Y127.456 E7.60543
G1 X73.518 Y127.012 E7.62033
G1 X73.706 Y126.137 E7.6501
G1 X73.78 Y125.891 E7.65864
G1 X73.822 Y125.759 E7.66325
G1 X73.903 Y125.512 E7.67189
G1 X74.041 Y125.136 E7.68522
G1 X74.244 Y124.64 E7.70304
G1 X74.386 Y124.323 E7.71459
G1 X74.504 Y124.079 E7.72361
G1 X74.591 Y123.906 E7.73005
G1 X74.728 Y123.646 E7.73982
G1 X74.86 Y123.41 E7.74882
G1 X74.994 Y123.183 E7.75758
G1 X75.084 Y123.035 E7.76335
G1 X75.203 Y122.847 E7.77075
G1 X75.401 Y122.556 E7.78245
G1 X75.788 Y122.022 E7.80439
G1 X76.084 Y121.648 E7.82025
G1 X76.293 Y121.406 E7.83089
G1 X76.423 Y121.26 E7.83739
G1 X76.625 Y121.042 E7.84727
G1 X77.208 Y120.496 E7.87384
G1 X77.587 Y120.189 E7.89006
G1 X78.228 Y119.741 E7.91607
G0 F3600 X78.434 Y120.084
G1 F1800 X78.97 Y119.762 E7.93687
G1 X79.049 Y119.715 E7.93993
G1 X80.163 Y119.072 E7.98271
G1 X80.228 Y119.035 E7.9852
G1 X80.864 Y118.68 E8.00942
G1 X81.414 Y118.414 E8.02974
G1 X81.792 Y118.258 E8.04334
G1 X82.569 Y118.007 E8.0705
G1 X82.9 Y117.928 E8.08182
