;FLAVOR:Marlin
;TIME:12044
;Filament used: 8.86805m
;Layer height: 0.2
;MINX:55.03
;MINY:79.41
;MINZ:0.2
;MAXX:164.97
;MAXY:190.59
;MAXZ:10.2
;Generated with Cura_SteamEngine 4.2.1
M140 S60
M105
M190 S60
M104 S200
M105
M109 S200
M82 ;absolute extrusion mode
M201 X500.00 Y500.00 Z100.00 E5000.00 ;Setup machine max acceleration
M203 X500.00 Y500.00 Z10.00 E50.00 ;Setup machine max feedrate
M204 P500.00 R1000.00 T500.00 ;Setup Print/Retract/Travel acceleration
M205 X8.00 Y8.00 Z0.40 E5.00 ;Setup Jerk
M220 S100 ;Reset Feedrate
M221 S100 ;Reset Flowrate

G28 ;Home

G92 E0 ;Reset Extruder
G1 Z2.0 F3000 ;Move Z Axis up
G1 X10.1 Y20 Z0.28 F5000.0 ;Move to start position
G1 X10.1 Y200.0 Z0.28 F1500.0 E15 ;Draw the first line
G1 X10.4 Y200.0 Z0.28 F5000.0 ;Move to side a little
G1 X10.4 Y20 Z0.28 F1500.0 E30 ;Draw the second line
G92 E0 ;Reset Extruder
G1 Z2.0 F3000 ;Move Z Axis up

G92 E0
G92 E0
G1 F3600 E-7
;LAYER_COUNT:50
;LAYER:0
M107
G0 F6000 X61.856 Y81.471 Z0.2
;TYPE:SKIRT
G1 F3600 E0
G1 F1200 X62.669 Y80.958 E0.03517
G1 X63.521 Y80.514 E0.07032
G1 X64.407 Y80.143 E0.10546
G1 X65.321 Y79.847 E0.14061
G1 X66.256 Y79.628 E0.17575
G1 X67.206 Y79.487 E0.21088
G1 X68.152 Y79.426 E0.24557
G1 X68.714 Y79.413 E0.26613
G1 X68.981 Y79.41 E0.2759
G1 X87.033 Y79.41 E0.93636
G1 X87.196 Y79.411 E0.94232
G1 X87.902 Y79.421 E0.96815
G1 X88.225 Y79.43 E0.97997
G1 X88.913 Y79.459 E1.00517
G1 X89.086 Y79.468 E1.01151
G1 X90.325 Y79.539 E1.05691
G1 X92.809 Y79.61 E1.14783
G1 X95.339 Y79.61 E1.24039
G1 X97.819 Y79.541 E1.33116
G1 X99.781 Y79.437 E1.40304
G1 X100.175 Y79.423 E1.41747
G1 X100.766 Y79.412 E1.43909
G1 X100.981 Y79.41 E1.44696
G1 X119.033 Y79.41 E2.10741
G1 X119.196 Y79.411 E2.11338
G1 X119.902 Y79.421 E2.13921
G1 X120.225 Y79.43 E2.15103
G1 X120.913 Y79.459 E2.17622
G1 X121.086 Y79.468 E2.18256
G1 X122.325 Y79.539 E2.22797
G1 X124.809 Y79.61 E2.31888
G1 X127.339 Y79.61 E2.41145
G1 X129.82 Y79.541 E2.50225
G1 X131.781 Y79.437 E2.5741
G1 X132.175 Y79.423 E2.58852
G1 X132.766 Y79.412 E2.61015
G1 X132.981 Y79.41 E2.61801
G1 X151.033 Y79.41 E3.27847
G1 X151.198 Y79.411 E3.2845
G1 X151.896 Y79.421 E3.31004
G1 X152.855 Y79.475 E3.34519
G1 X153.807 Y79.608 E3.38035
G1 X154.744 Y79.82 E3.4155
G1 X155.66 Y80.109 E3.45064
G1 X156.549 Y80.474 E3.4858
G1 X157.404 Y80.911 E3.52093
G1 X158.22 Y81.417 E3.55606
G1 X158.991 Y81.99 E3.59121
G1 X159.469 Y82.399 E3.61422
G1 X159.625 Y82.54 E3.62192
G1 X159.946 Y82.841 E3.63802
G1 X160.11 Y83.001 E3.6464
G1 X160.211 Y83.101 E3.6516
G1 X161.109 Y83.999 E3.69806
G1 X161.222 Y84.114 E3.70396
G1 X161.68 Y84.585 E3.728
G1 X162.321 Y85.301 E3.76316
G1 X162.9 Y86.068 E3.79831
G1 X163.412 Y86.88 E3.83344
G1 X163.856 Y87.732 E3.86859
G1 X164.227 Y88.618 E3.90373
G1 X164.523 Y89.532 E3.93888
G1 X164.743 Y90.467 E3.97402
G1 X164.883 Y91.417 E4.00915
G1 X164.938 Y92.166 E4.03663
G1 X164.961 Y92.738 E4.05757
G1 X164.97 Y93.202 E4.07455
G1 X164.97 Y126.653 E5.2984
G1 X164.969 Y126.818 E5.30443
G1 X164.959 Y127.516 E5.32997
G1 X164.905 Y128.475 E5.36511
G1 X164.772 Y129.427 E5.40028
G1 X164.56 Y130.364 E5.43543
G1 X164.271 Y131.28 E5.47057
G1 X163.906 Y132.169 E5.50573
G1 X163.469 Y133.024 E5.54086
G1 X162.963 Y133.84 E5.57599
G1 X162.39 Y134.611 E5.61113
G1 X161.981 Y135.089 E5.63415
G1 X161.84 Y135.245 E5.64184
G1 X161.528 Y135.577 E5.65851
G1 X161.347 Y135.762 E5.66798
G1 X161.258 Y135.852 E5.67261
G1 X160.388 Y136.722 E5.71763
G1 X160.271 Y136.838 E5.72365
G1 X159.774 Y137.321 E5.74901
G1 X159.551 Y137.531 E5.76022
G1 X159.105 Y137.942 E5.78241
G1 X158.968 Y138.067 E5.78919
G1 X157.924 Y138.999 E5.84039
G1 X156.129 Y140.694 E5.93072
G1 X154.342 Y142.48 E6.02315
G1 X152.639 Y144.282 E6.11386
G1 X150.968 Y146.152 E6.20561
G1 X149.35 Y148.069 E6.29739
G1 X147.802 Y150.014 E6.38834
G1 X146.284 Y152.036 E6.48084
G1 X144.834 Y154.084 E6.57265
G1 X143.479 Y156.118 E6.66207
G1 X142.131 Y158.271 E6.755
G1 X140.863 Y160.431 E6.84664
G1 X139.645 Y162.644 E6.93906
G1 X138.515 Y164.847 E7.02964
G1 X137.45 Y167.074 E7.11996
G1 X136.418 Y169.397 E7.21296
G1 X135.463 Y171.719 E7.30481
G1 X134.577 Y174.071 E7.39677
G1 X133.774 Y176.39 E7.48655
G1 X133.014 Y178.805 E7.57918
G1 X132.563 Y180.378 E7.63905
G1 X132.492 Y180.614 E7.64807
G1 X132.443 Y180.772 E7.65412
G1 X132.121 Y181.677 E7.68926
G1 X131.724 Y182.552 E7.72442
G1 X131.256 Y183.391 E7.75956
G1 X130.72 Y184.188 E7.7947
G1 X129.879 Y185.204 E7.84296
G1 X129.737 Y185.357 E7.8506
G1 X129.528 Y185.577 E7.8617
G1 X129.347 Y185.762 E7.87117
G1 X129.258 Y185.852 E7.8758
G1 X128.389 Y186.721 E7.92076
G1 X128.277 Y186.831 E7.9265
G1 X127.793 Y187.302 E7.95121
G1 X127.077 Y187.943 E7.98637
G1 X126.311 Y188.522 E8.0215
G1 X125.499 Y189.035 E8.05664
G1 X124.647 Y189.479 E8.09179
G1 X123.761 Y189.851 E8.12695
G1 X122.847 Y190.147 E8.1621
G1 X121.912 Y190.367 E8.19724
G1 X120.962 Y190.508 E8.23238
G1 X120.111 Y190.566 E8.26358
G1 X119.544 Y190.584 E8.28434
G1 X119.178 Y190.59 E8.29773
G1 X100.729 Y190.59 E8.97271
G1 X100.564 Y190.589 E8.97875
G1 X99.866 Y190.579 E9.00429
G1 X98.907 Y190.525 E9.03943
G1 X97.955 Y190.392 E9.0746
G1 X97.018 Y190.18 E9.10974
G1 X96.102 Y189.891 E9.14489
G1 X95.213 Y189.526 E9.18005
G1 X94.358 Y189.089 E9.21518
G1 X93.542 Y188.583 E9.2503
G1 X92.771 Y188.01 E9.28545
G1 X92.293 Y187.601 E9.30846
G1 X92.137 Y187.46 E9.31616
G1 X91.796 Y187.139 E9.33329
G1 X91.592 Y186.939 E9.34374
G1 X91.511 Y186.859 E9.34791
G1 X90.881 Y186.229 E9.38051
G1 X90.768 Y186.115 E9.38638
G1 X90.308 Y185.642 E9.41052
G1 X89.668 Y184.926 E9.44565
G1 X89.089 Y184.159 E9.48081
G1 X88.576 Y183.347 E9.51595
G1 X88.132 Y182.495 E9.5511
G1 X87.761 Y181.609 E9.58625
G1 X87.531 Y180.922 E9.61275
G1 X87.295 Y180.138 E9.64271
G1 X87.24 Y179.95 E9.64987
G1 X86.989 Y179.06 E9.6837
G1 X86.249 Y176.7 E9.77419
G1 X85.422 Y174.304 E9.86693
G1 X84.538 Y171.956 E9.95872
G1 X83.598 Y169.662 E10.04942
G1 X82.581 Y167.37 E10.14116
G1 X81.502 Y165.106 E10.23292
G1 X80.356 Y162.871 E10.32481
G1 X79.161 Y160.691 E10.41576
G1 X77.893 Y158.528 E10.5075
G1 X76.572 Y156.414 E10.5987
G1 X75.192 Y154.338 E10.6899
G1 X73.735 Y152.276 E10.78227
G1 X72.236 Y150.275 E10.87375
G1 X70.692 Y148.333 E10.96452
G1 X69.065 Y146.4 E11.05695
G1 X67.414 Y144.548 E11.14773
G1 X65.689 Y142.72 E11.23968
G1 X63.922 Y140.95 E11.33119
G1 X62.096 Y139.221 E11.42319
G1 X60.161 Y137.482 E11.51837
G1 X59.816 Y137.159 E11.53566
G1 X59.611 Y136.959 E11.54614
G1 X59.504 Y136.853 E11.55165
G1 X58.875 Y136.223 E11.58422
G1 X58.759 Y136.105 E11.59028
G1 X58.302 Y135.634 E11.61429
G1 X57.662 Y134.917 E11.64945
G1 X57.084 Y134.15 E11.68459
G1 X56.572 Y133.337 E11.71974
G1 X56.13 Y132.485 E11.75485
G1 X55.759 Y131.598 E11.79003
G1 X55.464 Y130.684 E11.82517
G1 X55.246 Y129.748 E11.86033
G1 X55.107 Y128.798 E11.89546
G1 X55.048 Y127.885 E11.92893
G1 X55.034 Y127.323 E11.9495
G1 X55.03 Y127.036 E11.96
G1 X55.03 Y93.506 E13.18673
G1 X55.031 Y93.341 E13.19277
G1 X55.041 Y92.643 E13.21831
G1 X55.095 Y91.684 E13.25345
G1 X55.228 Y90.732 E13.28862
G1 X55.44 Y89.795 E13.32377
G1 X55.729 Y88.879 E13.35891
G1 X56.094 Y87.99 E13.39407
G1 X56.531 Y87.135 E13.4292
G1 X57.037 Y86.319 E13.46433
G1 X57.61 Y85.548 E13.49947
G1 X58.019 Y85.07 E13.52249
G1 X58.16 Y84.914 E13.53018
G1 X58.472 Y84.582 E13.54685
G1 X58.653 Y84.397 E13.55632
G1 X58.742 Y84.307 E13.56095
G1 X59.787 Y83.262 E13.61502
G1 X59.902 Y83.149 E13.62092
G1 X60.374 Y82.69 E13.645
G1 X61.09 Y82.049 E13.68016
G1 X61.856 Y81.471 E13.71527
G0 F6000 X62.137 Y81.812
G1 F1200 X62.935 Y81.312 E13.74973
G1 X63.773 Y80.882 E13.78419
G1 X64.645 Y80.524 E13.81867
G1 X65.544 Y80.242 E13.85314
G1 X66.463 Y80.037 E13.88759
G1 X67.397 Y79.91 E13.92208
G1 X68.162 Y79.866 E13.95011
G1 X68.724 Y79.853 E13.97068
G1 X68.981 Y79.85 E13.98008
G1 X87.033 Y79.85 E14.64054
G1 X87.19 Y79.851 E14.64628
G1 X87.896 Y79.861 E14.67211
G1 X88.206 Y79.87 E14.68346
G1 X88.894 Y79.899 E14.70865
G1 X89.061 Y79.907 E14.71477
G1 X90.322 Y79.979 E14.76098
G1 X92.797 Y80.05 E14.85157
G1 X95.315 Y80.05 E14.94369
G1 X97.854 Y79.979 E15.03662
G1 X99.804 Y79.876 E15.10806
G1 X100.183 Y79.863 E15.12194
G1 X100.774 Y79.852 E15.14356
G1 X100.981 Y79.85 E15.15114
G1 X119.033 Y79.85 E15.81159
G1 X119.19 Y79.851 E15.81734
G1 X119.896 Y79.861 E15.84317
G1 X120.206 Y79.87 E15.85451
G1 X120.894 Y79.899 E15.87971
G1 X121.061 Y79.907 E15.88582
G1 X122.322 Y79.979 E15.93203
G1 X124.797 Y80.05 E16.02262
G1 X127.315 Y80.05 E16.11475
G1 X129.855 Y79.979 E16.20771
G1 X131.804 Y79.876 E16.27912
G1 X132.183 Y79.863 E16.29299
G1 X132.774 Y79.852 E16.31462
G1 X132.981 Y79.85 E16.32219
G1 X151.033 Y79.85 E16.98265
G1 X151.192 Y79.851 E16.98846
G1 X151.89 Y79.861 E17.014
G1 X152.831 Y79.915 E17.04849
G1 X153.763 Y80.048 E17.08293
G1 X154.681 Y80.259 E17.11739
G1 X155.578 Y80.548 E17.15187
G1 X156.447 Y80.912 E17.18634
G1 X157.282 Y81.348 E17.2208
G1 X158.077 Y81.853 E17.25526
G1 X159.174 Y82.725 E17.30653
G1 X159.33 Y82.866 E17.31423
G1 X159.638 Y83.156 E17.3297
G1 X159.802 Y83.316 E17.33809
G1 X159.9 Y83.412 E17.3431
G1 X160.798 Y84.31 E17.38957
G1 X160.907 Y84.421 E17.39526
G1 X161.365 Y84.892 E17.4193
G1 X161.992 Y85.594 E17.45373
G1 X162.558 Y86.348 E17.48823
G1 X163.058 Y87.146 E17.52268
G1 X163.488 Y87.985 E17.55717
G1 X163.846 Y88.856 E17.59162
G1 X164.128 Y89.755 E17.6261
G1 X164.333 Y90.675 E17.66058
G1 X164.46 Y91.608 E17.69503
G1 X164.498 Y92.184 E17.71615
G1 X164.521 Y92.756 E17.73709
G1 X164.53 Y93.202 E17.75341
G1 X164.53 Y126.653 E18.97726
G1 X164.529 Y126.812 E18.98307
G1 X164.519 Y127.51 E19.00861
G1 X164.465 Y128.451 E19.0431
G1 X164.332 Y129.383 E19.07754
G1 X164.121 Y130.301 E19.112
G1 X163.832 Y131.198 E19.14648
G1 X163.468 Y132.067 E19.18095
G1 X163.032 Y132.902 E19.21542
G1 X162.527 Y133.697 E19.24987
G1 X161.655 Y134.794 E19.30114
G1 X161.514 Y134.95 E19.30884
G1 X161.213 Y135.27 E19.32491
G1 X161.032 Y135.455 E19.33438
G1 X160.947 Y135.541 E19.3388
G1 X160.077 Y136.411 E19.38382
G1 X159.964 Y136.522 E19.38961
G1 X159.467 Y137.005 E19.41497
G1 X159.253 Y137.208 E19.42576
G1 X158.807 Y137.619 E19.44795
G1 X158.675 Y137.738 E19.45445
G1 X157.64 Y138.661 E19.50519
G1 X155.828 Y140.374 E19.59642
G1 X154.04 Y142.16 E19.68888
G1 X152.302 Y143.999 E19.78145
G1 X150.63 Y145.87 E19.87326
G1 X149.016 Y147.783 E19.96483
G1 X147.449 Y149.751 E20.05687
G1 X145.933 Y151.77 E20.14924
G1 X144.481 Y153.822 E20.24121
G1 X143.091 Y155.909 E20.33295
G1 X141.749 Y158.051 E20.42543
G1 X140.484 Y160.207 E20.51688
G1 X139.268 Y162.414 E20.60907
G1 X138.113 Y164.667 E20.7017
G1 X137.051 Y166.887 E20.79174
G1 X136.015 Y169.22 E20.88513
G1 X135.046 Y171.577 E20.97837
G1 X134.179 Y173.878 E21.06833
G1 X133.346 Y176.285 E21.16152
G1 X132.596 Y178.667 E21.25288
G1 X132.14 Y180.257 E21.3134
G1 X132.072 Y180.484 E21.32207
G1 X132.023 Y180.642 E21.32812
G1 X131.706 Y181.529 E21.36258
G1 X131.315 Y182.386 E21.39705
G1 X130.852 Y183.207 E21.43153
G1 X130.322 Y183.986 E21.466
G1 X129.557 Y184.905 E21.50975
G1 X129.415 Y185.058 E21.51739
G1 X129.213 Y185.27 E21.5281
G1 X129.032 Y185.455 E21.53757
G1 X128.947 Y185.541 E21.54199
G1 X128.078 Y186.41 E21.58696
G1 X127.97 Y186.516 E21.59249
G1 X127.486 Y186.987 E21.6172
G1 X126.784 Y187.615 E21.65166
G1 X126.031 Y188.181 E21.68613
G1 X125.232 Y188.681 E21.72061
G1 X124.394 Y189.111 E21.75507
G1 X123.523 Y189.469 E21.78952
G1 X122.624 Y189.752 E21.82401
G1 X121.705 Y189.958 E21.85846
G1 X120.771 Y190.084 E21.89294
G1 X120.097 Y190.126 E21.91765
G1 X119.53 Y190.144 E21.93841
G1 X119.178 Y190.15 E21.95129
G1 X100.729 Y190.15 E22.62626
G1 X100.57 Y190.149 E22.63208
G1 X99.872 Y190.139 E22.65762
G1 X98.931 Y190.085 E22.6921
G1 X97.999 Y189.952 E22.72655
G1 X97.081 Y189.741 E22.76101
G1 X96.184 Y189.452 E22.79549
G1 X95.315 Y189.088 E22.82996
G1 X94.48 Y188.652 E22.86442
G1 X93.685 Y188.147 E22.89888
G1 X92.588 Y187.275 E22.95015
G1 X92.432 Y187.134 E22.95784
G1 X92.104 Y186.825 E22.97433
G1 X91.9 Y186.625 E22.98478
G1 X91.822 Y186.548 E22.98879
G1 X91.192 Y185.918 E23.02139
G1 X91.084 Y185.808 E23.02703
G1 X90.624 Y185.335 E23.05117
G1 X89.996 Y184.632 E23.08566
G1 X89.43 Y183.879 E23.12012
G1 X88.93 Y183.08 E23.1546
G1 X88.5 Y182.242 E23.18906
G1 X88.142 Y181.37 E23.22355
G1 X87.952 Y180.796 E23.24567
G1 X87.716 Y180.012 E23.27563
G1 X87.663 Y179.83 E23.28256
G1 X87.414 Y178.948 E23.31609
G1 X86.656 Y176.532 E23.40873
G1 X85.837 Y174.156 E23.50068
G1 X84.951 Y171.804 E23.59264
G1 X84.001 Y169.485 E23.68432
G1 X82.98 Y167.184 E23.77642
G1 X81.891 Y164.898 E23.86906
G1 X80.77 Y162.713 E23.95891
G1 X79.531 Y160.453 E24.05321
G1 X78.268 Y158.299 E24.14456
G1 X76.94 Y156.173 E24.23627
G1 X75.557 Y154.092 E24.32769
G1 X74.086 Y152.01 E24.42095
G1 X72.588 Y150.012 E24.51232
G1 X71.029 Y148.05 E24.604
G1 X69.415 Y146.133 E24.69568
G1 X67.717 Y144.228 E24.78905
G1 X66.009 Y142.418 E24.8801
G1 X64.225 Y140.631 E24.97248
G1 X62.4 Y138.903 E25.06443
G1 X60.455 Y137.155 E25.16011
G1 X60.124 Y136.844 E25.17672
G1 X59.919 Y136.644 E25.1872
G1 X59.815 Y136.542 E25.19253
G1 X59.186 Y135.912 E25.2251
G1 X59.075 Y135.799 E25.2309
G1 X58.618 Y135.328 E25.25491
G1 X57.991 Y134.624 E25.2894
G1 X57.426 Y133.87 E25.32387
G1 X56.927 Y133.071 E25.35834
G1 X56.498 Y132.232 E25.39281
G1 X56.141 Y131.36 E25.42728
G1 X55.86 Y130.461 E25.46175
G1 X55.655 Y129.542 E25.49619
G1 X55.53 Y128.608 E25.53067
G1 X55.487 Y127.874 E25.55757
G1 X55.473 Y127.312 E25.57814
G1 X55.47 Y127.036 E25.58824
G1 X55.47 Y93.506 E26.81497
G1 X55.471 Y93.347 E26.82079
G1 X55.481 Y92.649 E26.84633
G1 X55.535 Y91.708 E26.88081
G1 X55.668 Y90.776 E26.91526
G1 X55.879 Y89.858 E26.94972
G1 X56.168 Y88.961 E26.9842
G1 X56.532 Y88.092 E27.01867
G1 X56.968 Y87.257 E27.05313
G1 X57.473 Y86.462 E27.08759
G1 X58.345 Y85.365 E27.13886
G1 X58.486 Y85.209 E27.14655
G1 X58.787 Y84.889 E27.16262
G1 X58.968 Y84.704 E27.17209
G1 X59.053 Y84.618 E27.17652
G1 X60.098 Y83.573 E27.23059
G1 X60.208 Y83.464 E27.23625
G1 X60.68 Y83.005 E27.26034
G1 X61.383 Y82.378 E27.2948
G1 X62.137 Y81.812 E27.3293
G0 F6000 X62.416 Y82.154
G1 F1200 X63.201 Y81.667 E27.36309
G1 X64.025 Y81.251 E27.39687
G1 X64.882 Y80.907 E27.43065
G1 X65.765 Y80.639 E27.46441
G1 X66.668 Y80.448 E27.49818
G1 X67.585 Y80.336 E27.53198
G1 X68.172 Y80.306 E27.55348
G1 X68.734 Y80.293 E27.57405
G1 X68.981 Y80.29 E27.58309
G1 X87.033 Y80.29 E28.24354
G1 X87.184 Y80.291 E28.24907
G1 X87.89 Y80.301 E28.2749
G1 X88.188 Y80.309 E28.2858
G1 X88.876 Y80.338 E28.311
G1 X89.036 Y80.346 E28.31686
G1 X90.285 Y80.417 E28.36263
G1 X92.819 Y80.49 E28.45538
G1 X95.327 Y80.49 E28.54713
G1 X97.892 Y80.418 E28.64102
G1 X99.828 Y80.316 E28.71194
G1 X100.192 Y80.303 E28.72527
G1 X100.783 Y80.292 E28.7469
G1 X100.981 Y80.29 E28.75414
G1 X119.033 Y80.29 E29.41459
G1 X119.184 Y80.291 E29.42012
G1 X119.89 Y80.301 E29.44595
G1 X120.188 Y80.309 E29.45686
G1 X120.876 Y80.338 E29.48205
G1 X121.036 Y80.346 E29.48791
G1 X122.285 Y80.417 E29.53368
G1 X124.819 Y80.49 E29.62643
G1 X127.327 Y80.49 E29.71819
G1 X129.89 Y80.418 E29.812
G1 X131.827 Y80.316 E29.88296
G1 X132.192 Y80.303 E29.89632
G1 X132.783 Y80.292 E29.91795
G1 X132.981 Y80.29 E29.92519
G1 X151.033 Y80.29 E30.58565
G1 X151.186 Y80.291 E30.59124
G1 X151.884 Y80.301 E30.61678
G1 X152.805 Y80.354 E30.65054
G1 X153.719 Y80.487 E30.68433
G1 X154.618 Y80.698 E30.71811
G1 X155.495 Y80.987 E30.7519
G1 X156.344 Y81.35 E30.78568
G1 X157.158 Y81.785 E30.81944
G1 X157.932 Y82.289 E30.85324
G1 X158.879 Y83.052 E30.89773
G1 X159.035 Y83.193 E30.90542
G1 X159.331 Y83.471 E30.92028
G1 X159.495 Y83.631 E30.92866
G1 X159.589 Y83.723 E30.93348
G1 X160.487 Y84.621 E30.97994
G1 X160.591 Y84.727 E30.98537
G1 X161.049 Y85.198 E31.00941
G1 X161.664 Y85.888 E31.04322
G1 X162.216 Y86.627 E31.07697
G1 X162.703 Y87.412 E31.11077
G1 X163.119 Y88.236 E31.14454
G1 X163.463 Y89.093 E31.17833
G1 X163.731 Y89.976 E31.21209
G1 X163.922 Y90.88 E31.24589
G1 X164.058 Y92.202 E31.29451
G1 X164.081 Y92.774 E31.31546
G1 X164.09 Y93.202 E31.33112
G1 X164.09 Y126.653 E32.55496
G1 X164.089 Y126.806 E32.56056
G1 X164.079 Y127.504 E32.5861
G1 X164.026 Y128.425 E32.61985
G1 X163.893 Y129.339 E32.65364
G1 X163.682 Y130.238 E32.68743
